; generated by PrusaSlicer 2.4.2 on 2022-06-10 at 00:55:24 UTC

; 

; external perimeters extrusion width = 0.45mm
; perimeters extrusion width = 0.45mm
; infill extrusion width = 0.45mm
; solid infill extrusion width = 0.45mm
; top infill extrusion width = 0.45mm
; first layer extrusion width = 0.42mm

; external perimeters extrusion width = 0.45mm
; perimeters extrusion width = 0.45mm
; infill extrusion width = 0.45mm
; solid infill extrusion width = 0.45mm
; top infill extrusion width = 0.45mm
; first layer extrusion width = 0.42mm

M107
;TYPE:Custom
G90 ; use absolute coordinates
M83 ; extruder relative mode
M140 S60 ; set final bed temp
M104 S150 ; set temporary nozzle temp to prevent oozing during homing
G4 S10 ; allow partial nozzle warmup
G28 ; home all axis
G1 Z50 F240
G1 X2 Y10 F3000
M104 S205 ; set final nozzle temp
M190 S60 ; wait for bed temp to stabilize
M109 S205 ; wait for nozzle temp to stabilize
G1 Z0.28 F240
G92 E0
G1 Y140 E10 F1500 ; prime the nozzle
G1 X2.3 F5000
G92 E0
G1 Y10 E10 F1200 ; prime the nozzle
G92 E0
G21 ; set units to millimeters
G90 ; use absolute coordinates
M83 ; use relative distances for extrusion
; Filament gcode
M107
;LAYER_CHANGE
;Z:0.2
;HEIGHT:0.2
;BEFORE_LAYER_CHANGE
G92 E0
;0.2


G1 E-6 F3600
G1 Z.2 F9000
;AFTER_LAYER_CHANGE
;0.2
G1 X114.596 Y79.151
G1 E6 F2400
M204 S500
;TYPE:Skirt/Brim
;WIDTH:0.42
G1 F1200
G1 X115.594 Y77.861 E.05115
G1 X117.687 Y77.134 E.06948
G1 X189.187 Y77.134 E2.24183
G1 X190.771 Y77.528 E.05115
G1 X192.317 Y79.241 E.07237
G1 X230.441 Y173.223 E3.17996
G1 X230.689 Y174.493 E.04055
G1 X230.689 Y245.993 E2.24183
G1 X230.295 Y247.576 E.05115
G1 X229.204 Y248.789 E.05115
G1 X227.312 Y249.37 E.06207
G1 X127.312 Y249.37 E3.13543
G1 X125.226 Y248.649 E.0692
G1 X87.35 Y218.904 E1.50999
G1 X86.348 Y217.617 E.05115
G1 X86.059 Y216.248 E.04385
G1 X86.059 Y144.748 E2.24183
G1 X86.344 Y143.389 E.04356
G1 X114.572 Y79.206 E2.19844
G1 E-4.2 F3600
;WIPE_START
G1 F7200
G1 X115.594 Y77.861 E-.80263
G1 X117.399 Y77.234 E-.90737
;WIPE_END
G1 E-.09 F3600
G1 X120 Y85.424 F9000
G1 E6 F2400
;TYPE:Perimeter
G1 F1200
G1 X119.907 Y85.396 E.00307
G1 X119.554 Y85.207 E.01254
G1 X119.245 Y84.953 E.01254
G1 X118.991 Y84.644 E.01254
G1 X118.802 Y84.291 E.01254
G1 X118.686 Y83.909 E.01254
G1 X118.647 Y83.511 E.01254
G1 X118.686 Y83.113 E.01254
G1 X118.802 Y82.73 E.01254
G1 X118.991 Y82.377 E.01254
G1 X119.245 Y82.068 E.01254
G1 X119.554 Y81.814 E.01254
G1 X119.909 Y81.624 E.01263
G1 X120.307 Y81.508 E.01301
G1 X120.687 Y81.47 E.01198
G1 X121.085 Y81.509 E.01254
G1 X121.468 Y81.626 E.01254
G1 X121.821 Y81.814 E.01254
G1 X122.13 Y82.068 E.01254
G1 X122.384 Y82.377 E.01254
G1 X122.572 Y82.73 E.01254
G1 X122.601 Y82.824 E.00307
G1 X184.274 Y82.824 E1.93371
G1 X184.302 Y82.73 E.00307
G1 X184.491 Y82.377 E.01254
G1 X184.745 Y82.068 E.01254
G1 X185.054 Y81.814 E.01254
G1 X185.409 Y81.624 E.01263
G1 X185.807 Y81.508 E.01301
G1 X186.187 Y81.47 E.01198
G1 X186.585 Y81.509 E.01254
G1 X186.968 Y81.626 E.01254
G1 X187.321 Y81.814 E.01254
G1 X187.63 Y82.068 E.01254
G1 X187.884 Y82.377 E.01254
G1 X188.072 Y82.73 E.01254
G1 X188.189 Y83.113 E.01254
G1 X188.228 Y83.511 E.01254
G1 X188.189 Y83.909 E.01254
G1 X188.072 Y84.291 E.01254
G1 X187.884 Y84.644 E.01254
G1 X187.63 Y84.953 E.01254
G1 X187.321 Y85.207 E.01254
G1 X186.968 Y85.396 E.01254
G1 X186.874 Y85.424 E.00307
G1 X186.874 Y127.397 E1.31603
G1 X186.968 Y127.426 E.00307
G1 X187.321 Y127.614 E.01254
G1 X187.63 Y127.868 E.01254
G1 X187.884 Y128.177 E.01254
G1 X188.072 Y128.53 E.01254
G1 X188.189 Y128.913 E.01254
G1 X188.228 Y129.311 E.01254
G1 X188.189 Y129.709 E.01254
G1 X188.072 Y130.091 E.01254
G1 X187.884 Y130.444 E.01254
G1 X187.63 Y130.753 E.01254
G1 X187.321 Y131.007 E.01254
G1 X186.968 Y131.196 E.01254
G1 X186.585 Y131.312 E.01254
G1 X186.187 Y131.351 E.01254
G1 X185.789 Y131.312 E.01254
G1 X185.407 Y131.196 E.01254
G1 X185.054 Y131.007 E.01254
G1 X184.745 Y130.753 E.01254
G1 X184.491 Y130.444 E.01254
G1 X184.302 Y130.091 E.01254
G1 X184.274 Y129.998 E.00307
G1 X122.601 Y129.998 E1.93371
G1 X122.572 Y130.091 E.00307
G1 X122.384 Y130.444 E.01254
G1 X122.13 Y130.753 E.01254
G1 X121.821 Y131.007 E.01254
G1 X121.468 Y131.196 E.01254
G1 X121.085 Y131.312 E.01254
G1 X120.687 Y131.351 E.01254
G1 X120.289 Y131.312 E.01254
G1 X119.907 Y131.196 E.01254
G1 X119.554 Y131.007 E.01254
G1 X119.245 Y130.753 E.01254
G1 X118.991 Y130.444 E.01254
G1 X118.802 Y130.091 E.01254
G1 X118.686 Y129.709 E.01254
G1 X118.647 Y129.311 E.01254
G1 X118.686 Y128.913 E.01254
G1 X118.802 Y128.53 E.01254
G1 X118.991 Y128.177 E.01254
G1 X119.245 Y127.868 E.01254
G1 X119.554 Y127.614 E.01254
G1 X119.909 Y127.424 E.01263
G1 X120 Y127.397 E.00298
G1 X120 Y85.484 E1.31416
G1 X120.377 Y85.73 F9000
;TYPE:External perimeter
G1 F1200
G1 X121.114 Y85.657 E.02322
G1 X121.525 Y85.533 E.01345
G1 X121.903 Y85.33 E.01345
G1 X122.235 Y85.058 E.01345
G1 X122.507 Y84.726 E.01345
G1 X122.709 Y84.348 E.01345
G1 X122.834 Y83.938 E.01345
G1 X122.906 Y83.201 E.02322
G1 X183.968 Y83.201 E1.91455
G1 X184.041 Y83.938 E.02322
G1 X184.165 Y84.348 E.01345
G1 X184.368 Y84.726 E.01345
G1 X184.64 Y85.058 E.01345
G1 X184.972 Y85.33 E.01345
G1 X185.35 Y85.533 E.01345
G1 X185.76 Y85.657 E.01345
G1 X186.497 Y85.73 E.02322
G1 X186.497 Y127.092 E1.29687
G1 X185.76 Y127.164 E.02322
G1 X185.35 Y127.289 E.01345
G1 X184.972 Y127.491 E.01345
G1 X184.64 Y127.763 E.01345
G1 X184.368 Y128.095 E.01345
G1 X184.165 Y128.473 E.01345
G1 X184.041 Y128.884 E.01345
G1 X183.968 Y129.621 E.02322
G1 X122.906 Y129.621 E1.91455
G1 X122.834 Y128.884 E.02322
G1 X122.709 Y128.473 E.01345
G1 X122.507 Y128.095 E.01345
G1 X122.235 Y127.763 E.01345
G1 X121.903 Y127.491 E.01345
G1 X121.525 Y127.289 E.01345
G1 X121.114 Y127.164 E.01345
G1 X120.377 Y127.092 E.02322
G1 X120.377 Y85.79 E1.29499
G1 X120.349 Y85.331 F9000
G1 X120.363 Y85.14
G1 F1200
G1 X120.052 Y85.046 E.01021
G1 X119.764 Y84.892 E.01021
G1 X119.513 Y84.685 E.01021
G1 X119.306 Y84.434 E.01021
G1 X119.152 Y84.146 E.01021
G1 X119.058 Y83.835 E.01021
G1 X119.026 Y83.511 E.01021
G1 X119.058 Y83.186 E.01021
G1 X119.152 Y82.875 E.01021
G1 X119.306 Y82.588 E.01021
G1 X119.512 Y82.336 E.01021
G1 X119.764 Y82.129 E.01021
G1 X120.052 Y81.975 E.01024
G1 X120.379 Y81.879 E.01068
G1 X120.687 Y81.849 E.00971
G1 X121.012 Y81.881 E.01021
G1 X121.323 Y81.976 E.01021
G1 X121.61 Y82.129 E.01021
G1 X121.862 Y82.336 E.01021
G1 X122.069 Y82.588 E.01021
G1 X122.222 Y82.875 E.01021
G1 X122.317 Y83.186 E.01021
G1 X122.349 Y83.511 E.01021
G1 X122.317 Y83.835 E.01021
G1 X122.222 Y84.146 E.01021
G1 X122.069 Y84.434 E.01021
G1 X121.862 Y84.685 E.01021
G1 X121.61 Y84.892 E.01021
G1 X121.323 Y85.046 E.01021
G1 X121.012 Y85.14 E.01021
G1 X120.687 Y85.172 E.01021
G1 X120.423 Y85.146 E.00833
G1 X120.148 Y85.385 F9000
G1 E-4.2 F3600
;WIPE_START
G1 F7200
G1 X120.052 Y85.046 E-.18274
G1 X119.764 Y84.892 E-.1547
G1 X119.513 Y84.685 E-.15472
G1 X119.306 Y84.434 E-.15473
G1 X119.152 Y84.146 E-.15471
G1 X119.058 Y83.835 E-.15469
G1 X119.026 Y83.511 E-.15473
G1 X119.058 Y83.186 E-.15472
G1 X119.152 Y82.875 E-.1547
G1 X119.306 Y82.588 E-.15473
G1 X119.486 Y82.368 E-.13486
;WIPE_END
G1 E-.09 F3600
G1 X120.687 Y127.649 F9000
G1 E6 F2400
G1 F1200
G1 X121.012 Y127.681 E.01021
G1 X121.323 Y127.776 E.01021
G1 X121.61 Y127.929 E.01021
G1 X121.862 Y128.136 E.01021
G1 X122.069 Y128.388 E.01021
G1 X122.222 Y128.675 E.01021
G1 X122.317 Y128.986 E.01021
G1 X122.349 Y129.311 E.01021
G1 X122.317 Y129.635 E.01021
G1 X122.222 Y129.946 E.01021
G1 X122.069 Y130.234 E.01021
G1 X121.862 Y130.485 E.01021
G1 X121.61 Y130.692 E.01021
G1 X121.323 Y130.846 E.01021
G1 X121.012 Y130.94 E.01021
G1 X120.687 Y130.972 E.01021
G1 X120.363 Y130.94 E.01021
G1 X120.052 Y130.846 E.01021
G1 X119.764 Y130.692 E.01021
G1 X119.513 Y130.485 E.01021
G1 X119.306 Y130.234 E.01021
G1 X119.152 Y129.946 E.01021
G1 X119.058 Y129.635 E.01021
G1 X119.026 Y129.311 E.01021
G1 X119.058 Y128.986 E.01021
G1 X119.152 Y128.675 E.01021
G1 X119.306 Y128.388 E.01021
G1 X119.513 Y128.136 E.01021
G1 X119.764 Y127.929 E.01021
G1 X120.053 Y127.775 E.01025
G1 X120.379 Y127.679 E.01068
G1 X120.628 Y127.655 E.00782
G1 X120.85 Y127.367 F9000
G1 E-4.2 F3600
;WIPE_START
G1 F7200
G1 X121.012 Y127.681 E-.18276
G1 X121.323 Y127.776 E-.1547
G1 X121.61 Y127.929 E-.15471
G1 X121.862 Y128.136 E-.15472
G1 X122.069 Y128.388 E-.15472
G1 X122.222 Y128.675 E-.15471
G1 X122.317 Y128.986 E-.1547
G1 X122.349 Y129.311 E-.15471
G1 X122.317 Y129.635 E-.15472
G1 X122.222 Y129.946 E-.1547
G1 X122.089 Y130.197 E-.13486
;WIPE_END
G1 E-.09 F3600
G1 X184.526 Y129.311 F9000
G1 E6 F2400
G1 F1200
G1 X184.558 Y128.986 E.01021
G1 X184.652 Y128.675 E.01021
G1 X184.806 Y128.388 E.01021
G1 X185.013 Y128.136 E.01021
G1 X185.264 Y127.929 E.01021
G1 X185.553 Y127.775 E.01025
G1 X185.879 Y127.679 E.01068
G1 X186.187 Y127.649 E.0097
G1 X186.512 Y127.681 E.01021
G1 X186.823 Y127.776 E.01021
G1 X187.11 Y127.929 E.01021
G1 X187.362 Y128.136 E.01021
G1 X187.569 Y128.388 E.01021
G1 X187.722 Y128.675 E.01021
G1 X187.817 Y128.986 E.01021
G1 X187.849 Y129.311 E.01021
G1 X187.817 Y129.635 E.01021
G1 X187.722 Y129.946 E.01021
G1 X187.569 Y130.234 E.01021
G1 X187.362 Y130.485 E.01021
G1 X187.11 Y130.692 E.01021
G1 X186.823 Y130.846 E.01021
G1 X186.512 Y130.94 E.01021
G1 X186.187 Y130.972 E.01021
G1 X185.863 Y130.94 E.01021
G1 X185.552 Y130.846 E.01021
G1 X185.264 Y130.692 E.01021
G1 X185.013 Y130.485 E.01021
G1 X184.806 Y130.234 E.01021
G1 X184.652 Y129.946 E.01021
G1 X184.558 Y129.635 E.01021
G1 X184.532 Y129.37 E.00833
G1 X184.244 Y129.148 F9000
G1 E-4.2 F3600
;WIPE_START
G1 F7200
G1 X184.558 Y128.986 E-.18275
G1 X184.652 Y128.675 E-.1547
G1 X184.806 Y128.388 E-.15473
G1 X185.013 Y128.136 E-.15471
G1 X185.264 Y127.929 E-.15472
G1 X185.553 Y127.775 E-.15522
G1 X185.879 Y127.679 E-.16177
G1 X186.187 Y127.649 E-.14701
G1 X186.512 Y127.681 E-.15471
G1 X186.823 Y127.776 E-.1547
G1 X187.074 Y127.91 E-.13497
;WIPE_END
G1 E-.09 F3600
G1 X186.187 Y85.172 F9000
G1 E6 F2400
G1 F1200
G1 X185.863 Y85.14 E.01021
G1 X185.552 Y85.046 E.01021
G1 X185.264 Y84.892 E.01021
G1 X185.013 Y84.685 E.01021
G1 X184.806 Y84.434 E.01021
G1 X184.652 Y84.146 E.01021
G1 X184.558 Y83.835 E.01021
G1 X184.526 Y83.511 E.01021
G1 X184.558 Y83.186 E.01021
G1 X184.652 Y82.875 E.01021
G1 X184.806 Y82.588 E.01021
G1 X185.013 Y82.336 E.01021
G1 X185.264 Y82.129 E.01021
G1 X185.552 Y81.975 E.01025
G1 X185.879 Y81.879 E.01068
G1 X186.187 Y81.849 E.00971
G1 X186.512 Y81.881 E.01021
G1 X186.823 Y81.976 E.01021
G1 X187.11 Y82.129 E.01021
G1 X187.362 Y82.336 E.01021
G1 X187.569 Y82.588 E.01021
G1 X187.722 Y82.875 E.01021
G1 X187.817 Y83.186 E.01021
G1 X187.849 Y83.511 E.01021
G1 X187.817 Y83.835 E.01021
G1 X187.722 Y84.146 E.01021
G1 X187.569 Y84.434 E.01021
G1 X187.362 Y84.685 E.01021
G1 X187.111 Y84.892 E.01021
G1 X186.823 Y85.046 E.01021
G1 X186.512 Y85.14 E.01021
G1 X186.247 Y85.166 E.00833
G1 X186.025 Y85.454 F9000
G1 E-4.2 F3600
;WIPE_START
G1 F7200
G1 X185.863 Y85.14 E-.18275
G1 X185.552 Y85.046 E-.15471
G1 X185.264 Y84.892 E-.15471
G1 X185.013 Y84.685 E-.15471
G1 X184.806 Y84.434 E-.15472
G1 X184.652 Y84.146 E-.15471
G1 X184.558 Y83.835 E-.15469
G1 X184.526 Y83.511 E-.15473
G1 X184.558 Y83.186 E-.15472
G1 X184.652 Y82.875 E-.1547
G1 X184.786 Y82.624 E-.13486
;WIPE_END
G1 E-.09 F3600
G1 X188.5 Y81.198 F9000
G1 E6 F2400
;TYPE:Perimeter
G1 F1200
G1 X188.5 Y131.624 E1.58107
G1 X118.374 Y131.624 E2.19875
G1 X118.374 Y81.198 E1.58107
G1 X188.44 Y81.198 E2.19687
G1 X188.877 Y80.821 F9000
;TYPE:External perimeter
G1 F1200
G1 X188.877 Y132.001 E1.60471
G1 X117.997 Y132.001 E2.22239
G1 X117.997 Y80.821 E1.60471
G1 X188.817 Y80.821 E2.22051
G1 X188.753 Y81.201 F9000
G1 X188.387 Y82.233
;TYPE:Solid infill
;WIDTH:0.495415
G1 F1200
G1 X187.465 Y81.311 E.04907
G1 X187.233 Y81.528 F9000
;TYPE:Gap fill
;WIDTH:0.123995
G1 F1200
G1 X187.082 Y81.427 E.00122
;WIDTH:0.123993
G1 X187.057 Y81.42 E.00018
;WIDTH:0.111226
G1 X187.05 Y81.419 E.00004
;WIDTH:0.108607
G1 X186.974 Y81.408 E.00042
G1 X185.4 Y81.408 F9000
;WIDTH:0.106652
G1 F1200
G1 X185.329 Y81.418 E.00038
;WIDTH:0.109288
G1 X185.322 Y81.419 E.00004
;WIDTH:0.123998
G1 X185.292 Y81.427 E.0002
;WIDTH:0.123999
G1 X185.141 Y81.528 E.00122
G1 X184.14 Y81.311 F9000
;TYPE:Solid infill
;WIDTH:0.421324
G1 F1200
G1 X184.627 Y81.798 E.02169
G1 X184.544 Y81.867 E.00341
G1 X184.371 Y82.077 E.00856
G1 X183.775 Y81.48 E.02655
G1 X183.239 Y81.48 E.01684
G1 X184.158 Y82.399 E.04089
G1 X184.083 Y82.541 E.00504
G1 X183.764 Y82.541 E.01001
G1 X182.704 Y81.48 E.04718
G1 X182.169 Y81.48 E.01684
G1 X183.229 Y82.541 E.04718
G1 X182.694 Y82.541 E.01684
G1 X181.634 Y81.48 E.04718
G1 X181.099 Y81.48 E.01684
G1 X182.159 Y82.541 E.04718
G1 X181.624 Y82.541 E.01684
G1 X180.564 Y81.48 E.04718
G1 X180.029 Y81.48 E.01684
G1 X181.089 Y82.541 E.04718
G1 X180.554 Y82.541 E.01684
G1 X179.493 Y81.48 E.04718
G1 X178.958 Y81.48 E.01684
G1 X180.018 Y82.541 E.04718
G1 X179.483 Y82.541 E.01684
G1 X178.423 Y81.48 E.04718
G1 X177.888 Y81.48 E.01684
G1 X178.948 Y82.541 E.04718
G1 X178.413 Y82.541 E.01684
G1 X177.353 Y81.48 E.04718
G1 X176.818 Y81.48 E.01684
G1 X177.878 Y82.541 E.04718
G1 X177.343 Y82.541 E.01684
G1 X176.283 Y81.48 E.04718
G1 X175.747 Y81.48 E.01684
G1 X176.808 Y82.541 E.04718
G1 X176.272 Y82.541 E.01684
G1 X175.212 Y81.48 E.04718
G1 X174.677 Y81.48 E.01684
G1 X175.737 Y82.541 E.04718
G1 X175.202 Y82.541 E.01684
G1 X174.142 Y81.48 E.04718
G1 X173.607 Y81.48 E.01684
G1 X174.667 Y82.541 E.04718
G1 X174.132 Y82.541 E.01684
G1 X173.072 Y81.48 E.04718
G1 X172.536 Y81.48 E.01684
G1 X173.597 Y82.541 E.04718
G1 X173.062 Y82.541 E.01684
G1 X172.001 Y81.48 E.04718
G1 X171.466 Y81.48 E.01684
G1 X172.526 Y82.541 E.04718
G1 X171.991 Y82.541 E.01684
G1 X170.931 Y81.48 E.04718
G1 X170.396 Y81.48 E.01684
G1 X171.456 Y82.541 E.04718
G1 X170.921 Y82.541 E.01684
G1 X169.861 Y81.48 E.04718
G1 X169.326 Y81.48 E.01684
G1 X170.386 Y82.541 E.04718
G1 X169.851 Y82.541 E.01684
G1 X168.79 Y81.48 E.04718
G1 X168.255 Y81.48 E.01684
G1 X169.316 Y82.541 E.04718
G1 X168.78 Y82.541 E.01684
G1 X167.72 Y81.48 E.04718
G1 X167.185 Y81.48 E.01684
G1 X168.245 Y82.541 E.04718
G1 X167.71 Y82.541 E.01684
G1 X166.65 Y81.48 E.04718
G1 X166.115 Y81.48 E.01684
G1 X167.175 Y82.541 E.04718
G1 X166.64 Y82.541 E.01684
G1 X165.58 Y81.48 E.04718
G1 X165.044 Y81.48 E.01684
G1 X166.105 Y82.541 E.04718
G1 X165.57 Y82.541 E.01684
G1 X164.509 Y81.48 E.04718
G1 X163.974 Y81.48 E.01684
G1 X165.034 Y82.541 E.04718
G1 X164.499 Y82.541 E.01684
G1 X163.439 Y81.48 E.04718
G1 X162.904 Y81.48 E.01684
G1 X163.964 Y82.541 E.04718
G1 X163.429 Y82.541 E.01684
G1 X162.369 Y81.48 E.04718
G1 X161.834 Y81.48 E.01684
G1 X162.894 Y82.541 E.04718
G1 X162.359 Y82.541 E.01684
G1 X161.298 Y81.48 E.04718
G1 X160.763 Y81.48 E.01684
G1 X161.824 Y82.541 E.04718
G1 X161.288 Y82.541 E.01684
G1 X160.228 Y81.48 E.04718
G1 X159.693 Y81.48 E.01684
G1 X160.753 Y82.541 E.04718
G1 X160.218 Y82.541 E.01684
G1 X159.158 Y81.48 E.04718
G1 X158.623 Y81.48 E.01684
G1 X159.683 Y82.541 E.04718
G1 X159.148 Y82.541 E.01684
G1 X158.088 Y81.48 E.04718
G1 X157.552 Y81.48 E.01684
G1 X158.613 Y82.541 E.04718
G1 X158.078 Y82.541 E.01684
G1 X157.017 Y81.48 E.04718
G1 X156.482 Y81.48 E.01684
G1 X157.542 Y82.541 E.04718
G1 X157.007 Y82.541 E.01684
G1 X155.947 Y81.48 E.04718
G1 X155.412 Y81.48 E.01684
G1 X156.472 Y82.541 E.04718
G1 X155.937 Y82.541 E.01684
G1 X154.877 Y81.48 E.04718
G1 X154.342 Y81.48 E.01684
G1 X155.402 Y82.541 E.04718
G1 X154.867 Y82.541 E.01684
G1 X153.806 Y81.48 E.04718
G1 X153.271 Y81.48 E.01684
G1 X154.332 Y82.541 E.04718
G1 X153.796 Y82.541 E.01684
G1 X152.736 Y81.48 E.04718
G1 X152.201 Y81.48 E.01684
G1 X153.261 Y82.541 E.04718
G1 X152.726 Y82.541 E.01684
G1 X151.666 Y81.48 E.04718
G1 X151.131 Y81.48 E.01684
G1 X152.191 Y82.541 E.04718
G1 X151.656 Y82.541 E.01684
G1 X150.596 Y81.48 E.04718
G1 X150.06 Y81.48 E.01684
G1 X151.121 Y82.541 E.04718
G1 X150.586 Y82.541 E.01684
G1 X149.525 Y81.48 E.04718
G1 X148.99 Y81.48 E.01684
G1 X150.05 Y82.541 E.04718
G1 X149.515 Y82.541 E.01684
G1 X148.455 Y81.48 E.04718
