; generated by PrusaSlicer 2.6.0 on 2023-10-08 at 12:12:00 UTC

; 

; external perimeters extrusion width = 0.42mm
; perimeters extrusion width = 0.44mm
; infill extrusion width = 0.44mm
; solid infill extrusion width = 0.44mm
; top infill extrusion width = 0.40mm
; first layer extrusion width = 0.42mm

;TYPE:Custom
G90 ; use absolute coordinates
M83 ; extruder relative mode
M140 S60 ; set final bed temp
M104 S150 ; set temporary nozzle temp to prevent oozing during homing
G4 S10 ; allow partial nozzle warmup
G28 ; home all axis
G1 Z50 F240
G1 X2 Y10 F3000
M104 S210 ; set final nozzle temp
M190 S60 ; wait for bed temp to stabilize
M109 S210 ; wait for nozzle temp to stabilize
G1 Z0.28 F240
G92 E0
G1 Y140 E10 F1500 ; prime the nozzle
G1 X2.3 F5000
G92 E0
G1 Y10 E10 F1200 ; prime the nozzle
G92 E0
G21 ; set units to millimeters
G90 ; use absolute coordinates
M83 ; use relative distances for extrusion
; Filament gcode
M107
;LAYER_CHANGE
;Z:0.2
;HEIGHT:0.2
;BEFORE_LAYER_CHANGE
G92 E0
;0.2


G1 E-6 F3600
G1 Z.2 F9000
;AFTER_LAYER_CHANGE
;0.2
G1 X102.017 Y78.417
G1 E6 F2400
M204 S500
;TYPE:Skirt/Brim
;WIDTH:0.42
G1 F1200
G1 X103.107 Y77.203 E.05116
G1 X105 Y76.623 E.06208
G1 X205 Y76.623 E3.13543
G1 X206.583 Y77.017 E.05115
G1 X207.797 Y78.107 E.05116
G1 X208.377 Y80 E.06208
G1 X208.377 Y230 E4.70314
G1 X207.983 Y231.583 E.05115
G1 X206.893 Y232.797 E.05116
G1 X205 Y233.377 E.06208
G1 X105 Y233.377 E3.13543
G1 X103.417 Y232.983 E.05115
G1 X102.203 Y231.893 E.05116
G1 X101.623 Y230 E.06208
G1 X101.623 Y80 E4.70314
G1 X102.003 Y78.475 E.04928
G1 E-4.2 F3600
;WIPE_START
G1 F7200
G1 X103.107 Y77.203 E-.80003
G1 X105 Y76.623 E-.94043
G1 X105.125 Y76.623 E-.05954
;WIPE_END
G1 X199.53 Y81.064 F9000
G1 E6 F2400
;TYPE:Perimeter
;WIDTH:0.419999
G1 F1200
G1 X199.124 Y81.313 E.01493
G1 X198.936 Y81.879 E.0187
G1 X198.936 Y93.121 E.35248
G1 X198.939 Y93.204 E.0026
G1 X199.023 Y93.517 E.01016
G1 X199.217 Y93.793 E.01058
G1 X199.506 Y93.987 E.01091
G1 X199.879 Y94.064 E.01194
G1 X203.121 Y94.064 E.10165
G1 X203.687 Y93.876 E.0187
G1 X203.936 Y93.47 E.01493
G1 X203.936 Y228.936 E4.24743
G1 X106.064 Y228.936 E3.0687
G1 X106.064 Y93.47 E4.24743
G1 X106.313 Y93.876 E.01493
G1 X106.879 Y94.064 E.0187
G1 X110.121 Y94.064 E.10165
G1 X110.271 Y94.052 E.00472
G1 X110.576 Y93.947 E.01011
G1 X110.814 Y93.761 E.00947
G1 X111.006 Y93.448 E.01151
G1 X111.064 Y93.121 E.01041
G1 X111.064 Y81.879 E.35248
G1 X110.876 Y81.313 E.0187
G1 X110.378 Y81.064 E.01746
G1 X125.53 Y81.064 E.47508
G1 X125.124 Y81.313 E.01493
G1 X124.936 Y81.879 E.0187
G1 X124.936 Y93.121 E.35248
G1 X124.939 Y93.204 E.0026
G1 X125.023 Y93.517 E.01016
G1 X125.217 Y93.793 E.01058
G1 X125.529 Y93.997 E.01169
G1 X125.879 Y94.064 E.01117
G1 X129.255 Y94.055 E.10585
G1 X129.565 Y93.953 E.01023
G1 X129.804 Y93.772 E.0094
G1 X129.992 Y93.484 E.01078
G1 X130.064 Y93.121 E.0116
G1 X130.064 Y81.879 E.35248
G1 X129.876 Y81.313 E.0187
G1 X129.378 Y81.064 E.01746
G1 X180.53 Y81.064 E1.60383
G1 X180.124 Y81.313 E.01493
G1 X179.936 Y81.879 E.0187
G1 X179.936 Y93.121 E.35248
G1 X179.944 Y93.247 E.00396
G1 X180.061 Y93.591 E.01139
G1 X180.273 Y93.844 E.01035
G1 X180.516 Y93.992 E.00892
G1 X180.879 Y94.064 E.0116
G1 X184.17 Y94.063 E.10319
G1 X184.516 Y93.978 E.01117
G1 X184.814 Y93.761 E.01156
G1 X185.006 Y93.448 E.01151
G1 X185.064 Y93.121 E.01041
G1 X185.064 Y81.879 E.35248
G1 X184.876 Y81.313 E.0187
G1 X184.378 Y81.064 E.01746
G1 X199.47 Y81.064 E.4732
G1 X199.374 Y81.696 F9000
G1 F1200
G1 X199.426 Y81.539 E.00519
;WIDTH:0.463679
G1 X199.541 Y81.445 E.0052
;WIDTH:0.507359
G1 X199.655 Y81.351 E.00571
;WIDTH:0.551038
G1 X199.769 Y81.257 E.00624
G1 X199.879 Y81.251 E.00465
;WIDTH:0.544381
G1 X203.121 Y81.251 E.13518
G1 X203.255 Y81.327 E.00642
;WIDTH:0.502921
G1 X203.388 Y81.403 E.00586
;WIDTH:0.46146
G1 X203.521 Y81.479 E.00533
G1 X203.597 Y81.612 E.00533
;WIDTH:0.502921
G1 X203.673 Y81.745 E.00586
;WIDTH:0.544381
G1 X203.749 Y81.879 E.00642
G1 X203.749 Y93.121 E.46875
;WIDTH:0.551037
G1 X203.743 Y93.231 E.00465
G1 X203.649 Y93.345 E.00624
;WIDTH:0.507358
G1 X203.555 Y93.459 E.00571
;WIDTH:0.463679
G1 X203.461 Y93.574 E.0052
;WIDTH:0.419999
G1 X203.121 Y93.687 E.01123
G1 X199.879 Y93.687 E.10165
G1 X199.606 Y93.617 E.00884
G1 X199.404 Y93.429 E.00865
G1 X199.313 Y93.121 E.01007
G1 X199.313 Y81.879 E.35248
G1 X199.355 Y81.753 E.00416
G1 X199.846 Y81.693 F9000
;TYPE:External perimeter
G1 F1200
G1 X203.121 Y81.69 E.10269
G1 X203.255 Y81.745 E.00454
G1 X203.31 Y81.879 E.00454
G1 X203.31 Y93.121 E.35248
G1 X203.235 Y93.272 E.00529
G1 X203.121 Y93.31 E.00377
G1 X199.879 Y93.31 E.10165
G1 X199.734 Y93.242 E.00502
G1 X199.69 Y93.121 E.00404
G1 X199.69 Y81.879 E.35248
G1 X199.728 Y81.765 E.00377
G1 X199.795 Y81.724 E.00246
G1 X199.938 Y81.304 F9000
G1 E-4.2 F3600
;WIPE_START
G1 F7200
G1 X203.121 Y81.69 E-1.57993
G1 X203.255 Y81.745 E-.0688
G1 X203.31 Y81.879 E-.0688
G1 X203.31 Y82.053 E-.08247
;WIPE_END
G1 X204.313 Y80.687 F9000
G1 E6 F2400
;TYPE:Perimeter
G1 F1200
G1 X204.313 Y81.151 E.01455
;WIDTH:0.46146
G1 X204.292 Y81.393 E.00845
;WIDTH:0.502921
G1 X204.271 Y81.636 E.00933
;WIDTH:0.544381
G1 X204.251 Y81.879 E.01017
G1 X204.251 Y93.121 E.46875
;WIDTH:0.551037
G1 X204.269 Y93.516 E.01671
;WIDTH:0.507358
G1 X204.291 Y93.758 E.00938
;WIDTH:0.463679
G1 X204.313 Y94 E.0085
;WIDTH:0.419999
G1 X204.313 Y229.313 E4.24264
G1 X105.687 Y229.313 E3.09234
G1 X105.687 Y94 E4.24264
;WIDTH:0.46146
G1 X105.708 Y93.707 E.01022
;WIDTH:0.502921
G1 X105.729 Y93.414 E.01124
;WIDTH:0.544381
G1 X105.749 Y93.121 E.01225
G1 X105.749 Y81.879 E.46875
G1 X105.729 Y81.481 E.01662
;WIDTH:0.502921
G1 X105.708 Y81.084 E.01521
;WIDTH:0.46146
G1 X105.687 Y80.687 E.01384
;WIDTH:0.419999
G1 X106.151 Y80.687 E.01455
;WIDTH:0.46146
G1 X106.393 Y80.708 E.00845
;WIDTH:0.502921
G1 X106.636 Y80.729 E.00933
;WIDTH:0.544381
G1 X106.879 Y80.749 E.01017
G1 X110.121 Y80.749 E.13518
G1 X110.414 Y80.729 E.01225
;WIDTH:0.502921
G1 X110.707 Y80.708 E.01124
;WIDTH:0.46146
G1 X111 Y80.687 E.01022
;WIDTH:0.419999
G1 X125 Y80.687 E.43896
;WIDTH:0.46146
G1 X125.293 Y80.708 E.01022
;WIDTH:0.502921
G1 X125.586 Y80.729 E.01124
;WIDTH:0.544381
G1 X125.879 Y80.749 E.01225
G1 X129.121 Y80.749 E.13518
G1 X129.414 Y80.729 E.01225
;WIDTH:0.502921
G1 X129.707 Y80.708 E.01124
;WIDTH:0.46146
G1 X130 Y80.687 E.01022
;WIDTH:0.419999
G1 X180 Y80.687 E1.56771
;WIDTH:0.46146
G1 X180.293 Y80.708 E.01022
;WIDTH:0.502921
G1 X180.586 Y80.729 E.01124
;WIDTH:0.544381
G1 X180.879 Y80.749 E.01225
G1 X184.121 Y80.749 E.13518
G1 X184.414 Y80.729 E.01225
;WIDTH:0.502921
G1 X184.707 Y80.708 E.01124
;WIDTH:0.46146
G1 X185 Y80.687 E.01022
;WIDTH:0.419999
G1 X199 Y80.687 E.43896
;WIDTH:0.46146
G1 X199.293 Y80.708 E.01022
;WIDTH:0.502921
G1 X199.586 Y80.729 E.01124
;WIDTH:0.544381
G1 X199.879 Y80.749 E.01225
G1 X203.121 Y80.749 E.13518
G1 X203.519 Y80.729 E.01662
;WIDTH:0.502921
G1 X203.916 Y80.708 E.01521
;WIDTH:0.46146
G1 X204.253 Y80.69 E.01174
G1 X204.69 Y80.31 F9000
;TYPE:External perimeter
;WIDTH:0.419999
G1 F1200
G1 X204.69 Y229.69 E4.6837
G1 X105.31 Y229.69 E3.11598
G1 X105.31 Y80.31 E4.6837
G1 X204.63 Y80.31 E3.1141
G1 X204.612 Y80.702 F9000
G1 X203.884 Y81.091
;TYPE:Perimeter
;WIDTH:0.593152
G1 F1200
G1 X203.815 Y81.091 E.00316
G1 X203.78 Y81.151 E.00318
G1 X203.815 Y81.21 E.00314
G1 X203.884 Y81.21 E.00316
G1 X203.918 Y81.151 E.00312
G1 E-4.2 F3600
;WIPE_START
G1 F7200
G1 X203.884 Y81.21 E-.03235
G1 X203.815 Y81.21 E-.03278
G1 X203.78 Y81.151 E-.03259
G1 X203.815 Y81.091 E-.03299
G1 X203.884 Y81.091 E-.03278
;WIPE_END
G1 E-1.63651 F3600
G1 X184.274 Y81.348 F9000
G1 E6 F2400
;WIDTH:0.502921
G1 F1200
G1 X184.423 Y81.443 E.00676
;WIDTH:0.46146
G1 X184.574 Y81.539 E.00623
;WIDTH:0.419999
G1 X184.687 Y81.879 E.01123
G1 X184.678 Y93.224 E.35571
G1 X184.556 Y93.483 E.00898
G1 X184.331 Y93.647 E.00873
G1 X184.121 Y93.687 E.0067
G1 X180.879 Y93.687 E.10165
G1 X180.612 Y93.621 E.00862
G1 X180.426 Y93.461 E.00769
G1 X180.318 Y93.197 E.00894
G1 X180.313 Y81.879 E.35487
G1 X180.426 Y81.539 E.01123
;WIDTH:0.463679
G1 X180.541 Y81.445 E.0052
;WIDTH:0.507359
G1 X180.655 Y81.351 E.00571
;WIDTH:0.551038
G1 X180.769 Y81.257 E.00624
G1 X180.879 Y81.251 E.00465
;WIDTH:0.544381
G1 X184.121 Y81.251 E.13518
G1 X184.223 Y81.316 E.00504
G1 X184.121 Y81.69 F9000
;TYPE:External perimeter
;WIDTH:0.419999
G1 F1200
G1 X184.272 Y81.765 E.00529
G1 X184.31 Y81.879 E.00377
G1 X184.307 Y93.156 E.35358
G1 X184.219 Y93.283 E.00484
G1 X184.121 Y93.31 E.00319
G1 X180.879 Y93.31 E.10165
G1 X180.742 Y93.251 E.00468
G1 X180.69 Y93.121 E.00439
G1 X180.69 Y81.879 E.35248
G1 X180.728 Y81.765 E.00377
G1 X180.879 Y81.69 E.00529
G1 X184.061 Y81.69 E.09977
G1 X184.245 Y81.576 F9000
G1 E-4.2 F3600
;WIPE_START
G1 F7200
G1 X184.272 Y81.765 E-.10637
G1 X184.31 Y81.879 E-.05708
G1 X184.309 Y85.324 E-1.63655
;WIPE_END
G1 X169.556 Y84.794 F9000
G1 E6 F2400
;TYPE:Perimeter
G1 F1200
G1 X169.564 Y124.121 E1.23307
G1 X169.492 Y124.484 E.0116
G1 X169.304 Y124.772 E.01078
G1 X169.011 Y124.98 E.01127
G1 X168.621 Y125.064 E.01251
G1 X141.379 Y125.064 E.85415
G1 X141.016 Y124.992 E.0116
G1 X140.721 Y124.797 E.01109
G1 X140.525 Y124.521 E.01061
G1 X140.436 Y124.121 E.01285
G1 X140.436 Y84.879 E1.2304
G1 X140.508 Y84.516 E.0116
G1 X140.624 Y84.313 E.00733
G1 X140.813 Y84.124 E.00838
G1 X141.216 Y83.95 E.01376
G1 X141.379 Y83.936 E.00513
G1 X168.621 Y83.936 E.85415
G1 X168.927 Y83.987 E.00973
G1 X169.187 Y84.124 E.00921
G1 X169.376 Y84.313 E.00838
G1 X169.551 Y84.734 E.0143
G1 X169.183 Y84.836 F9000
G1 F1200
G1 X169.187 Y124.121 E1.23175
G1 X169.123 Y124.382 E.00843
G1 X168.937 Y124.591 E.00877
G1 X168.674 Y124.685 E.00876
G1 X168.621 Y124.687 E.00166
G1 X141.379 Y124.687 E.85415
G1 X141.112 Y124.621 E.00862
G1 X140.913 Y124.442 E.00839
G1 X140.815 Y124.172 E.00901
G1 X140.813 Y124.121 E.0016
G1 X140.813 Y84.879 E1.2304
G1 X140.856 Y84.661 E.00697
G1 X141.039 Y84.426 E.00934
G1 X141.281 Y84.321 E.00827
G1 X141.379 Y84.313 E.00308
G1 X168.621 Y84.313 E.85415
G1 X168.805 Y84.343 E.00585
G1 X169.074 Y84.539 E.01044
G1 X169.178 Y84.776 E.00811
G1 X168.81 Y84.879 F9000
;TYPE:External perimeter
G1 F1200
G1 X168.81 Y124.121 E1.2304
G1 X168.743 Y124.266 E.00501
G1 X168.621 Y124.31 E.00407
G1 X141.379 Y124.31 E.85415
G1 X141.232 Y124.24 E.0051
G1 X141.19 Y124.121 E.00396
G1 X141.19 Y84.879 E1.2304
G1 X141.265 Y84.728 E.00529
G1 X141.379 Y84.69 E.00377
G1 X168.621 Y84.69 E.85415
G1 X168.772 Y84.765 E.00529
G1 X168.791 Y84.822 E.00188
G1 X169.196 Y84.982 F9000
G1 E-4.2 F3600
;WIPE_START
G1 F7200
G1 X168.793 Y88.611 E-1.8
;WIPE_END
G1 X129.222 Y93.665 F9000
G1 E6 F2400
;TYPE:Perimeter
G1 F1200
G1 X129.121 Y93.687 E.00324
G1 X125.879 Y93.687 E.10165
G1 X125.722 Y93.665 E.00497
G1 X125.482 Y93.525 E.00871
G1 X125.348 Y93.317 E.00776
G1 X125.313 Y93.121 E.00624
G1 X125.313 Y81.879 E.35248
G1 X125.426 Y81.539 E.01123
;WIDTH:0.463679
G1 X125.541 Y81.445 E.0052
;WIDTH:0.507359
G1 X125.655 Y81.351 E.00571
;WIDTH:0.551038
G1 X125.769 Y81.257 E.00624
G1 X125.879 Y81.251 E.00465
;WIDTH:0.544381
G1 X129.121 Y81.251 E.13518
G1 X129.272 Y81.347 E.00746
;WIDTH:0.502921
G1 X129.423 Y81.443 E.00684
;WIDTH:0.46146
G1 X129.574 Y81.539 E.00623
;WIDTH:0.419999
G1 X129.687 Y81.879 E.01123
G1 X129.687 Y93.121 E.35248
G1 X129.612 Y93.403 E.00915
G1 X129.437 Y93.591 E.00805
G1 X129.279 Y93.645 E.00524
G1 X129.121 Y93.31 F9000
;TYPE:External perimeter
G1 F1200
G1 X125.879 Y93.31 E.10165
G1 X125.826 Y93.303 E.00168
G1 X125.707 Y93.201 E.00491
G1 X125.69 Y93.121 E.00256
G1 X125.69 Y81.879 E.35248
G1 X125.728 Y81.765 E.00377
G1 X125.879 Y81.69 E.00529
G1 X129.121 Y81.69 E.10165
G1 X129.272 Y81.765 E.00529
G1 X129.31 Y81.879 E.00377
G1 X129.31 Y93.121 E.35248
G1 X129.243 Y93.266 E.00501
G1 X129.178 Y93.289 E.00216
G1 X129.018 Y93.696 F9000
G1 E-4.2 F3600
;WIPE_START
G1 F7200
G1 X125.879 Y93.31 E-1.56706
G1 X125.826 Y93.303 E-.02539
G1 X125.707 Y93.201 E-.07445
G1 X125.69 Y93.121 E-.03885
G1 X125.69 Y92.923 E-.09425
;WIPE_END
G1 X110.163 Y93.684 F9000
G1 E6 F2400
;TYPE:Perimeter
G1 F1200
G1 X106.879 Y93.687 E.10297
G1 X106.539 Y93.574 E.01123
;WIDTH:0.463679
G1 X106.445 Y93.459 E.0052
;WIDTH:0.507359
G1 X106.351 Y93.345 E.00571
;WIDTH:0.551038
G1 X106.257 Y93.231 E.00624
G1 X106.251 Y93.121 E.00465
;WIDTH:0.544381
G1 X106.251 Y81.879 E.46875
G1 X106.327 Y81.745 E.00642
;WIDTH:0.502921
G1 X106.403 Y81.612 E.00586
;WIDTH:0.46146
G1 X106.479 Y81.479 E.00533
;WIDTH:0.463679
G1 X106.576 Y81.405 E.00427
;WIDTH:0.507359
G1 X106.673 Y81.331 E.00471
;WIDTH:0.551038
G1 X106.769 Y81.257 E.00512
G1 X106.879 Y81.251 E.00465
;WIDTH:0.544381
G1 X110.121 Y81.251 E.13518
G1 X110.272 Y81.347 E.00746
;WIDTH:0.502921
G1 X110.423 Y81.443 E.00684
;WIDTH:0.46146
G1 X110.574 Y81.539 E.00623
;WIDTH:0.419999
G1 X110.687 Y81.879 E.01123
G1 X110.687 Y93.121 E.35248
G1 X110.616 Y93.396 E.00891
G1 X110.434 Y93.593 E.00841
G1 X110.222 Y93.675 E.00713
G1 X110.121 Y93.31 F9000
;TYPE:External perimeter
G1 F1200
G1 X106.879 Y93.31 E.10165
G1 X106.765 Y93.272 E.00377
G1 X106.69 Y93.121 E.00529
G1 X106.69 Y81.879 E.35248
G1 X106.745 Y81.745 E.00454
G1 X106.879 Y81.69 E.00454
G1 X110.121 Y81.69 E.10165
G1 X110.272 Y81.765 E.00529
G1 X110.31 Y81.879 E.00377
G1 X110.31 Y93.121 E.35248
G1 X110.242 Y93.266 E.00502
G1 X110.178 Y93.29 E.00214
G1 X110.018 Y93.696 F9000
G1 E-4.2 F3600
;WIPE_START
G1 F7200
G1 X106.879 Y93.31 E-1.56705
G1 X106.765 Y93.272 E-.05708
G1 X106.69 Y93.121 E-.08009
G1 X106.69 Y92.919 E-.09578
;WIPE_END
G1 X106.185 Y81.091 F9000
G1 E6 F2400
;TYPE:Perimeter
;WIDTH:0.59315
G1 F1200
G1 X106.116 Y81.091 E.00316
G1 X106.082 Y81.151 E.00316
G1 X106.116 Y81.21 E.00312
G1 X106.185 Y81.21 E.00316
G1 X106.22 Y81.151 E.00314
G1 E-4.2 F3600
;WIPE_START
G1 F7200
G1 X106.185 Y81.21 E-.03259
G1 X106.116 Y81.21 E-.03278
G1 X106.082 Y81.151 E-.03235
G1 X106.116 Y81.091 E-.03276
G1 X106.185 Y81.091 E-.03278
;WIPE_END
G1 E-1.63674 F3600
G1 X152.95 Y219.601 F9000
G1 E6 F2400
;WIDTH:0.419999
G1 F1200
G1 X153.45 Y219.294 E.0184
G1 X154.116 Y219.051 E.02223
G1 X154.817 Y218.944 E.02223
G1 X155.526 Y218.978 E.02226
G1 X155.675 Y219.002 E.00473
G1 X156.213 Y219.152 E.01751
G1 X156.852 Y219.459 E.02223
G1 X157.418 Y219.886 E.02223
G1 X157.888 Y220.417 E.02223
G1 X158.244 Y221.031 E.02225
G1 X158.47 Y221.703 E.02223
G1 X158.56 Y222.406 E.02222
G1 X158.508 Y223.113 E.02223
G1 X158.316 Y223.796 E.02225
G1 X157.906 Y224.554 E.02702
G1 X157.426 Y225.107 E.02296
G1 X156.861 Y225.536 E.02224
G1 X156.223 Y225.844 E.02221
G1 X155.536 Y226.02 E.02224
G1 X154.828 Y226.057 E.02223
G1 X154.126 Y225.952 E.02226
G1 X153.46 Y225.71 E.02222
G1 X152.854 Y225.341 E.02225
G1 X152.334 Y224.86 E.02221
G1 X151.919 Y224.285 E.02223
G1 X151.626 Y223.639 E.02224
G1 X151.468 Y222.948 E.02222
G1 X151.465 Y222.086 E.02703
G1 X151.623 Y221.371 E.02296
G1 X151.914 Y220.724 E.02224
G1 X152.327 Y220.148 E.02222
G1 X152.898 Y219.633 E.02411
G1 X153.15 Y219.915 F9000
G1 F1200
G1 X153.639 Y219.621 E.01789
G1 X154.237 Y219.408 E.0199
G1 X154.864 Y219.318 E.01986
G1 X155.587 Y219.368 E.02272
G1 X156.111 Y219.515 E.01706
G1 X156.68 Y219.795 E.01988
G1 X157.183 Y220.181 E.01988
G1 X157.599 Y220.66 E.01989
G1 X157.912 Y221.211 E.01987
G1 X158.11 Y221.814 E.0199
G1 X158.184 Y222.444 E.01989
G1 X158.132 Y223.076 E.01988
G1 X157.956 Y223.685 E.01988
G1 X157.58 Y224.366 E.02439
G1 X157.149 Y224.85 E.02032
G1 X156.641 Y225.23 E.01989
G1 X156.068 Y225.501 E.01987
G1 X155.452 Y225.653 E.01989
G1 X154.818 Y225.68 E.0199
G1 X154.192 Y225.581 E.01987
G1 X153.597 Y225.359 E.01991
G1 X153.059 Y225.025 E.01985
G1 X152.597 Y224.59 E.0199
G1 X152.23 Y224.072 E.0199
G1 X151.974 Y223.492 E.01988
G1 X151.837 Y222.873 E.01988
G1 X151.842 Y222.095 E.02439
G1 X151.988 Y221.464 E.02031
G1 X152.253 Y220.888 E.01988
G1 X152.627 Y220.375 E.01991
G1 X153.098 Y219.946 E.01998
G1 X153.345 Y220.23 F9000
;TYPE:External perimeter
G1 F1200
G1 X153.828 Y219.947 E.01755
G1 X154.357 Y219.765 E.01754
G1 X154.911 Y219.692 E.01752
G1 X155.499 Y219.735 E.01849
G1 X156.009 Y219.878 E.01661
G1 X156.508 Y220.13 E.01753
G1 X156.948 Y220.476 E.01755
G1 X157.31 Y220.902 E.01753
