(G-code generated by FlatCAM Evo vUnstable - Version Date: 2022/4/31)

(Name: bot_pcb_2-B_Cu.gbr_iso_combined_cnc)
(Type: G-code from Geometry)
(Units: MM)

(Created on Sunday, 15 October 2023 at 18:08)

(This preprocessor is the default preprocessor.)
(It is made to work with MACH3 compatible motion controllers.)

(TOOL DIAMETER: 0.4875 mm)
(Feedrate_XY: 60.0 mm/min)
(Feedrate_Z: 60.0 mm/min)
(Feedrate rapids 1500.0 mm/min)

(Z_Cut: -0.07 mm)
(Z_Move: 2.0 mm)
(Z Start: None mm)
(Z End: 15.0 mm)
(X,Y End: None mm)
(Steps per circle: 16)
(Preprocessor Geometry: default)

(X range:    2.4562 ...   56.2838  mm)
(Y range:  -41.0438 ...   -2.4562  mm)

(Spindle Speed: 12000.0 RPM)
G21
G90
G94

G01 F60.00
G00 Z2.0000

M03 S12000.0
G01 F60.00
G00 X3.7330 Y-5.3522
G01 F60.00
G01 Z-0.0500
G01 F60.00
G01 X3.7669 Y-5.5762
G01 X3.8335 Y-5.7920
G01 X3.9315 Y-5.9955
G01 X4.0587 Y-6.1821
G01 X4.2123 Y-6.3476
G01 X4.3888 Y-6.4884
G01 X4.5844 Y-6.6013
G01 X4.7946 Y-6.6838
G01 X5.0148 Y-6.7341
G01 X5.1836 Y-6.7467
G01 X5.2964 Y-6.7467
G01 X5.4652 Y-6.7341
G01 X5.6854 Y-6.6838
G01 X5.8956 Y-6.6013
G01 X6.0912 Y-6.4884
G01 X6.2677 Y-6.3476
G01 X6.4213 Y-6.1821
G01 X6.5485 Y-5.9955
G01 X6.6465 Y-5.7920
G01 X6.7131 Y-5.5762
G01 X6.7467 Y-5.3529
G01 X6.7467 Y-5.1271
G01 X6.7131 Y-4.9038
G01 X6.6465 Y-4.6880
G01 X6.5485 Y-4.4845
G01 X6.4213 Y-4.2979
G01 X6.2677 Y-4.1324
G01 X6.0912 Y-3.9916
G01 X5.8956 Y-3.8787
G01 X5.6854 Y-3.7962
G01 X5.4652 Y-3.7459
G01 X5.3641 Y-3.7373
G01 X5.2343 Y-3.7099
G01 X5.1132 Y-3.7378
G01 X5.0148 Y-3.7459
G01 X4.7946 Y-3.7962
G01 X4.5844 Y-3.8787
G01 X4.3888 Y-3.9916
G01 X4.2123 Y-4.1324
G01 X4.0587 Y-4.2979
G01 X3.9315 Y-4.4845
G01 X3.8335 Y-4.6880
G01 X3.7669 Y-4.9038
G01 X3.7329 Y-5.1282
G01 X3.7009 Y-5.2454
G01 X3.7330 Y-5.3522
G00 Z2.0000
G00 X12.6447 Y-13.8811
G01 F60.00
G01 Z-0.0500
G01 F60.00
G01 X12.7577 Y-13.8987
G01 X12.8600 Y-13.9037
G01 X12.9623 Y-13.8987
G01 X13.0636 Y-13.8837
G01 X13.1630 Y-13.8588
G01 X13.2594 Y-13.8243
G01 X13.3520 Y-13.7805
G01 X13.4399 Y-13.7278
G01 X13.5221 Y-13.6668
G01 X13.5980 Y-13.5980
G01 X13.6668 Y-13.5221
G01 X13.7278 Y-13.4399
G01 X13.7805 Y-13.3520
G01 X13.8243 Y-13.2594
G01 X13.8588 Y-13.1630
G01 X13.8837 Y-13.0636
G01 X13.8987 Y-12.9623
G01 X13.9037 Y-12.8600
G01 X13.8987 Y-12.7577
G01 X13.8837 Y-12.6564
G01 X13.8588 Y-12.5570
G01 X13.8243 Y-12.4606
G01 X13.7805 Y-12.3680
G01 X13.7278 Y-12.2801
G01 X13.6668 Y-12.1979
G01 X13.5980 Y-12.1220
G01 X13.5221 Y-12.0532
G01 X13.4399 Y-11.9922
G01 X13.3520 Y-11.9395
G01 X13.2594 Y-11.8957
G01 X13.1630 Y-11.8612
G01 X13.0636 Y-11.8363
G01 X12.9623 Y-11.8213
G01 X12.8600 Y-11.8163
G01 X12.7577 Y-11.8213
G01 X12.6564 Y-11.8363
G01 X12.5570 Y-11.8612
G01 X12.4606 Y-11.8957
G01 X12.3680 Y-11.9395
G01 X12.2801 Y-11.9922
G01 X12.1979 Y-12.0532
G01 X12.1220 Y-12.1220
G01 X12.0532 Y-12.1979
G01 X11.9922 Y-12.2801
G01 X11.9395 Y-12.3680
G01 X11.8957 Y-12.4606
G01 X11.8612 Y-12.5570
G01 X11.8363 Y-12.6564
G01 X11.8213 Y-12.7577
G01 X11.8163 Y-12.8600
G01 X11.8213 Y-12.9623
G01 X11.8363 Y-13.0636
G01 X11.8612 Y-13.1630
G01 X11.8957 Y-13.2594
G01 X11.9395 Y-13.3520
G01 X11.9922 Y-13.4399
G01 X12.0532 Y-13.5221
G01 X12.1220 Y-13.5980
G01 X12.1979 Y-13.6668
G01 X12.2801 Y-13.7278
G01 X12.3680 Y-13.7805
G01 X12.4606 Y-13.8243
G01 X12.6447 Y-13.8811
G00 Z2.0000
G00 X12.6564 Y-16.4237
G01 F60.00
G01 Z-0.0500
G01 F60.00
G01 X12.7577 Y-16.4387
G01 X12.8600 Y-16.4437
G01 X12.9623 Y-16.4387
G01 X13.0636 Y-16.4237
G01 X13.1630 Y-16.3988
G01 X13.2594 Y-16.3643
G01 X13.3520 Y-16.3205
G01 X13.4399 Y-16.2678
G01 X13.5221 Y-16.2068
G01 X13.5980 Y-16.1380
G01 X13.6668 Y-16.0621
G01 X13.7278 Y-15.9799
G01 X13.7805 Y-15.8920
G01 X13.8243 Y-15.7994
G01 X13.8588 Y-15.7030
G01 X13.8837 Y-15.6036
G01 X13.8987 Y-15.5023
G01 X13.9037 Y-15.4000
G01 X13.8987 Y-15.2977
G01 X13.8837 Y-15.1964
G01 X13.8588 Y-15.0970
G01 X13.8243 Y-15.0006
G01 X13.7805 Y-14.9080
G01 X13.7278 Y-14.8201
G01 X13.6668 Y-14.7379
G01 X13.5980 Y-14.6620
G01 X13.5221 Y-14.5932
G01 X13.4399 Y-14.5322
G01 X13.3520 Y-14.4795
G01 X13.2594 Y-14.4357
G01 X13.1630 Y-14.4012
G01 X13.0636 Y-14.3763
G01 X12.9623 Y-14.3613
G01 X12.8600 Y-14.3563
G01 X12.7577 Y-14.3613
G01 X12.6564 Y-14.3763
G01 X12.5570 Y-14.4012
G01 X12.4606 Y-14.4357
G01 X12.3680 Y-14.4795
G01 X12.2801 Y-14.5322
G01 X12.1979 Y-14.5932
G01 X12.1220 Y-14.6620
G01 X12.0532 Y-14.7379
G01 X11.9922 Y-14.8201
G01 X11.9395 Y-14.9080
G01 X11.8957 Y-15.0006
G01 X11.8612 Y-15.0970
G01 X11.8363 Y-15.1964
G01 X11.8213 Y-15.2977
G01 X11.8163 Y-15.4000
G01 X11.8213 Y-15.5023
G01 X11.8363 Y-15.6036
G01 X11.8612 Y-15.7030
G01 X11.8957 Y-15.7994
G01 X11.9395 Y-15.8920
G01 X11.9922 Y-15.9799
G01 X12.0532 Y-16.0621
G01 X12.1220 Y-16.1380
G01 X12.1979 Y-16.2068
G01 X12.2801 Y-16.2678
G01 X12.3680 Y-16.3205
G01 X12.4606 Y-16.3643
G01 X12.5570 Y-16.3988
G01 X12.6564 Y-16.4237
G00 Z2.0000
G00 X12.6447 Y-18.9611
G01 F60.00
G01 Z-0.0500
G01 F60.00
G01 X12.7577 Y-18.9787
G01 X12.8600 Y-18.9837
G01 X12.9623 Y-18.9787
G01 X13.0636 Y-18.9637
G01 X13.1630 Y-18.9388
G01 X13.2594 Y-18.9043
G01 X13.3520 Y-18.8605
G01 X13.4399 Y-18.8078
G01 X13.5221 Y-18.7468
G01 X13.5980 Y-18.6780
G01 X13.6668 Y-18.6021
G01 X13.7278 Y-18.5199
G01 X13.7805 Y-18.4320
G01 X13.8243 Y-18.3394
G01 X13.8588 Y-18.2430
G01 X13.8837 Y-18.1436
G01 X13.8987 Y-18.0423
G01 X13.9037 Y-17.9400
G01 X13.8987 Y-17.8377
G01 X13.8837 Y-17.7364
G01 X13.8588 Y-17.6370
G01 X13.8243 Y-17.5406
G01 X13.7805 Y-17.4480
G01 X13.7278 Y-17.3601
G01 X13.6668 Y-17.2779
G01 X13.5980 Y-17.2020
G01 X13.5221 Y-17.1332
G01 X13.4399 Y-17.0722
G01 X13.3520 Y-17.0195
G01 X13.2594 Y-16.9757
G01 X13.1630 Y-16.9412
G01 X13.0636 Y-16.9163
G01 X12.9623 Y-16.9013
G01 X12.8600 Y-16.8963
G01 X12.7577 Y-16.9013
G01 X12.6564 Y-16.9163
G01 X12.5570 Y-16.9412
G01 X12.4606 Y-16.9757
G01 X12.3680 Y-17.0195
G01 X12.2801 Y-17.0722
G01 X12.1979 Y-17.1332
G01 X12.1220 Y-17.2020
G01 X12.0532 Y-17.2779
G01 X11.9922 Y-17.3601
G01 X11.9395 Y-17.4480
G01 X11.8957 Y-17.5406
G01 X11.8612 Y-17.6370
G01 X11.8363 Y-17.7364
G01 X11.8213 Y-17.8377
G01 X11.8163 Y-17.9400
G01 X11.8213 Y-18.0423
G01 X11.8363 Y-18.1436
G01 X11.8612 Y-18.2430
G01 X11.8957 Y-18.3394
G01 X11.9395 Y-18.4320
G01 X11.9922 Y-18.5199
G01 X12.0532 Y-18.6021
G01 X12.1220 Y-18.6780
G01 X12.1979 Y-18.7468
G01 X12.2801 Y-18.8078
G01 X12.3680 Y-18.8605
G01 X12.4606 Y-18.9043
G01 X12.6447 Y-18.9611
G00 Z2.0000
G00 X12.1306 Y-21.2263
G01 F60.00
G01 Z-0.0500
G01 F60.00
G01 X12.0392 Y-21.1237
G01 X12.0213 Y-21.1237
G01 X12.0478 Y-21.1615
G01 X12.2163 Y-21.3379
G01 X12.2163 Y-21.3008
G01 X12.1306 Y-21.2263
G00 Z2.0000
G00 X12.1137 Y-22.2906
G01 F60.00
G01 Z-0.0500
G01 F60.00
G01 X12.2163 Y-22.1992
G01 X12.2163 Y-22.1621
G01 X12.0478 Y-22.3385
G01 X12.0213 Y-22.3763
G01 X12.0392 Y-22.3763
G01 X12.1137 Y-22.2906
G00 Z2.0000
G00 X13.5980 Y-22.2820
G01 F60.00
G01 Z-0.0500
G01 F60.00
G01 X13.6808 Y-22.3762
G01 X13.6987 Y-22.3762
G01 X13.6722 Y-22.3385
G01 X13.5037 Y-22.1621
G01 X13.5037 Y-22.1992
G01 X13.5980 Y-22.2820
G00 Z2.0000
G00 X13.5037 Y-21.3379
G01 F60.00
G01 Z-0.0500
G01 F60.00
G01 X13.6722 Y-21.1615
G01 X13.6987 Y-21.1238
G01 X13.6808 Y-21.1238
G01 X13.5980 Y-21.2180
G01 X13.5037 Y-21.3008
G01 X13.5037 Y-21.3379
G00 Z2.0000
G00 X12.6564 Y-26.5837
G01 F60.00
G01 Z-0.0500
G01 F60.00
G01 X12.7577 Y-26.5987
G01 X12.8600 Y-26.6037
G01 X12.9623 Y-26.5987
G01 X13.0636 Y-26.5837
G01 X13.1630 Y-26.5588
G01 X13.2594 Y-26.5243
G01 X13.3520 Y-26.4805
G01 X13.4399 Y-26.4278
G01 X13.5221 Y-26.3668
G01 X13.5980 Y-26.2980
G01 X13.6668 Y-26.2221
G01 X13.7278 Y-26.1399
G01 X13.7805 Y-26.0520
G01 X13.8243 Y-25.9594
G01 X13.8588 Y-25.8630
G01 X13.8837 Y-25.7636
G01 X13.8987 Y-25.6623
G01 X13.9037 Y-25.5600
G01 X13.8987 Y-25.4577
G01 X13.8837 Y-25.3564
G01 X13.8588 Y-25.2570
G01 X13.8243 Y-25.1606
G01 X13.7805 Y-25.0680
G01 X13.7278 Y-24.9801
G01 X13.6668 Y-24.8979
G01 X13.5980 Y-24.8220
G01 X13.5221 Y-24.7532
G01 X13.4399 Y-24.6922
G01 X13.3520 Y-24.6395
G01 X13.2594 Y-24.5957
G01 X13.1630 Y-24.5612
G01 X13.0636 Y-24.5363
G01 X12.9623 Y-24.5213
G01 X12.8600 Y-24.5163
G01 X12.7577 Y-24.5213
G01 X12.6564 Y-24.5363
G01 X12.5570 Y-24.5612
G01 X12.4606 Y-24.5957
G01 X12.3680 Y-24.6395
G01 X12.2801 Y-24.6922
G01 X12.1979 Y-24.7532
G01 X12.1220 Y-24.8220
G01 X12.0532 Y-24.8979
G01 X11.9922 Y-24.9801
G01 X11.9395 Y-25.0680
G01 X11.8957 Y-25.1606
G01 X11.8612 Y-25.2570
G01 X11.8363 Y-25.3564
G01 X11.8213 Y-25.4577
G01 X11.8163 Y-25.5600
G01 X11.8213 Y-25.6623
G01 X11.8363 Y-25.7636
G01 X11.8612 Y-25.8630
G01 X11.8957 Y-25.9594
G01 X11.9395 Y-26.0520
G01 X11.9922 Y-26.1399
G01 X12.0532 Y-26.2221
G01 X12.1220 Y-26.2980
G01 X12.1979 Y-26.3668
G01 X12.2801 Y-26.4278
G01 X12.3680 Y-26.4805
G01 X12.4606 Y-26.5243
G01 X12.5570 Y-26.5588
G01 X12.6564 Y-26.5837
G00 Z2.0000
G00 X12.6564 Y-29.1237
G01 F60.00
G01 Z-0.0500
G01 F60.00
G01 X12.7577 Y-29.1387
G01 X12.8600 Y-29.1437
G01 X12.9623 Y-29.1387
G01 X13.0636 Y-29.1237
G01 X13.1630 Y-29.0988
G01 X13.2594 Y-29.0643
G01 X13.3520 Y-29.0205
G01 X13.4399 Y-28.9678
G01 X13.5221 Y-28.9068
G01 X13.5980 Y-28.8380
G01 X13.6668 Y-28.7621
G01 X13.7278 Y-28.6799
G01 X13.7805 Y-28.5920
G01 X13.8243 Y-28.4994
G01 X13.8588 Y-28.4030
G01 X13.8837 Y-28.3036
G01 X13.8987 Y-28.2023
G01 X13.9037 Y-28.1000
G01 X13.8987 Y-27.9977
G01 X13.8837 Y-27.8964
G01 X13.8588 Y-27.7970
G01 X13.8243 Y-27.7006
G01 X13.7805 Y-27.6080
G01 X13.7278 Y-27.5201
G01 X13.6668 Y-27.4379
G01 X13.5980 Y-27.3620
G01 X13.5221 Y-27.2932
G01 X13.4399 Y-27.2322
G01 X13.3520 Y-27.1795
G01 X13.2594 Y-27.1357
G01 X13.1630 Y-27.1012
G01 X13.0636 Y-27.0763
G01 X12.9623 Y-27.0613
G01 X12.8600 Y-27.0563
G01 X12.7577 Y-27.0613
G01 X12.6564 Y-27.0763
G01 X12.5570 Y-27.1012
G01 X12.4606 Y-27.1357
G01 X12.3680 Y-27.1795
G01 X12.2801 Y-27.2322
G01 X12.1979 Y-27.2932
G01 X12.1220 Y-27.3620
G01 X12.0532 Y-27.4379
G01 X11.9922 Y-27.5201
G01 X11.9395 Y-27.6080
G01 X11.8957 Y-27.7006
G01 X11.8612 Y-27.7970
G01 X11.8363 Y-27.8964
G01 X11.8213 Y-27.9977
G01 X11.8163 Y-28.1000
G01 X11.8213 Y-28.2023
G01 X11.8363 Y-28.3036
G01 X11.8612 Y-28.4030
G01 X11.8957 Y-28.4994
G01 X11.9395 Y-28.5920
G01 X11.9922 Y-28.6799
G01 X12.0532 Y-28.7621
G01 X12.1220 Y-28.8380
G01 X12.1979 Y-28.9068
G01 X12.2801 Y-28.9678
G01 X12.3680 Y-29.0205
G01 X12.4606 Y-29.0643
G01 X12.5570 Y-29.0988
G01 X12.6564 Y-29.1237
G00 Z2.0000
G00 X12.6564 Y-31.6637
G01 F60.00
G01 Z-0.0500
G01 F60.00
G01 X12.7577 Y-31.6787
G01 X12.8600 Y-31.6837
G01 X12.9623 Y-31.6787
G01 X13.0636 Y-31.6637
G01 X13.1630 Y-31.6388
G01 X13.2594 Y-31.6043
G01 X13.3520 Y-31.5605
G01 X13.4399 Y-31.5078
G01 X13.5221 Y-31.4468
G01 X13.5980 Y-31.3780
G01 X13.6668 Y-31.3021
G01 X13.7278 Y-31.2199
G01 X13.7805 Y-31.1320
G01 X13.8243 Y-31.0394
G01 X13.8588 Y-30.9430
G01 X13.8837 Y-30.8436
G01 X13.8987 Y-30.7423
G01 X13.9037 Y-30.6400
G01 X13.8987 Y-30.5377
G01 X13.8837 Y-30.4364
G01 X13.8588 Y-30.3370
G01 X13.8243 Y-30.2406
G01 X13.7805 Y-30.1480
G01 X13.7278 Y-30.0601
G01 X13.6668 Y-29.9779
G01 X13.5980 Y-29.9020
G01 X13.5221 Y-29.8332
G01 X13.4399 Y-29.7722
G01 X13.3520 Y-29.7195
G01 X13.2594 Y-29.6757
G01 X13.1630 Y-29.6412
G01 X13.0636 Y-29.6163
G01 X12.9623 Y-29.6013
G01 X12.8600 Y-29.5963
G01 X12.7577 Y-29.6013
G01 X12.6564 Y-29.6163
G01 X12.5570 Y-29.6412
G01 X12.4606 Y-29.6757
G01 X12.3680 Y-29.7195
G01 X12.2801 Y-29.7722
G01 X12.1979 Y-29.8332
G01 X12.1220 Y-29.9020
G01 X12.0532 Y-29.9779
G01 X11.9922 Y-30.0601
G01 X11.9395 Y-30.1480
G01 X11.8957 Y-30.2406
G01 X11.8612 Y-30.3370
G01 X11.8363 Y-30.4364
G01 X11.8213 Y-30.5377
G01 X11.8163 Y-30.6400
G01 X11.8213 Y-30.7423
G01 X11.8363 Y-30.8436
G01 X11.8612 Y-30.9430
G01 X11.8957 Y-31.0394
G01 X11.9395 Y-31.1320
G01 X11.9922 Y-31.2199
G01 X12.0532 Y-31.3021
G01 X12.1220 Y-31.3780
G01 X12.1979 Y-31.4468
G01 X12.2801 Y-31.5078
G01 X12.3680 Y-31.5605
G01 X12.4606 Y-31.6043
G01 X12.5570 Y-31.6388
G01 X12.6564 Y-31.6637
G00 Z2.0000
G00 X15.1103 Y-35.1285
G01 F60.00
G01 Z-0.0500
G01 F60.00
G01 X15.0118 Y-35.1857
G01 X14.9093 Y-35.2781
G01 X14.8657 Y-35.3318
G01 X14.7967 Y-35.4514
G01 X14.7720 Y-35.5159
G01 X14.7433 Y-35.6510
G01 X14.7396 Y-35.7200
G01 X14.7541 Y-35.8573
G01 X14.7967 Y-35.9886
G01 X14.8281 Y-36.0502
G01 X14.8657 Y-36.1082
G01 X14.9581 Y-36.2107
G01 X15.0118 Y-36.2543
G01 X15.1314 Y-36.3233
G01 X15.2627 Y-36.3659
G01 X15.3310 Y-36.3767
G01 X22.9726 Y-36.3801
G01 X23.1451 Y-36.3699
G01 X23.2733 Y-36.3315
G01 X23.3911 Y-36.2680
G01 X23.5203 Y-36.1533
G01 X32.7920 Y-26.8768
G01 X32.8766 Y-26.8058
G01 X33.0241 Y-26.7291
G01 X33.0726 Y-26.7134
G01 X33.2084 Y-26.6915
G01 X33.2720 Y-26.6899
G01 X33.4451 Y-26.7200
G01 X33.5974 Y-26.7943
G01 X33.6441 Y-26.8274
G01 X33.7587 Y-26.9434
G01 X33.9222 Y-27.2293
G01 X34.0201 Y-27.3333
G01 X34.1342 Y-27.4117
G01 X34.2577 Y-27.4633
G01 X34.4026 Y-27.4901
G01 X34.5364 Y-27.4863
G01 X34.6666 Y-27.4554
G01 X34.7997 Y-27.3919
G01 X34.8919 Y-27.3207
G01 X35.3425 Y-26.8669
G01 X35.4166 Y-26.8058
G01 X35.5526 Y-26.7346
G01 X35.6126 Y-26.7134
G01 X35.7738 Y-26.6889
G01 X35.9543 Y-26.7122
G01 X36.0090 Y-26.7291
G01 X36.1538 Y-26.8041
G01 X36.2817 Y-26.9244
G01 X36.3204 Y-26.9749
G01 X36.3946 Y-27.1190
G01 X36.4622 Y-27.2293
G01 X36.5637 Y-27.3362
G01 X36.6742 Y-27.4117
G01 X36.7977 Y-27.4633
G01 X36.9426 Y-27.4901
G01 X37.0809 Y-27.4856
G01 X37.2110 Y-27.4540
G01 X37.3319 Y-27.3967
G01 X37.4319 Y-27.3207
G01 X37.8720 Y-26.8768
G01 X37.9566 Y-26.8058
G01 X38.1402 Y-26.7163
G01 X38.2948 Y-26.6906
G01 X38.3520 Y-26.6899
G01 X38.5372 Y-26.7243
G01 X38.7145 Y-26.8191
G01 X38.8465 Y-26.9535
G01 X38.9346 Y-27.1190
G01 X39.0077 Y-27.2365
G01 X39.1001 Y-27.3333
G01 X39.2102 Y-27.4095
G01 X39.3464 Y-27.4659
G01 X39.4781 Y-27.4899
G01 X39.6119 Y-27.4867
G01 X39.7552 Y-27.4523
G01 X39.8759 Y-27.3944
G01 X39.9719 Y-27.3207
G01 X41.6854 Y-25.6034
G01 X41.7788 Y-25.5282
G01 X41.9083 Y-25.4618
G01 X41.9626 Y-25.4434
G01 X42.1111 Y-25.4199
G01 X42.1747 Y-25.4215
G01 X42.3352 Y-25.4500
G01 X42.4929 Y-25.5274
G01 X42.5389 Y-25.5617
G01 X42.6488 Y-25.6734
G01 X42.8122 Y-25.9593
G01 X42.9101 Y-26.0633
G01 X43.0282 Y-26.1438
G01 X43.1520 Y-26.1947
G01 X43.2836 Y-26.2194
G01 X43.4309 Y-26.2156
G01 X43.5610 Y-26.1840
G01 X43.6859 Y-26.1244
G01 X43.7819 Y-26.0507
G01 X44.2220 Y-25.6068
G01 X44.2949 Y-25.5441
G01 X44.4779 Y-25.4500
G01 X44.6638 Y-25.4189
G01 X44.8752 Y-25.4500
G01 X45.0645 Y-25.5491
G01 X45.1965 Y-25.6835
G01 X45.2846 Y-25.8490
G01 X45.3577 Y-25.9665
G01 X45.4501 Y-26.0633
G01 X45.5682 Y-26.1438
G01 X45.6964 Y-26.1959
G01 X45.8281 Y-26.2199
G01 X45.9619 Y-26.2167
G01 X46.1010 Y-26.1840
G01 X46.2297 Y-26.1219
G01 X46.3219 Y-26.0507
G01 X48.8533 Y-23.5203
G01 X48.9628 Y-23.3986
G01 X49.0297 Y-23.2775
G01 X49.0709 Y-23.1406
G01 X49.0801 Y-22.9726
G01 X49.0767 Y-21.6547
G01 X49.0863 Y-21.5447
G01 X49.1529 Y-21.3516
G01 X49.3821 Y-21.0355
G01 X49.4640 Y-20.8600
G01 X49.5141 Y-20.6729
G01 X49.5310 Y-20.4800
G01 X49.5141 Y-20.2871
G01 X49.4640 Y-20.1000
G01 X49.3821 Y-19.9245
G01 X49.2711 Y-19.7659
G01 X49.1341 Y-19.6289
G01 X48.9755 Y-19.5179
G01 X48.8000 Y-19.4360
G01 X48.6129 Y-19.3859
G01 X48.4200 Y-19.3690
G01 X48.2271 Y-19.3859
G01 X48.0400 Y-19.4360
G01 X47.8645 Y-19.5179
G01 X47.7059 Y-19.6289
G01 X47.5830 Y-19.7494
G01 X47.4303 Y-19.8540
G01 X47.2505 Y-19.9107
G01 X47.0621 Y-19.9123
G01 X46.8935 Y-19.8632
G01 X46.8470 Y-19.8424
G01 X46.7096 Y-19.7433
G01 X46.5941 Y-19.6289
G01 X46.4355 Y-19.5179
G01 X46.2600 Y-19.4360
G01 X46.0729 Y-19.3859
G01 X45.8800 Y-19.3690
G01 X45.6871 Y-19.3859
G01 X45.5000 Y-19.4360
G01 X45.3245 Y-19.5179
G01 X45.1659 Y-19.6289
G01 X45.0504 Y-19.7433
G01 X44.9018 Y-19.8485
G01 X44.7106 Y-19.9107
G01 X44.5348 Y-19.9133
G01 X44.4723 Y-19.9017
G01 X44.3070 Y-19.8424
G01 X44.1696 Y-19.7433
G01 X44.0541 Y-19.6289
G01 X43.8955 Y-19.5179
G01 X43.7200 Y-19.4360
G01 X43.5329 Y-19.3859
G01 X43.3400 Y-19.3690
G01 X43.1471 Y-19.3859
G01 X42.9600 Y-19.4360
G01 X42.7845 Y-19.5179
G01 X42.6259 Y-19.6289
G01 X42.5104 Y-19.7433
G01 X42.3618 Y-19.8485
G01 X42.1705 Y-19.9107
G01 X42.0012 Y-19.9136
G01 X41.9384 Y-19.9036
G01 X41.7670 Y-19.8424
G01 X41.6296 Y-19.7433
G01 X41.5141 Y-19.6289
G01 X41.3555 Y-19.5179
G01 X41.1800 Y-19.4360
G01 X40.9929 Y-19.3859
G01 X40.8000 Y-19.3690
G01 X40.6071 Y-19.3859
G01 X40.4200 Y-19.4360
G01 X40.2445 Y-19.5179
G01 X40.0859 Y-19.6289
G01 X39.9592 Y-19.7523
G01 X39.8439 Y-19.8358
G01 X39.7985 Y-19.8589
G01 X39.6305 Y-19.9107
G01 X39.4421 Y-19.9123
G01 X39.2735 Y-19.8632
G01 X39.2161 Y-19.8358
G01 X39.0896 Y-19.7433
G01 X38.9741 Y-19.6289
G01 X38.8155 Y-19.5179
G01 X38.6400 Y-19.4360
G01 X38.4529 Y-19.3859
G01 X38.2600 Y-19.3690
G01 X38.0671 Y-19.3859
G01 X37.8800 Y-19.4360
G01 X37.7045 Y-19.5179
G01 X37.6111 Y-19.5825
G01 X37.4738 Y-19.6515
G01 X37.2979 Y-19.6868
G01 X37.2406 Y-19.6883
G01 X37.0793 Y-19.6641
G01 X36.9195 Y-19.5915
G01 X36.8665 Y-19.5562
G01 X36.7563 Y-19.4488
G01 X36.6224 Y-19.3491
G01 X36.5199 Y-19.2470
G01 X36.4856 Y-19.2011
G01 X36.4174 Y-19.0672
G01 X36.4004 Y-19.0124
G01 X36.3769 Y-18.8543
G01 X36.3768 Y-18.4735
G01 X36.3863 Y-18.3683
G01 X36.4468 Y-18.1865
G01 X36.5584 Y-18.0307
G01 X38.3472 Y-16.2417
G01 X38.4283 Y-16.1740
G01 X38.5758 Y-16.0974
G01 X38.6243 Y-16.0816
G01 X38.7601 Y-16.0598
G01 X46.7965 Y-16.0570
G01 X46.8981 Y-16.0681
G01 X47.0365 Y-16.1090
G01 X47.0825 Y-16.1308
G01 X47.2261 Y-16.2322
G01 X47.3866 Y-16.4334
G01 X47.4457 Y-16.4777
G01 X47.5352 Y-16.5067
G01 X49.3210 Y-16.5050
G01 X49.3943 Y-16.4777
G01 X49.4562 Y-16.4314
G01 X49.5719 Y-16.3185
G01 X49.7185 Y-16.2376
G01 X49.7725 Y-16.2182
G01 X49.9332 Y-16.1909
G01 X50.1451 Y-16.2183
G01 X50.3162 Y-16.3001
G01 X50.3168 Y-16.2834
G01 X50.1953 Y-16.1816
G01 X50.1145 Y-16.0939
G01 X50.0506 Y-16.0077
G01 X49.9900 Y-15.9049
G01 X49.9171 Y-15.7289
G01 X49.8899 Y-15.6251
G01 X49.8715 Y-15.5072
G01 X49.8663 Y-15.4000
G01 X49.8715 Y-15.2928
G01 X49.8899 Y-15.1749
G01 X49.9171 Y-15.0711
G01 X49.9900 Y-14.8951
G01 X50.0506 Y-14.7923
G01 X50.1145 Y-14.7061
G01 X50.1953 Y-14.6184
G01 X50.3168 Y-14.5166
G01 X50.3162 Y-14.4999
G01 X50.1627 Y-14.5760
G01 X49.9982 Y-14.6072
G01 X49.9346 Y-14.6081
G01 X49.7674 Y-14.5811
G01 X49.5767 Y-14.4848
G01 X49.4561 Y-14.3686
G01 X49.3224 Y-14.2691
G01 X49.1923 Y-14.1320
G01 X49.1082 Y-13.9633
G01 X49.0775 Y-13.7838
G01 X49.0804 Y-12.8600
G01 X49.0659 Y-12.7227
G01 X49.0233 Y-12.5914
G01 X48.9543 Y-12.4718
G01 X48.8679 Y-12.3490
G01 X48.8119 Y-12.2123
G01 X48.8002 Y-12.1627
G01 X48.7897 Y-11.9872
G01 X48.8254 Y-11.8282
G01 X48.8484 Y-11.7689
G01 X48.9350 Y-11.6307
G01 X49.0654 Y-11.5131
G01 X49.1075 Y-11.4844
G01 X49.3768 Y-11.3802
G01 X49.4359 Y-11.3359
G01 X49.4802 Y-11.2768
G01 X49.5075 Y-11.2035
G01 X49.5092 Y-9.4527
G01 X49.4802 Y-9.3632
G01 X49.4359 Y-9.3041
G01 X49.3768 Y-9.2598
G01 X49.2873 Y-9.2308
G01 X47.5527 Y-9.2308
G01 X47.4632 Y-9.2598
G01 X47.4038 Y-9.3043
G01 X47.2776 Y-9.4296
G01 X47.1310 Y-9.5105
G01 X47.0709 Y-9.5312
G01 X46.8908 Y-9.5576
G01 X46.7355 Y-9.5371
G01 X46.6805 Y-9.5210
G01 X46.5398 Y-9.4520
G01 X46.4265 Y-9.3735
G01 X46.2538 Y-9.2930
G01 X46.0698 Y-9.2437
G01 X45.8800 Y-9.2271
G01 X45.7122 Y-9.2418
G01 X45.7262 Y-9.2558
G01 X45.8680 Y-9.2440
G01 X45.9855 Y-9.2489
G01 X46.0900 Y-9.2644
G01 X46.1924 Y-9.2901
G01 X46.2919 Y-9.3257
G01 X46.3873 Y-9.3708
G01 X46.4779 Y-9.4251
G01 X46.5718 Y-9.4959
G01 X46.6493 Y-9.5676
G01 X46.7680 Y-9.7123
G01 X46.8292 Y-9.8127
G01 X46.8695 Y-9.8972
G01 X46.9099 Y-10.0076
G01 X46.9356 Y-10.1100
G01 X46.9511 Y-10.2145
G01 X46.9562 Y-10.3200
G01 X46.9511 Y-10.4255
G01 X46.9356 Y-10.5300
G01 X46.9099 Y-10.6324
G01 X46.8695 Y-10.7428
G01 X46.8292 Y-10.8273
G01 X46.7680 Y-10.9277
G01 X46.7041 Y-11.0118
G01 X46.5718 Y-11.1441
G01 X46.4779 Y-11.2149
G01 X46.3873 Y-11.2692
G01 X46.2919 Y-11.3143
G01 X46.1924 Y-11.3499
G01 X46.0900 Y-11.3756
G01 X45.9855 Y-11.3911
G01 X45.8680 Y-11.3960
G01 X45.7262 Y-11.3842
G01 X45.7122 Y-11.3982
G01 X45.8800 Y-11.4129
G01 X46.0698 Y-11.3963
G01 X46.2538 Y-11.3470
G01 X46.4265 Y-11.2665
G01 X46.5456 Y-11.1847
G01 X46.6985 Y-11.1124
G01 X46.8832 Y-11.0822
G01 X47.0575 Y-11.1046
G01 X47.1120 Y-11.1222
G01 X47.2627 Y-11.1996
G01 X47.4039 Y-11.3358
G01 X47.4632 Y-11.3802
G01 X47.6782 Y-11.4561
G01 X47.8301 Y-11.5540
G01 X47.9664 Y-11.7186
G01 X48.0354 Y-11.8939
G01 X48.0499 Y-12.0944
G01 X48.0060 Y-12.2776
G01 X47.9820 Y-12.3296
G01 X47.8858 Y-12.4718
G01 X47.8167 Y-12.5914
G01 X47.7741 Y-12.7227
G01 X47.7596 Y-12.8600
G01 X47.7630 Y-13.7765
G01 X47.7535 Y-13.8715
G01 X47.7131 Y-14.0104
G01 X47.6858 Y-14.0679
G01 X47.5878 Y-14.2060
G01 X47.3866 Y-14.3666
G01 X47.2891 Y-14.4976
G01 X47.1520 Y-14.6277
G01 X46.9833 Y-14.7118
G01 X46.7895 Y-14.7432
G01 X38.3074 Y-14.7399
G01 X38.1394 Y-14.7491
G01 X38.0067 Y-14.7885
G01 X37.8851 Y-14.8545
G01 X37.7597 Y-14.9667
G01 X35.2867 Y-17.4397
G01 X35.1772 Y-17.5614
G01 X35.1085 Y-17.6867
G01 X35.0684 Y-17.8239
G01 X35.0599 Y-17.9874
G01 X35.0630 Y-18.8565
G01 X35.0535 Y-18.9515
G01 X35.0013 Y-19.1200
G01 X34.8878 Y-19.2860
G01 X34.6866 Y-19.4466
G01 X34.5891 Y-19.5776
G01 X34.4726 Y-19.6927
G01 X34.2954 Y-19.7875
G01 X34.1134 Y-19.8216
G01 X33.7135 Y-19.8232
G01 X33.6083 Y-19.8137
G01 X33.4265 Y-19.7532
G01 X33.2707 Y-19.6416
G01 X26.0019 Y-12.3693
G01 X25.9059 Y-12.2956
G01 X25.7809 Y-12.2360
G01 X25.6464 Y-12.2037
G01 X25.5126 Y-12.1999
G01 X25.3677 Y-12.2267
G01 X25.2442 Y-12.2783
G01 X25.1336 Y-12.3538
G01 X25.0348 Y-12.4570
G01 X24.9625 Y-12.5751
G01 X24.9163 Y-12.7055
G01 X24.8983 Y-12.8427
G01 X24.9091 Y-12.9806
G01 X24.9485 Y-13.1133
G01 X25.0145 Y-13.2349
G01 X25.1267 Y-13.3603
G01 X32.6797 Y-20.9133
G01 X32.8014 Y-21.0229
G01 X32.9267 Y-21.0915
G01 X33.0639 Y-21.1316
G01 X33.2274 Y-21.1401
G01 X34.0847 Y-21.1367
G01 X34.1783 Y-21.1438
G01 X34.3601 Y-21.1987
G01 X34.5261 Y-21.3122
G01 X34.6866 Y-21.5134
G01 X34.8176 Y-21.6109
G01 X34.9327 Y-21.7274
G01 X35.0318 Y-21.9167
G01 X35.0631 Y-22.1057
G01 X35.0631 Y-22.4913
G01 X35.0504 Y-22.6057
G01 X34.9987 Y-22.7620
G01 X34.8750 Y-22.9362
G01 X22.9362 Y-34.8750
G01 X22.8395 Y-34.9536
G01 X22.6803 Y-35.0318
G01 X22.4865 Y-35.0632
G01 X15.3310 Y-35.0633
G01 X15.1959 Y-35.0920
G01 X15.1103 Y-35.1285
G00 Z2.0000
G00 X19.6442 Y-31.6811
G01 F60.00
G01 Z-0.0500
G01 F60.00
G01 X21.2920 Y-31.6835
G01 X21.3842 Y-31.6603
G01 X21.4606 Y-31.6037
G01 X21.5003 Y-31.5442
G01 X21.5235 Y-31.4520
G01 X21.5237 Y-29.8400
G01 X21.5164 Y-29.7808
G01 X21.5003 Y-29.7358
G01 X21.4437 Y-29.6594
G01 X21.3621 Y-29.6105
G01 X21.2920 Y-29.5965
G01 X19.6800 Y-29.5963
G01 X19.6208 Y-29.6036
G01 X19.5758 Y-29.6197
G01 X19.4994 Y-29.6763
G01 X19.4597 Y-29.7358
G01 X19.4365 Y-29.8280
G01 X19.4365 Y-31.4520
G01 X19.4505 Y-31.5221
G01 X19.4994 Y-31.6037
G01 X19.5547 Y-31.6491
G01 X19.6442 Y-31.6811
G00 Z2.0000
G00 X20.2764 Y-29.1237
G01 F60.00
G01 Z-0.0500
G01 F60.00
G01 X20.3777 Y-29.1387
G01 X20.4800 Y-29.1437
G01 X20.5823 Y-29.1387
G01 X20.6836 Y-29.1237
G01 X20.7830 Y-29.0988
G01 X20.8794 Y-29.0643
G01 X20.9720 Y-29.0205
G01 X21.0599 Y-28.9678
G01 X21.1421 Y-28.9068
G01 X21.2180 Y-28.8380
G01 X21.2868 Y-28.7621
G01 X21.3478 Y-28.6799
G01 X21.4005 Y-28.5920
G01 X21.4443 Y-28.4994
G01 X21.4788 Y-28.4030
G01 X21.5037 Y-28.3036
G01 X21.5187 Y-28.2023
G01 X21.5237 Y-28.1000
G01 X21.5187 Y-27.9977
G01 X21.5037 Y-27.8964
G01 X21.4788 Y-27.7970
G01 X21.4443 Y-27.7006
G01 X21.4005 Y-27.6080
G01 X21.3478 Y-27.5201
G01 X21.2868 Y-27.4379
G01 X21.2180 Y-27.3620
G01 X21.1421 Y-27.2932
G01 X21.0599 Y-27.2322
G01 X20.9720 Y-27.1795
G01 X20.8794 Y-27.1357
G01 X20.7830 Y-27.1012
G01 X20.6836 Y-27.0763
G01 X20.5823 Y-27.0613
G01 X20.4800 Y-27.0563
G01 X20.3777 Y-27.0613
G01 X20.2764 Y-27.0763
G01 X20.1770 Y-27.1012
G01 X20.0806 Y-27.1357
G01 X19.9880 Y-27.1795
G01 X19.9001 Y-27.2322
G01 X19.8179 Y-27.2932
G01 X19.7420 Y-27.3620
G01 X19.6732 Y-27.4379
G01 X19.6122 Y-27.5201
G01 X19.5595 Y-27.6080
G01 X19.5157 Y-27.7006
G01 X19.4812 Y-27.7970
G01 X19.4563 Y-27.8964
G01 X19.4413 Y-27.9977
G01 X19.4363 Y-28.1000
G01 X19.4413 Y-28.2023
G01 X19.4563 Y-28.3036
G01 X19.4812 Y-28.4030
G01 X19.5157 Y-28.4994
G01 X19.5595 Y-28.5920
G01 X19.6122 Y-28.6799
G01 X19.6732 Y-28.7621
G01 X19.7420 Y-28.8380
G01 X19.8179 Y-28.9068
G01 X19.9001 Y-28.9678
G01 X19.9880 Y-29.0205
G01 X20.0806 Y-29.0643
G01 X20.1770 Y-29.0988
G01 X20.2764 Y-29.1237
G00 Z2.0000
G00 X20.2764 Y-26.5837
G01 F60.00
G01 Z-0.0500
G01 F60.00
G01 X20.3777 Y-26.5987
G01 X20.4800 Y-26.6037
G01 X20.5823 Y-26.5987
G01 X20.6836 Y-26.5837
G01 X20.7830 Y-26.5588
G01 X20.8794 Y-26.5243
G01 X20.9720 Y-26.4805
G01 X21.0599 Y-26.4278
G01 X21.1421 Y-26.3668
G01 X21.2180 Y-26.2980
G01 X21.2868 Y-26.2221
G01 X21.3478 Y-26.1399
G01 X21.4005 Y-26.0520
G01 X21.4443 Y-25.9594
G01 X21.4788 Y-25.8630
G01 X21.5037 Y-25.7636
G01 X21.5187 Y-25.6623
G01 X21.5237 Y-25.5600
G01 X21.5187 Y-25.4577
G01 X21.5037 Y-25.3564
G01 X21.4788 Y-25.2570
G01 X21.4443 Y-25.1606
G01 X21.4005 Y-25.0680
G01 X21.3478 Y-24.9801
G01 X21.2868 Y-24.8979
G01 X21.2180 Y-24.8220
G01 X21.1421 Y-24.7532
G01 X21.0599 Y-24.6922
G01 X20.9720 Y-24.6395
G01 X20.8794 Y-24.5957
G01 X20.7830 Y-24.5612
G01 X20.6836 Y-24.5363
G01 X20.5823 Y-24.5213
G01 X20.4800 Y-24.5163
G01 X20.3777 Y-24.5213
G01 X20.2764 Y-24.5363
G01 X20.1770 Y-24.5612
G01 X20.0806 Y-24.5957
G01 X19.9880 Y-24.6395
G01 X19.9001 Y-24.6922
G01 X19.8179 Y-24.7532
G01 X19.7420 Y-24.8220
G01 X19.6732 Y-24.8979
G01 X19.6122 Y-24.9801
G01 X19.5595 Y-25.0680
G01 X19.5157 Y-25.1606
G01 X19.4812 Y-25.2570
G01 X19.4563 Y-25.3564
G01 X19.4413 Y-25.4577
G01 X19.4363 Y-25.5600
G01 X19.4413 Y-25.6623
G01 X19.4563 Y-25.7636
G01 X19.4812 Y-25.8630
G01 X19.5157 Y-25.9594
G01 X19.5595 Y-26.0520
G01 X19.6122 Y-26.1399
G01 X19.6732 Y-26.2221
G01 X19.7420 Y-26.2980
G01 X19.8179 Y-26.3668
G01 X19.9001 Y-26.4278
G01 X19.9880 Y-26.4805
G01 X20.0806 Y-26.5243
G01 X20.1770 Y-26.5588
G01 X20.2764 Y-26.5837
G00 Z2.0000
G00 X19.7337 Y-22.2906
G01 F60.00
G01 Z-0.0500
G01 F60.00
G01 X19.8363 Y-22.1992
G01 X19.8363 Y-22.1621
G01 X19.6678 Y-22.3385
G01 X19.6413 Y-22.3762
G01 X19.6592 Y-22.3762
G01 X19.7337 Y-22.2906
G00 Z2.0000
G00 X19.7506 Y-21.2263
G01 F60.00
G01 Z-0.0500
G01 F60.00
G01 X19.6592 Y-21.1238
G01 X19.6413 Y-21.1238
G01 X19.6678 Y-21.1615
G01 X19.8363 Y-21.3379
G01 X19.8363 Y-21.3008
G01 X19.7506 Y-21.2263
G00 Z2.0000
G00 X19.7337 Y-19.7506
G01 F60.00
G01 Z-0.0500
G01 F60.00
G01 X19.8179 Y-19.6732
G01 X19.9001 Y-19.6122
G01 X19.9880 Y-19.5595
G01 X20.0917 Y-19.5114
G01 X20.1770 Y-19.4812
G01 X20.2882 Y-19.4543
G01 X20.3896 Y-19.4404
G01 X20.5704 Y-19.4404
G01 X20.6836 Y-19.4563
G01 X20.7830 Y-19.4812
G01 X20.8794 Y-19.5157
G01 X20.9720 Y-19.5595
G01 X21.0599 Y-19.6122
G01 X21.1421 Y-19.6732
G01 X21.2180 Y-19.7420
G01 X21.3008 Y-19.8363
G01 X21.3187 Y-19.8363
G01 X21.2922 Y-19.7985
G01 X21.1395 Y-19.6434
G01 X21.0532 Y-19.5243
G01 X21.0258 Y-19.4668
G01 X20.9836 Y-19.3359
G01 X20.9753 Y-19.2728
G01 X20.9783 Y-19.1098
G01 X21.0258 Y-18.9539
G01 X21.0532 Y-18.8965
G01 X21.1395 Y-18.7773
G01 X21.2929 Y-18.6214
G01 X21.3987 Y-18.4704
G01 X21.4430 Y-18.3898
G01 X21.5553 Y-18.2554
G01 X21.7239 Y-18.1459
G01 X21.9182 Y-18.0938
G01 X22.1190 Y-18.1043
G01 X22.3068 Y-18.1764
G01 X22.4426 Y-18.2828
G01 X22.5293 Y-18.3819
G01 X22.6318 Y-18.4743
G01 X22.7514 Y-18.5433
G01 X22.8827 Y-18.5859
G01 X22.9510 Y-18.5968
G01 X23.9179 Y-18.5972
G01 X24.1202 Y-18.6373
G01 X24.2953 Y-18.7362
G01 X24.4161 Y-18.8638
G01 X24.4443 Y-18.9063
G01 X24.5017 Y-19.0313
G01 X24.5222 Y-19.1048
G01 X24.5375 Y-19.2415
G01 X24.5354 Y-19.2924
G01 X24.5063 Y-19.4367
G01 X24.4533 Y-19.5952
G01 X24.4532 Y-21.3648
G01 X24.4823 Y-21.4543
G01 X24.5266 Y-21.5134
G01 X24.6576 Y-21.6109
G01 X24.7805 Y-21.7375
G01 X24.8718 Y-21.9167
G01 X24.9031 Y-22.1057
G01 X24.9031 Y-22.4913
G01 X24.8904 Y-22.6057
G01 X24.8478 Y-22.7382
G01 X24.8204 Y-22.7956
G01 X24.7150 Y-22.9362
G01 X22.5867 Y-25.0597
G01 X22.4226 Y-25.2381
G01 X22.2570 Y-25.3495
G01 X22.0637 Y-25.4049
G01 X21.8628 Y-25.3979
G01 X21.6967 Y-25.3403
G01 X21.6419 Y-25.3080
G01 X21.5153 Y-25.2053
G01 X21.2926 Y-24.8781
G01 X21.1520 Y-24.7372
G01 X21.0604 Y-24.6141
G01 X21.0300 Y-24.5581
G01 X20.9783 Y-24.3902
G01 X20.9753 Y-24.2272
G01 X20.9836 Y-24.1641
G01 X21.0300 Y-24.0212
G01 X21.0532 Y-23.9757
G01 X21.1395 Y-23.8566
G01 X21.2922 Y-23.7015
G01 X21.3187 Y-23.6637
G01 X21.3008 Y-23.6637
G01 X21.2180 Y-23.7580
G01 X21.1421 Y-23.8268
G01 X21.0599 Y-23.8878
G01 X20.9613 Y-23.9459
G01 X20.7943 Y-24.0151
G01 X20.6953 Y-24.0411
G01 X20.5823 Y-24.0587
G01 X20.4800 Y-24.0637
G01 X20.3777 Y-24.0587
G01 X20.2647 Y-24.0411
G01 X20.1657 Y-24.0151
G01 X19.9987 Y-23.9459
G01 X19.9001 Y-23.8878
G01 X19.8179 Y-23.8268
G01 X19.7420 Y-23.7580
G01 X19.6592 Y-23.6638
G01 X19.6413 Y-23.6638
G01 X19.6678 Y-23.7015
G01 X19.8144 Y-23.8492
G01 X19.9196 Y-23.9978
G01 X19.9817 Y-24.1891
G01 X19.9834 Y-24.3775
G01 X19.9728 Y-24.4274
G01 X19.9135 Y-24.5927
G01 X19.8144 Y-24.7301
G01 X19.6674 Y-24.8781
G01 X19.5613 Y-25.0296
G01 X19.4832 Y-25.1972
G01 X19.4353 Y-25.3758
G01 X19.4192 Y-25.5600
G01 X19.4353 Y-25.7442
G01 X19.4832 Y-25.9228
G01 X19.5613 Y-26.0904
G01 X19.6674 Y-26.2419
G01 X19.8201 Y-26.3970
G01 X19.9247 Y-26.5497
G01 X19.9814 Y-26.7295
G01 X19.9843 Y-26.8988
G01 X19.9725 Y-26.9677
G01 X19.9296 Y-27.0985
G01 X19.9065 Y-27.1439
G01 X19.8140 Y-27.2704
G01 X19.6674 Y-27.4181
G01 X19.5613 Y-27.5696
G01 X19.4832 Y-27.7372
G01 X19.4353 Y-27.9158
G01 X19.4192 Y-28.1000
G01 X19.4353 Y-28.2842
G01 X19.4832 Y-28.4628
G01 X19.5613 Y-28.6304
G01 X19.6627 Y-28.7763
G01 X19.7271 Y-28.9024
G01 X19.7436 Y-28.9542
G01 X19.7695 Y-29.1213
G01 X19.7409 Y-29.3203
G01 X19.6688 Y-29.4736
G01 X19.6321 Y-29.5256
G01 X19.4966 Y-29.6566
G01 X19.4523 Y-29.7157
G01 X19.4250 Y-29.7890
G01 X19.4250 Y-31.4910
G01 X19.4523 Y-31.5643
G01 X19.4966 Y-31.6234
G01 X19.5557 Y-31.6677
G01 X19.6452 Y-31.6967
G01 X21.3310 Y-31.6950
G01 X21.4043 Y-31.6677
G01 X21.4634 Y-31.6234
G01 X21.5077 Y-31.5643
G01 X21.5350 Y-31.4910
G01 X21.5367 Y-29.8052
G01 X21.5077 Y-29.7157
G01 X21.4634 Y-29.6566
G01 X21.3187 Y-29.5157
G01 X21.2378 Y-29.3691
G01 X21.2170 Y-29.3090
G01 X21.1906 Y-29.1289
G01 X21.2112 Y-28.9736
G01 X21.2272 Y-28.9186
G01 X21.2963 Y-28.7779
G01 X21.3987 Y-28.6304
G01 X21.4768 Y-28.4628
G01 X21.5247 Y-28.2842
G01 X21.5408 Y-28.1000
G01 X21.5247 Y-27.9158
G01 X21.4768 Y-27.7372
G01 X21.3987 Y-27.5696
G01 X21.2926 Y-27.4181
G01 X21.1370 Y-27.2593
G01 X21.0535 Y-27.1439
G01 X21.0261 Y-27.0865
G01 X20.9786 Y-26.9305
G01 X20.9756 Y-26.7676
G01 X20.9839 Y-26.7045
G01 X21.0304 Y-26.5615
G01 X21.0535 Y-26.5161
G01 X21.1399 Y-26.3970
G01 X21.2926 Y-26.2419
G01 X21.3987 Y-26.0904
G01 X21.4429 Y-26.0100
G01 X21.5459 Y-25.8843
G01 X21.7123 Y-25.7714
G01 X21.8928 Y-25.7178
G01 X21.9499 Y-25.7126
G01 X22.1063 Y-25.7220
G01 X22.2954 Y-25.7902
G01 X22.4496 Y-25.9091
G01 X22.5937 Y-26.0662
G01 X22.7042 Y-26.1417
G01 X22.8320 Y-26.1947
G01 X22.9681 Y-26.2199
G01 X23.1064 Y-26.2163
G01 X23.2410 Y-26.1840
G01 X23.3659 Y-26.1244
G01 X23.4619 Y-26.0507
G01 X25.9933 Y-23.5203
G01 X26.1055 Y-23.3949
G01 X26.1715 Y-23.2733
G01 X26.2116 Y-23.1361
G01 X26.2201 Y-22.9726
G01 X26.2168 Y-22.1114
G01 X26.2281 Y-22.0019
G01 X26.2787 Y-21.8399
G01 X26.3682 Y-21.7037
G01 X26.4107 Y-21.6563
G01 X26.5934 Y-21.5134
G01 X26.6377 Y-21.4543
G01 X26.6667 Y-21.3648
G01 X26.6650 Y-19.5790
G01 X26.6377 Y-19.5057
G01 X26.5912 Y-19.4437
G01 X26.4789 Y-19.3284
G01 X26.3980 Y-19.1818
G01 X26.3773 Y-19.1216
G01 X26.3507 Y-18.9543
G01 X26.3714 Y-18.7862
G01 X26.3874 Y-18.7312
G01 X26.4537 Y-18.5954
G01 X26.5221 Y-18.4955
G01 X26.6040 Y-18.3200
G01 X26.6541 Y-18.1329
G01 X26.6710 Y-17.9400
G01 X26.6541 Y-17.7471
G01 X26.6040 Y-17.5600
G01 X26.5221 Y-17.3845
G01 X26.4111 Y-17.2259
G01 X26.2741 Y-17.0889
G01 X26.1155 Y-16.9779
G01 X25.9400 Y-16.8960
G01 X25.7529 Y-16.8459
G01 X25.5600 Y-16.8290
G01 X25.3671 Y-16.8459
G01 X25.1800 Y-16.8960
G01 X25.0045 Y-16.9779
G01 X24.8459 Y-17.0889
G01 X24.7431 Y-17.1736
G01 X24.6078 Y-17.2426
G01 X24.5531 Y-17.2596
G01 X24.3901 Y-17.2832
G01 X22.9510 Y-17.2833
G01 X22.8159 Y-17.3120
G01 X22.7514 Y-17.3367
G01 X22.6318 Y-17.4057
G01 X22.5293 Y-17.4981
G01 X22.4226 Y-17.6181
G01 X22.2850 Y-17.7142
G01 X22.2334 Y-17.7391
G01 X22.0764 Y-17.7830
G01 X21.8944 Y-17.7819
G01 X21.8259 Y-17.7677
G01 X21.6738 Y-17.7091
G01 X21.5153 Y-17.5853
G01 X21.2926 Y-17.2581
G01 X21.1460 Y-17.1104
G01 X21.0535 Y-16.9839
G01 X21.0282 Y-16.9325
G01 X20.9786 Y-16.7705
G01 X20.9786 Y-16.5695
G01 X21.0304 Y-16.4015
G01 X21.0535 Y-16.3561
G01 X21.1399 Y-16.2370
G01 X21.2926 Y-16.0819
G01 X21.3987 Y-15.9304
G01 X21.4768 Y-15.7628
G01 X21.5247 Y-15.5842
G01 X21.5408 Y-15.4000
G01 X21.5247 Y-15.2158
G01 X21.4768 Y-15.0372
G01 X21.3987 Y-14.8696
G01 X21.2926 Y-14.7181
G01 X21.1460 Y-14.5704
G01 X21.0408 Y-14.4218
G01 X20.9786 Y-14.2305
G01 X20.9756 Y-14.0676
G01 X20.9857 Y-13.9984
G01 X21.0469 Y-13.8270
G01 X21.1460 Y-13.6896
G01 X21.2926 Y-13.5419
G01 X21.3987 Y-13.3904
G01 X21.4768 Y-13.2228
G01 X21.5247 Y-13.0442
G01 X21.5408 Y-12.8600
G01 X21.5247 Y-12.6758
G01 X21.4768 Y-12.4972
G01 X21.3987 Y-12.3296
G01 X21.2926 Y-12.1781
G01 X21.1619 Y-12.0474
G01 X21.0104 Y-11.9413
G01 X20.8428 Y-11.8632
G01 X20.6642 Y-11.8153
G01 X20.4800 Y-11.7992
G01 X20.2958 Y-11.8153
G01 X20.1172 Y-11.8632
G01 X19.9496 Y-11.9413
G01 X19.7981 Y-12.0474
G01 X19.6674 Y-12.1781
G01 X19.5613 Y-12.3296
G01 X19.4832 Y-12.4972
G01 X19.4353 Y-12.6758
G01 X19.4192 Y-12.8600
G01 X19.4353 Y-13.0442
G01 X19.4832 Y-13.2228
G01 X19.5613 Y-13.3904
G01 X19.6674 Y-13.5419
G01 X19.8140 Y-13.6896
G01 X19.9131 Y-13.8270
G01 X19.9724 Y-13.9923
G01 X19.9840 Y-14.0548
G01 X19.9814 Y-14.2305
G01 X19.9247 Y-14.4103
G01 X19.8201 Y-14.5630
G01 X19.6674 Y-14.7181
G01 X19.5613 Y-14.8696
G01 X19.4832 Y-15.0372
G01 X19.4353 Y-15.2158
G01 X19.4192 Y-15.4000
G01 X19.4353 Y-15.5842
G01 X19.4832 Y-15.7628
G01 X19.5613 Y-15.9304
G01 X19.6674 Y-16.0819
G01 X19.8140 Y-16.2296
G01 X19.9065 Y-16.3561
G01 X19.9339 Y-16.4135
G01 X19.9761 Y-16.5445
G01 X19.9840 Y-16.5948
G01 X19.9814 Y-16.7705
G01 X19.9247 Y-16.9503
G01 X19.8201 Y-17.1030
G01 X19.6674 Y-17.2581
G01 X19.5613 Y-17.4096
G01 X19.4832 Y-17.5772
G01 X19.4353 Y-17.7558
G01 X19.4192 Y-17.9400
G01 X19.4353 Y-18.1242
G01 X19.4832 Y-18.3028
G01 X19.5613 Y-18.4704
G01 X19.6674 Y-18.6219
G01 X19.8144 Y-18.7699
G01 X19.9068 Y-18.8965
G01 X19.9322 Y-18.9479
G01 X19.9817 Y-19.1098
G01 X19.9817 Y-19.3109
G01 X19.9251 Y-19.4906
G01 X19.8144 Y-19.6508
G01 X19.6678 Y-19.7985
G01 X19.6413 Y-19.8362
G01 X19.6592 Y-19.8362
G01 X19.7337 Y-19.7506
G00 Z2.0000
G00 X20.2647 Y-18.9611
G01 F60.00
G01 Z-0.0500
G01 F60.00
G01 X20.3777 Y-18.9787
G01 X20.4800 Y-18.9837
G01 X20.5823 Y-18.9787
G01 X20.6836 Y-18.9637
G01 X20.7830 Y-18.9388
G01 X20.8794 Y-18.9043
G01 X20.9720 Y-18.8605
G01 X21.0599 Y-18.8078
G01 X21.1421 Y-18.7468
G01 X21.2180 Y-18.6780
G01 X21.2868 Y-18.6021
G01 X21.3478 Y-18.5199
G01 X21.4005 Y-18.4320
G01 X21.4443 Y-18.3394
G01 X21.4788 Y-18.2430
G01 X21.5037 Y-18.1436
G01 X21.5187 Y-18.0423
G01 X21.5237 Y-17.9400
G01 X21.5187 Y-17.8377
G01 X21.5037 Y-17.7364
G01 X21.4788 Y-17.6370
G01 X21.4443 Y-17.5406
G01 X21.4005 Y-17.4480
G01 X21.3478 Y-17.3601
G01 X21.2868 Y-17.2779
G01 X21.2180 Y-17.2020
G01 X21.1421 Y-17.1332
G01 X21.0599 Y-17.0722
G01 X20.9720 Y-17.0195
G01 X20.8794 Y-16.9757
G01 X20.7830 Y-16.9412
G01 X20.6836 Y-16.9163
G01 X20.5823 Y-16.9013
G01 X20.4800 Y-16.8963
G01 X20.3777 Y-16.9013
G01 X20.2764 Y-16.9163
G01 X20.1770 Y-16.9412
G01 X20.0806 Y-16.9757
G01 X19.9880 Y-17.0195
G01 X19.9001 Y-17.0722
G01 X19.8179 Y-17.1332
G01 X19.7420 Y-17.2020
G01 X19.6732 Y-17.2779
G01 X19.6122 Y-17.3601
G01 X19.5595 Y-17.4480
G01 X19.5157 Y-17.5406
G01 X19.4812 Y-17.6370
G01 X19.4563 Y-17.7364
G01 X19.4413 Y-17.8377
G01 X19.4363 Y-17.9400
G01 X19.4413 Y-18.0423
G01 X19.4563 Y-18.1436
G01 X19.4812 Y-18.2430
G01 X19.5157 Y-18.3394
G01 X19.5595 Y-18.4320
G01 X19.6122 Y-18.5199
G01 X19.6732 Y-18.6021
G01 X19.7420 Y-18.6780
G01 X19.8179 Y-18.7468
G01 X19.9001 Y-18.8078
G01 X19.9880 Y-18.8605
G01 X20.0806 Y-18.9043
G01 X20.2647 Y-18.9611
G00 Z2.0000
G00 X21.2922 Y-21.1615
G01 F60.00
G01 Z-0.0500
G01 F60.00
G01 X21.3187 Y-21.1237
G01 X21.3008 Y-21.1237
G01 X21.2180 Y-21.2180
G01 X21.1237 Y-21.3008
G01 X21.1237 Y-21.3379
G01 X21.2922 Y-21.1615
G00 Z2.0000
G00 X21.2180 Y-22.2820
G01 F60.00
G01 Z-0.0500
G01 F60.00
G01 X21.3008 Y-22.3763
G01 X21.3187 Y-22.3763
G01 X21.2922 Y-22.3385
G01 X21.1237 Y-22.1621
G01 X21.1237 Y-22.1992
G01 X21.2180 Y-22.2820
G00 Z2.0000
G00 X26.2037 Y-23.0320
G01 F60.00
G01 Z-0.0500
G01 F60.00
G01 X26.2040 Y-21.5737
G01 X26.4220 Y-21.5735
G01 X26.5142 Y-21.5503
G01 X26.5552 Y-21.5258
G01 X26.6058 Y-21.4752
G01 X26.6303 Y-21.4342
G01 X26.6511 Y-21.3658
G01 X26.6537 Y-19.6300
G01 X26.6464 Y-19.5708
G01 X26.6303 Y-19.5258
G01 X26.6058 Y-19.4848
G01 X26.5552 Y-19.4342
G01 X26.4921 Y-19.4005
G01 X26.4220 Y-19.3865
G01 X24.7100 Y-19.3863
G01 X24.6508 Y-19.3936
G01 X24.6058 Y-19.4097
G01 X24.5648 Y-19.4342
G01 X24.5142 Y-19.4848
G01 X24.4805 Y-19.5479
G01 X24.4665 Y-19.6180
G01 X24.4665 Y-21.3420
G01 X24.4736 Y-21.3892
G01 X24.5009 Y-21.4553
G01 X24.5463 Y-21.5106
G01 X24.6058 Y-21.5503
G01 X24.6980 Y-21.5735
G01 X24.9160 Y-21.5737
G01 X24.9160 Y-22.7533
G01 X22.5149 Y-25.1609
G01 X22.4521 Y-25.2564
G01 X22.4075 Y-25.3617
G01 X22.3864 Y-25.4462
G01 X22.3760 Y-25.5600
G01 X22.3864 Y-25.6738
G01 X22.4075 Y-25.7583
G01 X22.4521 Y-25.8636
G01 X22.5222 Y-25.9685
G01 X22.6115 Y-26.0578
G01 X22.7164 Y-26.1279
G01 X22.8331 Y-26.1762
G01 X22.9569 Y-26.2008
G01 X23.0831 Y-26.2008
G01 X23.2069 Y-26.1762
G01 X23.3236 Y-26.1279
G01 X23.4285 Y-26.0578
G01 X26.0236 Y-23.4667
G01 X26.0954 Y-23.3778
G01 X26.1549 Y-23.2664
G01 X26.1916 Y-23.1456
G01 X26.2037 Y-23.0320
G00 Z2.0000
G00 X24.7866 Y-17.1666
G01 F60.00
G01 Z-0.0500
G01 F60.00
G01 X24.6771 Y-17.2960
G01 X23.0140 Y-17.2961
G01 X22.8944 Y-17.3084
G01 X22.7736 Y-17.3451
G01 X22.6622 Y-17.4046
G01 X22.5647 Y-17.4847
G01 X22.4846 Y-17.5822
G01 X22.4251 Y-17.6936
G01 X22.3884 Y-17.8144
G01 X22.3760 Y-17.9400
G01 X22.3884 Y-18.0656
G01 X22.4251 Y-18.1864
G01 X22.4915 Y-18.3075
G01 X22.5300 Y-18.3576
G01 X22.6024 Y-18.4300
G01 X22.7164 Y-18.5079
G01 X22.8331 Y-18.5562
G01 X22.9062 Y-18.5736
G01 X23.0140 Y-18.5839
G01 X24.6771 Y-18.5840
G01 X24.7784 Y-18.7047
G01 X24.8571 Y-18.7777
G01 X24.9523 Y-18.8494
G01 X25.0340 Y-18.8987
G01 X25.1414 Y-18.9505
G01 X25.2425 Y-18.9867
G01 X25.4409 Y-19.0270
G01 X25.5600 Y-19.0337
G01 X25.6672 Y-19.0285
G01 X25.7734 Y-19.0127
G01 X25.8889 Y-18.9829
G01 X26.0649 Y-18.9100
G01 X26.1575 Y-18.8558
G01 X26.2539 Y-18.7855
G01 X26.3334 Y-18.7134
G01 X26.4055 Y-18.6339
G01 X26.4694 Y-18.5477
G01 X26.5246 Y-18.4556
G01 X26.5705 Y-18.3586
G01 X26.6067 Y-18.2575
G01 X26.6327 Y-18.1534
G01 X26.6485 Y-18.0472
G01 X26.6537 Y-17.9400
G01 X26.6485 Y-17.8328
G01 X26.6327 Y-17.7266
G01 X26.6067 Y-17.6225
G01 X26.5705 Y-17.5214
G01 X26.5246 Y-17.4244
G01 X26.4694 Y-17.3323
G01 X26.4055 Y-17.2461
G01 X26.3334 Y-17.1666
G01 X26.2539 Y-17.0945
G01 X26.1677 Y-17.0306
G01 X26.0756 Y-16.9754
G01 X25.9786 Y-16.9295
G01 X25.8775 Y-16.8933
G01 X25.7734 Y-16.8673
G01 X25.6672 Y-16.8515
G01 X25.5600 Y-16.8463
G01 X25.4528 Y-16.8515
G01 X25.3466 Y-16.8673
G01 X25.2425 Y-16.8933
G01 X25.1414 Y-16.9295
G01 X25.0444 Y-16.9754
G01 X24.9523 Y-17.0306
G01 X24.8661 Y-17.0945
G01 X24.7866 Y-17.1666
G00 Z2.0000
G00 X20.2764 Y-16.4237
G01 F60.00
G01 Z-0.0500
G01 F60.00
G01 X20.3777 Y-16.4387
G01 X20.4800 Y-16.4437
G01 X20.5823 Y-16.4387
G01 X20.6836 Y-16.4237
G01 X20.7830 Y-16.3988
G01 X20.8794 Y-16.3643
G01 X20.9720 Y-16.3205
G01 X21.0599 Y-16.2678
G01 X21.1421 Y-16.2068
G01 X21.2180 Y-16.1380
G01 X21.2868 Y-16.0621
G01 X21.3478 Y-15.9799
G01 X21.4005 Y-15.8920
G01 X21.4443 Y-15.7994
G01 X21.4788 Y-15.7030
G01 X21.5037 Y-15.6036
G01 X21.5187 Y-15.5023
G01 X21.5237 Y-15.4000
G01 X21.5187 Y-15.2977
G01 X21.5037 Y-15.1964
G01 X21.4788 Y-15.0970
G01 X21.4443 Y-15.0006
G01 X21.4005 Y-14.9080
G01 X21.3478 Y-14.8201
G01 X21.2868 Y-14.7379
G01 X21.2180 Y-14.6620
G01 X21.1421 Y-14.5932
G01 X21.0599 Y-14.5322
G01 X20.9720 Y-14.4795
G01 X20.8794 Y-14.4357
G01 X20.7830 Y-14.4012
G01 X20.6836 Y-14.3763
G01 X20.5823 Y-14.3613
G01 X20.4800 Y-14.3563
G01 X20.3777 Y-14.3613
G01 X20.2764 Y-14.3763
G01 X20.1770 Y-14.4012
G01 X20.0806 Y-14.4357
G01 X19.9880 Y-14.4795
G01 X19.9001 Y-14.5322
G01 X19.8179 Y-14.5932
G01 X19.7420 Y-14.6620
G01 X19.6732 Y-14.7379
G01 X19.6122 Y-14.8201
G01 X19.5595 Y-14.9080
G01 X19.5157 Y-15.0006
G01 X19.4812 Y-15.0970
G01 X19.4563 Y-15.1964
G01 X19.4413 Y-15.2977
G01 X19.4363 Y-15.4000
G01 X19.4413 Y-15.5023
G01 X19.4563 Y-15.6036
G01 X19.4812 Y-15.7030
G01 X19.5157 Y-15.7994
G01 X19.5595 Y-15.8920
G01 X19.6122 Y-15.9799
G01 X19.6732 Y-16.0621
G01 X19.7420 Y-16.1380
G01 X19.8179 Y-16.2068
G01 X19.9001 Y-16.2678
G01 X19.9880 Y-16.3205
G01 X20.0806 Y-16.3643
G01 X20.1770 Y-16.3988
G01 X20.2764 Y-16.4237
G00 Z2.0000
G00 X20.2764 Y-13.8837
G01 F60.00
G01 Z-0.0500
G01 F60.00
G01 X20.3777 Y-13.8987
G01 X20.4800 Y-13.9037
G01 X20.5823 Y-13.8987
G01 X20.6836 Y-13.8837
G01 X20.7830 Y-13.8588
G01 X20.8794 Y-13.8243
G01 X20.9720 Y-13.7805
G01 X21.0599 Y-13.7278
G01 X21.1421 Y-13.6668
G01 X21.2180 Y-13.5980
G01 X21.2868 Y-13.5221
G01 X21.3478 Y-13.4399
G01 X21.4005 Y-13.3520
G01 X21.4443 Y-13.2594
G01 X21.4788 Y-13.1630
G01 X21.5037 Y-13.0636
G01 X21.5187 Y-12.9623
G01 X21.5237 Y-12.8600
G01 X21.5187 Y-12.7577
G01 X21.5037 Y-12.6564
G01 X21.4788 Y-12.5570
G01 X21.4443 Y-12.4606
G01 X21.4005 Y-12.3680
G01 X21.3478 Y-12.2801
G01 X21.2868 Y-12.1979
G01 X21.2180 Y-12.1220
G01 X21.1421 Y-12.0532
G01 X21.0599 Y-11.9922
G01 X20.9720 Y-11.9395
G01 X20.8794 Y-11.8957
G01 X20.7830 Y-11.8612
G01 X20.6836 Y-11.8363
G01 X20.5823 Y-11.8213
G01 X20.4800 Y-11.8163
G01 X20.3777 Y-11.8213
G01 X20.2764 Y-11.8363
G01 X20.1770 Y-11.8612
G01 X20.0806 Y-11.8957
G01 X19.9880 Y-11.9395
G01 X19.9001 Y-11.9922
G01 X19.8179 Y-12.0532
G01 X19.7420 Y-12.1220
G01 X19.6732 Y-12.1979
G01 X19.6122 Y-12.2801
G01 X19.5595 Y-12.3680
G01 X19.5157 Y-12.4606
G01 X19.4812 Y-12.5570
G01 X19.4563 Y-12.6564
G01 X19.4413 Y-12.7577
G01 X19.4363 Y-12.8600
G01 X19.4413 Y-12.9623
G01 X19.4563 Y-13.0636
G01 X19.4812 Y-13.1630
G01 X19.5157 Y-13.2594
G01 X19.5595 Y-13.3520
G01 X19.6122 Y-13.4399
G01 X19.6732 Y-13.5221
G01 X19.7420 Y-13.5980
G01 X19.8179 Y-13.6668
G01 X19.9001 Y-13.7278
G01 X19.9880 Y-13.7805
G01 X20.0806 Y-13.8243
G01 X20.1770 Y-13.8588
G01 X20.2764 Y-13.8837
G00 Z2.0000
G00 X29.5871 Y-10.0984
G01 F60.00
G01 Z-0.0500
G01 F60.00
G01 X29.5689 Y-10.2145
G01 X29.5638 Y-10.3200
G01 X29.5689 Y-10.4255
G01 X29.5844 Y-10.5300
G01 X29.6101 Y-10.6324
G01 X29.6457 Y-10.7319
G01 X29.6908 Y-10.8273
G01 X29.7451 Y-10.9179
G01 X29.8080 Y-11.0028
G01 X29.8790 Y-11.0810
G01 X29.9572 Y-11.1520
G01 X30.0421 Y-11.2149
G01 X30.1327 Y-11.2692
G01 X30.2281 Y-11.3143
G01 X30.3276 Y-11.3499
G01 X30.4300 Y-11.3756
G01 X30.5345 Y-11.3911
G01 X30.6400 Y-11.3962
G01 X30.7455 Y-11.3911
G01 X30.8500 Y-11.3756
G01 X30.9524 Y-11.3499
G01 X31.0519 Y-11.3143
G01 X31.1473 Y-11.2692
G01 X31.2379 Y-11.2149
G01 X31.3228 Y-11.1520
G01 X31.4010 Y-11.0810
G01 X31.4720 Y-11.0028
G01 X31.5349 Y-10.9179
G01 X31.5892 Y-10.8273
G01 X31.6343 Y-10.7319
G01 X31.6699 Y-10.6324
G01 X31.6956 Y-10.5300
G01 X31.7111 Y-10.4255
G01 X31.7162 Y-10.3200
G01 X31.7111 Y-10.2145
G01 X31.6956 Y-10.1100
G01 X31.6699 Y-10.0076
G01 X31.6343 Y-9.9081
G01 X31.5892 Y-9.8127
G01 X31.5349 Y-9.7221
G01 X31.4720 Y-9.6372
G01 X31.4010 Y-9.5590
G01 X31.3228 Y-9.4880
G01 X31.2379 Y-9.4251
G01 X31.1473 Y-9.3708
G01 X31.0519 Y-9.3257
G01 X30.9524 Y-9.2901
G01 X30.8500 Y-9.2644
G01 X30.7455 Y-9.2489
G01 X30.6400 Y-9.2438
G01 X30.5345 Y-9.2489
G01 X30.4300 Y-9.2644
G01 X30.3276 Y-9.2901
G01 X30.2281 Y-9.3257
G01 X30.1327 Y-9.3708
G01 X30.0421 Y-9.4251
G01 X29.9572 Y-9.4880
G01 X29.8790 Y-9.5590
G01 X29.8080 Y-9.6372
G01 X29.7451 Y-9.7221
G01 X29.6908 Y-9.8127
G01 X29.6457 Y-9.9081
G01 X29.5871 Y-10.0984
G00 Z2.0000
G00 X31.4624 Y-11.0383
G01 F60.00
G01 Z-0.0500
G01 F60.00
G01 X31.6182 Y-10.9267
G01 X31.7784 Y-10.8716
G01 X31.8412 Y-10.8617
G01 X32.0231 Y-10.8669
G01 X32.1725 Y-10.9141
G01 X32.2239 Y-10.9395
G01 X32.3504 Y-11.0319
G01 X32.4772 Y-11.1576
G01 X32.6333 Y-11.2669
G01 X32.8060 Y-11.3475
G01 X32.9901 Y-11.3968
G01 X33.1800 Y-11.4134
G01 X33.3699 Y-11.3968
G01 X33.5540 Y-11.3475
G01 X33.7267 Y-11.2669
G01 X33.8828 Y-11.1576
G01 X34.0208 Y-11.0229
G01 X34.1361 Y-10.9395
G01 X34.1815 Y-10.9163
G01 X34.3495 Y-10.8646
G01 X34.5379 Y-10.8629
G01 X34.5877 Y-10.8735
G01 X34.7530 Y-10.9328
G01 X34.8904 Y-11.0319
G01 X35.0172 Y-11.1576
G01 X35.1733 Y-11.2669
G01 X35.3460 Y-11.3475
G01 X35.5301 Y-11.3968
G01 X35.7200 Y-11.4134
G01 X35.9099 Y-11.3968
G01 X36.0940 Y-11.3475
G01 X36.2667 Y-11.2669
G01 X36.4228 Y-11.1576
G01 X36.5496 Y-11.0319
G01 X36.6982 Y-10.9267
G01 X36.8895 Y-10.8646
G01 X37.0652 Y-10.8619
G01 X37.1277 Y-10.8735
G01 X37.2930 Y-10.9328
G01 X37.4304 Y-11.0319
G01 X37.5572 Y-11.1576
G01 X37.7133 Y-11.2669
G01 X37.8860 Y-11.3475
G01 X38.0701 Y-11.3968
G01 X38.2600 Y-11.4134
G01 X38.4499 Y-11.3968
G01 X38.6340 Y-11.3475
G01 X38.8067 Y-11.2669
G01 X38.9628 Y-11.1576
G01 X39.0896 Y-11.0319
G01 X39.2382 Y-10.9267
G01 X39.4295 Y-10.8646
G01 X39.6052 Y-10.8619
G01 X39.6677 Y-10.8735
G01 X39.8330 Y-10.9328
G01 X39.9704 Y-11.0319
G01 X40.0972 Y-11.1576
G01 X40.2533 Y-11.2669
G01 X40.4260 Y-11.3475
G01 X40.6101 Y-11.3968
G01 X40.8000 Y-11.4134
G01 X40.9899 Y-11.3968
G01 X41.1740 Y-11.3475
G01 X41.3467 Y-11.2669
G01 X41.5028 Y-11.1576
G01 X41.6296 Y-11.0319
G01 X41.7782 Y-10.9267
G01 X41.9695 Y-10.8646
G01 X42.1388 Y-10.8617
G01 X42.2016 Y-10.8716
G01 X42.3730 Y-10.9328
G01 X42.5104 Y-11.0319
G01 X42.6372 Y-11.1576
G01 X42.7933 Y-11.2669
G01 X42.9660 Y-11.3475
G01 X43.1501 Y-11.3968
G01 X43.3400 Y-11.4134
G01 X43.5299 Y-11.3968
G01 X43.7140 Y-11.3475
G01 X43.8867 Y-11.2669
G01 X44.0428 Y-11.1576
G01 X44.1776 Y-11.0228
G01 X44.2220 Y-10.9614
G01 X44.3089 Y-10.8679
G01 X44.4411 Y-10.7767
G01 X44.5525 Y-10.7371
G01 X44.8158 Y-10.4738
G01 X44.8038 Y-10.3200
G01 X44.8158 Y-10.1662
G01 X44.5575 Y-9.9079
G01 X44.4955 Y-9.8869
G01 X44.3374 Y-9.7968
G01 X44.2255 Y-9.6826
G01 X44.1776 Y-9.6172
G01 X44.0428 Y-9.4824
G01 X43.8867 Y-9.3731
G01 X43.7140 Y-9.2925
G01 X43.5299 Y-9.2432
G01 X43.3400 Y-9.2266
G01 X43.1501 Y-9.2432
G01 X42.9660 Y-9.2925
G01 X42.7933 Y-9.3731
G01 X42.6372 Y-9.4824
G01 X42.5104 Y-9.6081
G01 X42.3730 Y-9.7072
G01 X42.2016 Y-9.7684
G01 X42.1388 Y-9.7783
G01 X41.9695 Y-9.7754
G01 X41.7782 Y-9.7133
G01 X41.6296 Y-9.6081
G01 X41.5028 Y-9.4824
G01 X41.3467 Y-9.3731
G01 X41.1740 Y-9.2925
G01 X40.9899 Y-9.2432
G01 X40.8000 Y-9.2266
G01 X40.6101 Y-9.2432
G01 X40.4260 Y-9.2925
G01 X40.2533 Y-9.3731
G01 X40.0972 Y-9.4824
G01 X39.9704 Y-9.6081
G01 X39.8330 Y-9.7072
G01 X39.6616 Y-9.7684
G01 X39.5988 Y-9.7783
G01 X39.4295 Y-9.7754
G01 X39.2382 Y-9.7133
G01 X39.0896 Y-9.6081
G01 X38.9628 Y-9.4824
G01 X38.8067 Y-9.3731
G01 X38.6340 Y-9.2925
G01 X38.4499 Y-9.2432
G01 X38.2600 Y-9.2266
G01 X38.0701 Y-9.2432
G01 X37.8860 Y-9.2925
G01 X37.7133 Y-9.3731
G01 X37.5572 Y-9.4824
G01 X37.4304 Y-9.6081
G01 X37.2930 Y-9.7072
G01 X37.1277 Y-9.7665
G01 X37.0652 Y-9.7781
G01 X36.8895 Y-9.7754
G01 X36.6982 Y-9.7133
G01 X36.5496 Y-9.6081
G01 X36.4228 Y-9.4824
G01 X36.2667 Y-9.3731
G01 X36.0940 Y-9.2925
G01 X35.9099 Y-9.2432
G01 X35.7200 Y-9.2266
G01 X35.5301 Y-9.2432
G01 X35.3460 Y-9.2925
G01 X35.1733 Y-9.3731
G01 X35.0172 Y-9.4824
G01 X34.8904 Y-9.6081
G01 X34.7530 Y-9.7072
G01 X34.5877 Y-9.7665
G01 X34.5252 Y-9.7781
G01 X34.3495 Y-9.7754
G01 X34.1582 Y-9.7133
G01 X34.0096 Y-9.6081
G01 X33.8828 Y-9.4824
G01 X33.7267 Y-9.3731
G01 X33.5540 Y-9.2925
G01 X33.3699 Y-9.2432
G01 X33.1800 Y-9.2266
G01 X32.9901 Y-9.2432
G01 X32.8060 Y-9.2925
G01 X32.6333 Y-9.3731
G01 X32.4772 Y-9.4824
G01 X32.3504 Y-9.6081
G01 X32.2130 Y-9.7072
G01 X32.1665 Y-9.7279
G01 X31.9979 Y-9.7771
G01 X31.8095 Y-9.7754
G01 X31.6415 Y-9.7237
G01 X31.5961 Y-9.7005
G01 X31.4808 Y-9.6171
G01 X31.3428 Y-9.4824
G01 X31.1867 Y-9.3731
G01 X31.0140 Y-9.2925
G01 X30.8299 Y-9.2432
G01 X30.6400 Y-9.2266
G01 X30.4501 Y-9.2432
G01 X30.2660 Y-9.2925
G01 X30.0933 Y-9.3731
G01 X29.9372 Y-9.4824
G01 X29.8024 Y-9.6172
G01 X29.6931 Y-9.7733
G01 X29.6125 Y-9.9460
G01 X29.5632 Y-10.1301
G01 X29.5466 Y-10.3200
G01 X29.5632 Y-10.5099
G01 X29.6125 Y-10.6940
G01 X29.6931 Y-10.8667
G01 X29.8024 Y-11.0228
G01 X29.9372 Y-11.1576
G01 X30.0933 Y-11.2669
G01 X30.2660 Y-11.3475
G01 X30.4501 Y-11.3968
G01 X30.6400 Y-11.4134
G01 X30.8299 Y-11.3968
G01 X31.0140 Y-11.3475
G01 X31.1867 Y-11.2669
G01 X31.3428 Y-11.1576
G01 X31.4624 Y-11.0383
G00 Z2.0000
G00 X32.1271 Y-10.0984
G01 F60.00
G01 Z-0.0500
G01 F60.00
G01 X32.1089 Y-10.2145
G01 X32.1038 Y-10.3200
G01 X32.1089 Y-10.4255
G01 X32.1244 Y-10.5300
G01 X32.1501 Y-10.6324
G01 X32.1857 Y-10.7319
G01 X32.2308 Y-10.8273
G01 X32.2851 Y-10.9179
G01 X32.3480 Y-11.0028
G01 X32.4190 Y-11.0810
G01 X32.4972 Y-11.1520
G01 X32.5821 Y-11.2149
G01 X32.6727 Y-11.2692
G01 X32.7681 Y-11.3143
G01 X32.8676 Y-11.3499
G01 X32.9700 Y-11.3756
G01 X33.0745 Y-11.3911
G01 X33.1800 Y-11.3962
G01 X33.2855 Y-11.3911
G01 X33.3900 Y-11.3756
G01 X33.4924 Y-11.3499
G01 X33.5919 Y-11.3143
G01 X33.6873 Y-11.2692
G01 X33.7779 Y-11.2149
G01 X33.8628 Y-11.1520
G01 X33.9410 Y-11.0810
G01 X34.0120 Y-11.0028
G01 X34.0749 Y-10.9179
G01 X34.1292 Y-10.8273
G01 X34.1743 Y-10.7319
G01 X34.2099 Y-10.6324
G01 X34.2356 Y-10.5300
G01 X34.2511 Y-10.4255
G01 X34.2562 Y-10.3200
G01 X34.2511 Y-10.2145
G01 X34.2356 Y-10.1100
G01 X34.2099 Y-10.0076
G01 X34.1743 Y-9.9081
G01 X34.1292 Y-9.8127
G01 X34.0749 Y-9.7221
G01 X34.0120 Y-9.6372
G01 X33.9410 Y-9.5590
G01 X33.8628 Y-9.4880
G01 X33.7779 Y-9.4251
G01 X33.6873 Y-9.3708
G01 X33.5919 Y-9.3257
G01 X33.4924 Y-9.2901
G01 X33.3900 Y-9.2644
G01 X33.2855 Y-9.2489
G01 X33.1800 Y-9.2438
G01 X33.0745 Y-9.2489
G01 X32.9700 Y-9.2644
G01 X32.8676 Y-9.2901
G01 X32.7681 Y-9.3257
G01 X32.6727 Y-9.3708
G01 X32.5821 Y-9.4251
G01 X32.4972 Y-9.4880
G01 X32.4190 Y-9.5590
G01 X32.3480 Y-9.6372
G01 X32.2851 Y-9.7221
G01 X32.2308 Y-9.8127
G01 X32.1857 Y-9.9081
G01 X32.1271 Y-10.0984
G00 Z2.0000
G00 X34.6671 Y-10.0984
G01 F60.00
G01 Z-0.0500
G01 F60.00
G01 X34.6489 Y-10.2145
G01 X34.6438 Y-10.3200
G01 X34.6489 Y-10.4255
G01 X34.6644 Y-10.5300
G01 X34.6901 Y-10.6324
G01 X34.7257 Y-10.7319
G01 X34.7708 Y-10.8273
G01 X34.8251 Y-10.9179
G01 X34.8880 Y-11.0028
G01 X34.9590 Y-11.0810
G01 X35.0372 Y-11.1520
G01 X35.1221 Y-11.2149
G01 X35.2127 Y-11.2692
G01 X35.3081 Y-11.3143
G01 X35.4076 Y-11.3499
G01 X35.5100 Y-11.3756
G01 X35.6145 Y-11.3911
G01 X35.7200 Y-11.3962
G01 X35.8255 Y-11.3911
G01 X35.9300 Y-11.3756
G01 X36.0324 Y-11.3499
G01 X36.1319 Y-11.3143
G01 X36.2273 Y-11.2692
G01 X36.3179 Y-11.2149
G01 X36.4028 Y-11.1520
G01 X36.4810 Y-11.0810
G01 X36.5520 Y-11.0028
G01 X36.6149 Y-10.9179
G01 X36.6692 Y-10.8273
G01 X36.7143 Y-10.7319
G01 X36.7499 Y-10.6324
G01 X36.7756 Y-10.5300
G01 X36.7911 Y-10.4255
G01 X36.7962 Y-10.3200
G01 X36.7911 Y-10.2145
G01 X36.7756 Y-10.1100
G01 X36.7499 Y-10.0076
G01 X36.7143 Y-9.9081
G01 X36.6692 Y-9.8127
G01 X36.6149 Y-9.7221
G01 X36.5520 Y-9.6372
G01 X36.4810 Y-9.5590
G01 X36.4028 Y-9.4880
G01 X36.3179 Y-9.4251
G01 X36.2273 Y-9.3708
G01 X36.1319 Y-9.3257
G01 X36.0324 Y-9.2901
G01 X35.9300 Y-9.2644
G01 X35.8255 Y-9.2489
G01 X35.7200 Y-9.2438
G01 X35.6145 Y-9.2489
G01 X35.5100 Y-9.2644
G01 X35.4076 Y-9.2901
G01 X35.3081 Y-9.3257
G01 X35.2127 Y-9.3708
G01 X35.1221 Y-9.4251
G01 X35.0372 Y-9.4880
G01 X34.9590 Y-9.5590
G01 X34.8880 Y-9.6372
G01 X34.8251 Y-9.7221
G01 X34.7708 Y-9.8127
G01 X34.7257 Y-9.9081
G01 X34.6671 Y-10.0984
G00 Z2.0000
G00 X37.2044 Y-10.1100
G01 F60.00
G01 Z-0.0500
G01 F60.00
G01 X37.1889 Y-10.2145
G01 X37.1838 Y-10.3200
G01 X37.1889 Y-10.4255
G01 X37.2044 Y-10.5300
G01 X37.2301 Y-10.6324
G01 X37.2657 Y-10.7319
G01 X37.3108 Y-10.8273
G01 X37.3651 Y-10.9179
G01 X37.4280 Y-11.0028
G01 X37.4990 Y-11.0810
G01 X37.5772 Y-11.1520
G01 X37.6621 Y-11.2149
G01 X37.7527 Y-11.2692
G01 X37.8481 Y-11.3143
G01 X37.9476 Y-11.3499
G01 X38.0500 Y-11.3756
G01 X38.1545 Y-11.3911
G01 X38.2600 Y-11.3962
G01 X38.3655 Y-11.3911
G01 X38.4700 Y-11.3756
G01 X38.5724 Y-11.3499
G01 X38.6719 Y-11.3143
G01 X38.7673 Y-11.2692
G01 X38.8579 Y-11.2149
G01 X38.9428 Y-11.1520
G01 X39.0210 Y-11.0810
G01 X39.0920 Y-11.0028
G01 X39.1549 Y-10.9179
G01 X39.2092 Y-10.8273
G01 X39.2543 Y-10.7319
G01 X39.2899 Y-10.6324
G01 X39.3156 Y-10.5300
G01 X39.3311 Y-10.4255
G01 X39.3362 Y-10.3200
G01 X39.3311 Y-10.2145
G01 X39.3156 Y-10.1100
G01 X39.2899 Y-10.0076
G01 X39.2543 Y-9.9081
G01 X39.2092 Y-9.8127
G01 X39.1549 Y-9.7221
G01 X39.0920 Y-9.6372
G01 X39.0210 Y-9.5590
G01 X38.9428 Y-9.4880
G01 X38.8579 Y-9.4251
G01 X38.7673 Y-9.3708
G01 X38.6719 Y-9.3257
G01 X38.5724 Y-9.2901
G01 X38.4700 Y-9.2644
G01 X38.3655 Y-9.2489
G01 X38.2600 Y-9.2438
G01 X38.1545 Y-9.2489
G01 X38.0500 Y-9.2644
G01 X37.9476 Y-9.2901
G01 X37.8481 Y-9.3257
G01 X37.7527 Y-9.3708
G01 X37.6621 Y-9.4251
G01 X37.5772 Y-9.4880
G01 X37.4990 Y-9.5590
G01 X37.4280 Y-9.6372
G01 X37.3651 Y-9.7221
G01 X37.3108 Y-9.8127
G01 X37.2657 Y-9.9081
G01 X37.2301 Y-10.0076
G01 X37.2044 Y-10.1100
G00 Z2.0000
G00 X39.7471 Y-10.0984
G01 F60.00
G01 Z-0.0500
G01 F60.00
G01 X39.7289 Y-10.2145
G01 X39.7238 Y-10.3200
G01 X39.7289 Y-10.4255
G01 X39.7444 Y-10.5300
G01 X39.7701 Y-10.6324
G01 X39.8057 Y-10.7319
G01 X39.8508 Y-10.8273
G01 X39.9051 Y-10.9179
G01 X39.9680 Y-11.0028
G01 X40.0390 Y-11.0810
G01 X40.1172 Y-11.1520
G01 X40.2021 Y-11.2149
G01 X40.2927 Y-11.2692
G01 X40.3881 Y-11.3143
G01 X40.4876 Y-11.3499
G01 X40.5900 Y-11.3756
G01 X40.6945 Y-11.3911
G01 X40.8000 Y-11.3962
G01 X40.9055 Y-11.3911
G01 X41.0100 Y-11.3756
G01 X41.1124 Y-11.3499
G01 X41.2119 Y-11.3143
G01 X41.3073 Y-11.2692
G01 X41.3979 Y-11.2149
G01 X41.4828 Y-11.1520
G01 X41.5610 Y-11.0810
G01 X41.6320 Y-11.0028
G01 X41.6949 Y-10.9179
G01 X41.7492 Y-10.8273
G01 X41.7943 Y-10.7319
G01 X41.8299 Y-10.6324
G01 X41.8556 Y-10.5300
G01 X41.8711 Y-10.4255
G01 X41.8762 Y-10.3200
G01 X41.8711 Y-10.2145
G01 X41.8556 Y-10.1100
G01 X41.8299 Y-10.0076
G01 X41.7943 Y-9.9081
G01 X41.7492 Y-9.8127
G01 X41.6949 Y-9.7221
G01 X41.6320 Y-9.6372
G01 X41.5610 Y-9.5590
G01 X41.4828 Y-9.4880
G01 X41.3979 Y-9.4251
G01 X41.3073 Y-9.3708
G01 X41.2119 Y-9.3257
G01 X41.1124 Y-9.2901
G01 X41.0100 Y-9.2644
G01 X40.9055 Y-9.2489
G01 X40.8000 Y-9.2438
G01 X40.6945 Y-9.2489
G01 X40.5900 Y-9.2644
G01 X40.4876 Y-9.2901
G01 X40.3881 Y-9.3257
G01 X40.2927 Y-9.3708
G01 X40.2021 Y-9.4251
G01 X40.1172 Y-9.4880
G01 X40.0390 Y-9.5590
G01 X39.9680 Y-9.6372
G01 X39.9051 Y-9.7221
G01 X39.8508 Y-9.8127
G01 X39.8057 Y-9.9081
G01 X39.7471 Y-10.0984
G00 Z2.0000
G00 X42.2844 Y-10.1100
G01 F60.00
G01 Z-0.0500
G01 F60.00
G01 X42.2689 Y-10.2145
G01 X42.2638 Y-10.3200
G01 X42.2689 Y-10.4255
G01 X42.2844 Y-10.5300
G01 X42.3101 Y-10.6324
G01 X42.3457 Y-10.7319
G01 X42.3908 Y-10.8273
G01 X42.4451 Y-10.9179
G01 X42.5080 Y-11.0028
G01 X42.5790 Y-11.0810
G01 X42.6572 Y-11.1520
G01 X42.7421 Y-11.2149
G01 X42.8327 Y-11.2692
G01 X42.9281 Y-11.3143
G01 X43.0276 Y-11.3499
G01 X43.1300 Y-11.3756
G01 X43.2345 Y-11.3911
G01 X43.3400 Y-11.3962
G01 X43.4455 Y-11.3911
G01 X43.5500 Y-11.3756
G01 X43.6524 Y-11.3499
G01 X43.7519 Y-11.3143
G01 X43.8473 Y-11.2692
G01 X43.9379 Y-11.2149
G01 X44.0228 Y-11.1520
G01 X44.1010 Y-11.0810
G01 X44.1720 Y-11.0028
G01 X44.2349 Y-10.9179
G01 X44.2892 Y-10.8273
G01 X44.3343 Y-10.7319
G01 X44.3699 Y-10.6324
G01 X44.3956 Y-10.5300
G01 X44.4111 Y-10.4255
G01 X44.4162 Y-10.3200
G01 X44.4111 Y-10.2145
G01 X44.3956 Y-10.1100
G01 X44.3699 Y-10.0076
G01 X44.3343 Y-9.9081
G01 X44.2892 Y-9.8127
G01 X44.2349 Y-9.7221
G01 X44.1720 Y-9.6372
G01 X44.1010 Y-9.5590
G01 X44.0228 Y-9.4880
G01 X43.9379 Y-9.4251
G01 X43.8473 Y-9.3708
G01 X43.7519 Y-9.3257
G01 X43.6524 Y-9.2901
G01 X43.5500 Y-9.2644
G01 X43.4455 Y-9.2489
G01 X43.3400 Y-9.2438
G01 X43.2345 Y-9.2489
G01 X43.1300 Y-9.2644
G01 X43.0276 Y-9.2901
G01 X42.9281 Y-9.3257
G01 X42.8327 Y-9.3708
G01 X42.7421 Y-9.4251
G01 X42.6572 Y-9.4880
G01 X42.5790 Y-9.5590
G01 X42.5080 Y-9.6372
G01 X42.4451 Y-9.7221
G01 X42.3908 Y-9.8127
G01 X42.3457 Y-9.9081
G01 X42.3101 Y-10.0076
G01 X42.2844 Y-10.1100
G00 Z2.0000
G00 X47.5517 Y-11.3936
G01 F60.00
G01 Z-0.0500
G01 F60.00
G01 X49.2645 Y-11.3960
G01 X49.3567 Y-11.3728
G01 X49.4331 Y-11.3162
G01 X49.4728 Y-11.2567
G01 X49.4960 Y-11.1645
G01 X49.4962 Y-9.4875
G01 X49.4889 Y-9.4283
G01 X49.4728 Y-9.3833
G01 X49.4162 Y-9.3069
G01 X49.3346 Y-9.2580
G01 X49.2645 Y-9.2440
G01 X47.5875 Y-9.2438
G01 X47.5283 Y-9.2511
G01 X47.4833 Y-9.2672
G01 X47.4069 Y-9.3238
G01 X47.3672 Y-9.3833
G01 X47.3440 Y-9.4755
G01 X47.3440 Y-11.1645
G01 X47.3580 Y-11.2346
G01 X47.4069 Y-11.3162
G01 X47.4833 Y-11.3728
G01 X47.5517 Y-11.3936
G00 Z2.0000
G00 X47.5108 Y-16.4864
G01 F60.00
G01 Z-0.0500
G01 F60.00
G01 X47.5700 Y-16.4937
G01 X49.2820 Y-16.4935
G01 X49.3521 Y-16.4795
G01 X49.4152 Y-16.4458
G01 X49.4658 Y-16.3952
G01 X49.5064 Y-16.3092
G01 X49.5137 Y-16.2500
G01 X49.5137 Y-14.5500
G01 X49.5064 Y-14.4908
G01 X49.4903 Y-14.4458
G01 X49.4506 Y-14.3863
G01 X49.3742 Y-14.3297
G01 X49.2820 Y-14.3065
G01 X49.0640 Y-14.3063
G01 X49.0640 Y-12.8600
G01 X49.0490 Y-12.7227
G01 X49.0192 Y-12.6247
G01 X48.9879 Y-12.5564
G01 X48.9485 Y-12.4925
G01 X48.8836 Y-12.4133
G01 X48.8191 Y-12.3549
G01 X48.7340 Y-12.2980
G01 X48.5954 Y-12.2406
G01 X48.4831 Y-12.2192
G01 X48.3688 Y-12.2183
G01 X48.2827 Y-12.2310
G01 X48.1736 Y-12.2651
G01 X48.0622 Y-12.3246
G01 X47.9733 Y-12.3964
G01 X47.9149 Y-12.4609
G01 X47.8521 Y-12.5564
G01 X47.8006 Y-12.6846
G01 X47.7806 Y-12.7850
G01 X47.7763 Y-12.8480
G01 X47.7760 Y-14.3063
G01 X47.5580 Y-14.3065
G01 X47.5108 Y-14.3136
G01 X47.4447 Y-14.3409
G01 X47.3894 Y-14.3863
G01 X47.3497 Y-14.4458
G01 X47.3289 Y-14.5142
G01 X47.3263 Y-14.7560
G01 X38.2600 Y-14.7560
G01 X38.1227 Y-14.7710
G01 X38.0247 Y-14.8008
G01 X37.9671 Y-14.8267
G01 X37.8925 Y-14.8715
G01 X37.8047 Y-14.9447
G01 X35.2647 Y-17.4847
G01 X35.1846 Y-17.5822
G01 X35.1467 Y-17.6471
G01 X35.1075 Y-17.7417
G01 X35.0783 Y-17.8888
G01 X35.0760 Y-19.3863
G01 X34.8580 Y-19.3865
G01 X34.8108 Y-19.3936
G01 X34.7447 Y-19.4209
G01 X34.6894 Y-19.4663
G01 X34.6497 Y-19.5258
G01 X34.6289 Y-19.5942
G01 X34.6263 Y-19.8360
G01 X33.4467 Y-19.8360
G01 X26.0067 Y-12.3964
G01 X25.9275 Y-12.3315
G01 X25.8529 Y-12.2867
G01 X25.7469 Y-12.2438
G01 X25.6350 Y-12.2206
G01 X25.5480 Y-12.2163
G01 X25.4344 Y-12.2284
G01 X25.3247 Y-12.2608
G01 X25.2460 Y-12.2980
G01 X25.1925 Y-12.3315
G01 X25.1133 Y-12.3964
G01 X25.0315 Y-12.4925
G01 X24.9651 Y-12.6136
G01 X24.9284 Y-12.7344
G01 X24.9163 Y-12.8720
G01 X24.9206 Y-12.9350
G01 X24.9406 Y-13.0354
G01 X24.9921 Y-13.1636
G01 X25.0700 Y-13.2776
G01 X32.7289 Y-20.9395
G01 X32.8222 Y-21.0154
G01 X32.9226 Y-21.0701
G01 X33.0046 Y-21.0994
G01 X33.1169 Y-21.1208
G01 X34.6263 Y-21.1240
G01 X34.6289 Y-21.3658
G01 X34.6497 Y-21.4342
G01 X34.6894 Y-21.4937
G01 X34.7447 Y-21.5391
G01 X34.8108 Y-21.5664
G01 X34.8580 Y-21.5735
G01 X35.0760 Y-21.5737
G01 X35.0760 Y-22.7533
G01 X22.7533 Y-35.0760
G01 X15.3369 Y-35.0792
G01 X15.2627 Y-35.0910
G01 X15.1647 Y-35.1208
G01 X15.0422 Y-35.1846
G01 X14.9364 Y-35.2733
G01 X14.8715 Y-35.3525
G01 X14.8321 Y-35.4164
G01 X14.7806 Y-35.5446
G01 X14.7606 Y-35.6450
G01 X14.7560 Y-35.7200
G01 X14.7606 Y-35.7950
G01 X14.7806 Y-35.8954
G01 X14.8380 Y-36.0340
G01 X14.8949 Y-36.1191
G01 X14.9447 Y-36.1753
G01 X15.0009 Y-36.2251
G01 X15.0860 Y-36.2820
G01 X15.2246 Y-36.3394
G01 X15.3250 Y-36.3594
G01 X15.3940 Y-36.3639
G01 X23.0260 Y-36.3639
G01 X23.1456 Y-36.3516
G01 X23.2553 Y-36.3192
G01 X23.3340 Y-36.2820
G01 X23.4285 Y-36.2178
G01 X36.2251 Y-23.4191
G01 X36.2820 Y-23.3340
G01 X36.3149 Y-23.2664
G01 X36.3394 Y-23.1954
G01 X36.3608 Y-23.0831
G01 X36.3640 Y-21.5737
G01 X36.5820 Y-21.5735
G01 X36.6742 Y-21.5503
G01 X36.7152 Y-21.5258
G01 X36.7658 Y-21.4752
G01 X36.7995 Y-21.4121
G01 X36.8135 Y-21.3420
G01 X36.8111 Y-19.5942
G01 X36.7903 Y-19.5258
G01 X36.7658 Y-19.4848
G01 X36.7152 Y-19.4342
G01 X36.6742 Y-19.4097
G01 X36.5820 Y-19.3865
G01 X36.3640 Y-19.3863
G01 X36.3640 Y-18.2067
G01 X38.5267 Y-16.0440
G01 X47.3263 Y-16.0440
G01 X47.3265 Y-16.2620
G01 X47.3497 Y-16.3542
G01 X47.3894 Y-16.4137
G01 X47.4248 Y-16.4458
G01 X47.5108 Y-16.4864
G00 Z2.0000
G00 X51.6738 Y-16.2507
G01 F60.00
G01 Z-0.0500
G01 F60.00
G01 X51.8107 Y-16.1138
G01 X51.8597 Y-16.0438
G01 X51.8434 Y-16.0432
G01 X51.7334 Y-16.1734
G01 X51.6032 Y-16.2834
G01 X51.6038 Y-16.2997
G01 X51.6738 Y-16.2507
G00 Z2.0000
G00 X51.7334 Y-14.6266
G01 F60.00
G01 Z-0.0500
G01 F60.00
G01 X51.8434 Y-14.7568
G01 X51.8597 Y-14.7562
G01 X51.8107 Y-14.6862
G01 X51.6738 Y-14.5493
G01 X51.6038 Y-14.5003
G01 X51.6032 Y-14.5166
G01 X51.7334 Y-14.6266
G00 Z2.0000
G00 X47.6466 Y-21.2534
G01 F60.00
G01 Z-0.0500
G01 F60.00
G01 X47.7756 Y-21.3625
G01 X47.7760 Y-22.7533
G01 X45.4247 Y-25.1047
G01 X45.3382 Y-25.2123
G01 X45.2808 Y-25.3247
G01 X45.2510 Y-25.4227
G01 X45.2406 Y-25.4850
G01 X45.2392 Y-25.6231
G01 X45.2638 Y-25.7469
G01 X45.3180 Y-25.8740
G01 X45.3515 Y-25.9275
G01 X45.4164 Y-26.0067
G01 X45.5222 Y-26.0954
G01 X45.6336 Y-26.1549
G01 X45.7046 Y-26.1794
G01 X45.8050 Y-26.1994
G01 X45.9550 Y-26.1994
G01 X46.0554 Y-26.1794
G01 X46.1264 Y-26.1549
G01 X46.1940 Y-26.1220
G01 X46.2885 Y-26.0578
G01 X48.8753 Y-23.4753
G01 X48.9485 Y-23.3875
G01 X48.9879 Y-23.3236
G01 X49.0394 Y-23.1954
G01 X49.0594 Y-23.0950
G01 X49.0637 Y-23.0320
G01 X49.0640 Y-21.3629
G01 X49.1847 Y-21.2616
G01 X49.2577 Y-21.1829
G01 X49.3294 Y-21.0877
G01 X49.3846 Y-20.9956
G01 X49.4305 Y-20.8986
G01 X49.4667 Y-20.7975
G01 X49.4927 Y-20.6934
G01 X49.5094 Y-20.5753
G01 X49.5094 Y-20.3847
G01 X49.4948 Y-20.2784
G01 X49.4667 Y-20.1625
G01 X49.4348 Y-20.0726
G01 X49.3846 Y-19.9644
G01 X49.3294 Y-19.8723
G01 X49.2655 Y-19.7861
G01 X49.1934 Y-19.7066
G01 X49.1139 Y-19.6345
G01 X49.0277 Y-19.5706
G01 X48.9356 Y-19.5154
G01 X48.8386 Y-19.4695
G01 X48.7375 Y-19.4333
G01 X48.6334 Y-19.4073
G01 X48.5272 Y-19.3915
G01 X48.4200 Y-19.3863
G01 X48.3128 Y-19.3915
G01 X48.2066 Y-19.4073
G01 X48.1025 Y-19.4333
G01 X48.0014 Y-19.4695
G01 X47.9044 Y-19.5154
G01 X47.8123 Y-19.5706
G01 X47.7261 Y-19.6345
G01 X47.6466 Y-19.7066
G01 X47.5745 Y-19.7861
G01 X47.5106 Y-19.8723
G01 X47.4554 Y-19.9644
G01 X47.4095 Y-20.0614
G01 X47.3733 Y-20.1625
G01 X47.3473 Y-20.2666
G01 X47.3315 Y-20.3728
G01 X47.3263 Y-20.4800
G01 X47.3315 Y-20.5872
G01 X47.3473 Y-20.6934
G01 X47.3733 Y-20.7975
G01 X47.4095 Y-20.8986
G01 X47.4554 Y-20.9956
G01 X47.5106 Y-21.0877
G01 X47.5745 Y-21.1739
G01 X47.6466 Y-21.2534
G00 Z2.0000
G00 X45.0984 Y-21.2447
G01 F60.00
G01 Z-0.0500
G01 F60.00
G01 X45.2356 Y-21.3625
G01 X45.2360 Y-22.7533
G01 X42.8847 Y-25.1047
G01 X42.7982 Y-25.2123
G01 X42.7408 Y-25.3247
G01 X42.7110 Y-25.4227
G01 X42.7006 Y-25.4850
G01 X42.6992 Y-25.6231
G01 X42.7238 Y-25.7469
G01 X42.7721 Y-25.8636
G01 X42.8500 Y-25.9776
G01 X42.8933 Y-26.0236
G01 X42.9725 Y-26.0885
G01 X43.0936 Y-26.1549
G01 X43.1646 Y-26.1794
G01 X43.2650 Y-26.1994
G01 X43.4150 Y-26.1994
G01 X43.5154 Y-26.1794
G01 X43.5864 Y-26.1549
G01 X43.6877 Y-26.1018
G01 X43.7485 Y-26.0578
G01 X46.3353 Y-23.4753
G01 X46.3851 Y-23.4191
G01 X46.4479 Y-23.3236
G01 X46.4994 Y-23.1954
G01 X46.5194 Y-23.0950
G01 X46.5237 Y-23.0320
G01 X46.5240 Y-21.3629
G01 X46.6447 Y-21.2616
G01 X46.7177 Y-21.1829
G01 X46.7894 Y-21.0877
G01 X46.8446 Y-20.9956
G01 X46.8905 Y-20.8986
G01 X46.9267 Y-20.7975
G01 X46.9527 Y-20.6934
G01 X46.9694 Y-20.5753
G01 X46.9735 Y-20.4680
G01 X46.9548 Y-20.2784
G01 X46.9267 Y-20.1625
G01 X46.8948 Y-20.0726
G01 X46.8446 Y-19.9644
G01 X46.7894 Y-19.8723
G01 X46.7255 Y-19.7861
G01 X46.6534 Y-19.7066
G01 X46.5739 Y-19.6345
G01 X46.4877 Y-19.5706
G01 X46.3956 Y-19.5154
G01 X46.2986 Y-19.4695
G01 X46.1975 Y-19.4333
G01 X46.0934 Y-19.4073
G01 X45.9872 Y-19.3915
G01 X45.8800 Y-19.3863
G01 X45.7728 Y-19.3915
G01 X45.6666 Y-19.4073
G01 X45.5625 Y-19.4333
G01 X45.4614 Y-19.4695
G01 X45.3644 Y-19.5154
G01 X45.2723 Y-19.5706
G01 X45.1861 Y-19.6345
G01 X45.1066 Y-19.7066
G01 X45.0345 Y-19.7861
G01 X44.9706 Y-19.8723
G01 X44.9154 Y-19.9644
G01 X44.8695 Y-20.0614
G01 X44.8333 Y-20.1625
G01 X44.8073 Y-20.2666
G01 X44.7915 Y-20.3728
G01 X44.7863 Y-20.4800
G01 X44.7915 Y-20.5872
G01 X44.8073 Y-20.6934
G01 X44.8333 Y-20.7975
G01 X44.8695 Y-20.8986
G01 X44.9154 Y-20.9956
G01 X44.9706 Y-21.0877
G01 X45.0984 Y-21.2447
G00 Z2.0000
G00 X42.5666 Y-21.2534
G01 F60.00
G01 Z-0.0500
G01 F60.00
G01 X42.6956 Y-21.3625
G01 X42.6960 Y-22.7533
G01 X39.0249 Y-26.4309
G01 X38.9567 Y-26.5371
G01 X38.9308 Y-26.5947
G01 X38.9010 Y-26.6927
G01 X38.8860 Y-26.8300
G01 X38.8984 Y-26.9556
G01 X38.9399 Y-27.0874
G01 X38.9882 Y-27.1777
G01 X39.0249 Y-27.2291
G01 X39.1215 Y-27.3278
G01 X39.2264 Y-27.3979
G01 X39.3317 Y-27.4425
G01 X39.4044 Y-27.4616
G01 X39.5180 Y-27.4737
G01 X39.5931 Y-27.4708
G01 X39.7054 Y-27.4494
G01 X39.7764 Y-27.4249
G01 X39.8777 Y-27.3718
G01 X39.9476 Y-27.3200
G01 X43.7953 Y-23.4753
G01 X43.8754 Y-23.3778
G01 X43.9133 Y-23.3129
G01 X43.9525 Y-23.2183
G01 X43.9817 Y-23.0712
G01 X43.9840 Y-21.3629
G01 X44.1047 Y-21.2616
G01 X44.1777 Y-21.1829
G01 X44.2494 Y-21.0877
G01 X44.3046 Y-20.9956
G01 X44.3505 Y-20.8986
G01 X44.3867 Y-20.7975
G01 X44.4127 Y-20.6934
G01 X44.4294 Y-20.5753
G01 X44.4294 Y-20.3847
G01 X44.4148 Y-20.2784
G01 X44.3867 Y-20.1625
G01 X44.3548 Y-20.0726
G01 X44.3046 Y-19.9644
G01 X44.2494 Y-19.8723
G01 X44.1855 Y-19.7861
G01 X44.1134 Y-19.7066
G01 X44.0339 Y-19.6345
G01 X43.9477 Y-19.5706
G01 X43.8556 Y-19.5154
G01 X43.7586 Y-19.4695
G01 X43.6575 Y-19.4333
G01 X43.5534 Y-19.4073
G01 X43.4472 Y-19.3915
G01 X43.3400 Y-19.3863
G01 X43.2328 Y-19.3915
G01 X43.1266 Y-19.4073
G01 X43.0225 Y-19.4333
G01 X42.9214 Y-19.4695
G01 X42.8244 Y-19.5154
G01 X42.7323 Y-19.5706
G01 X42.6461 Y-19.6345
G01 X42.5666 Y-19.7066
G01 X42.4945 Y-19.7861
G01 X42.4306 Y-19.8723
G01 X42.3754 Y-19.9644
G01 X42.3295 Y-20.0614
G01 X42.2933 Y-20.1625
G01 X42.2673 Y-20.2666
G01 X42.2515 Y-20.3728
G01 X42.2463 Y-20.4800
G01 X42.2515 Y-20.5872
G01 X42.2673 Y-20.6934
G01 X42.2933 Y-20.7975
G01 X42.3295 Y-20.8986
G01 X42.3754 Y-20.9956
G01 X42.4306 Y-21.0877
G01 X42.4945 Y-21.1739
G01 X42.5666 Y-21.2534
G00 Z2.0000
G00 X40.0266 Y-21.2534
G01 F60.00
G01 Z-0.0500
G01 F60.00
G01 X40.1556 Y-21.3625
G01 X40.1560 Y-22.7533
G01 X36.4849 Y-26.4309
G01 X36.4482 Y-26.4823
G01 X36.3999 Y-26.5726
G01 X36.3610 Y-26.6927
G01 X36.3460 Y-26.8300
G01 X36.3584 Y-26.9556
G01 X36.3951 Y-27.0764
G01 X36.4615 Y-27.1975
G01 X36.5264 Y-27.2767
G01 X36.5724 Y-27.3200
G01 X36.6864 Y-27.3979
G01 X36.7917 Y-27.4425
G01 X36.8644 Y-27.4616
G01 X36.9780 Y-27.4737
G01 X37.0531 Y-27.4708
G01 X37.1654 Y-27.4494
G01 X37.2364 Y-27.4249
G01 X37.3377 Y-27.3718
G01 X37.4076 Y-27.3200
G01 X41.2553 Y-23.4753
G01 X41.3354 Y-23.3778
G01 X41.3733 Y-23.3129
G01 X41.4125 Y-23.2183
G01 X41.4417 Y-23.0712
G01 X41.4440 Y-21.3629
G01 X41.5647 Y-21.2616
G01 X41.6377 Y-21.1829
G01 X41.7094 Y-21.0877
G01 X41.7646 Y-20.9956
G01 X41.8105 Y-20.8986
G01 X41.8467 Y-20.7975
G01 X41.8727 Y-20.6934
G01 X41.8894 Y-20.5753
G01 X41.8935 Y-20.4680
G01 X41.8748 Y-20.2784
G01 X41.8467 Y-20.1625
G01 X41.8148 Y-20.0726
G01 X41.7646 Y-19.9644
G01 X41.7094 Y-19.8723
G01 X41.6455 Y-19.7861
G01 X41.5734 Y-19.7066
G01 X41.4939 Y-19.6345
G01 X41.4077 Y-19.5706
G01 X41.3156 Y-19.5154
G01 X41.2186 Y-19.4695
G01 X41.1175 Y-19.4333
G01 X41.0134 Y-19.4073
G01 X40.9072 Y-19.3915
G01 X40.8000 Y-19.3863
G01 X40.6928 Y-19.3915
G01 X40.5866 Y-19.4073
G01 X40.4825 Y-19.4333
G01 X40.3814 Y-19.4695
G01 X40.2844 Y-19.5154
G01 X40.1923 Y-19.5706
G01 X40.1061 Y-19.6345
G01 X40.0266 Y-19.7066
G01 X39.9545 Y-19.7861
G01 X39.8906 Y-19.8723
G01 X39.8354 Y-19.9644
G01 X39.7895 Y-20.0614
G01 X39.7533 Y-20.1625
G01 X39.7273 Y-20.2666
G01 X39.7115 Y-20.3728
G01 X39.7063 Y-20.4800
G01 X39.7115 Y-20.5872
G01 X39.7273 Y-20.6934
G01 X39.7533 Y-20.7975
G01 X39.7895 Y-20.8986
G01 X39.8354 Y-20.9956
G01 X39.8906 Y-21.0877
G01 X39.9545 Y-21.1739
G01 X40.0266 Y-21.2534
G00 Z2.0000
G00 X37.4784 Y-21.2447
G01 F60.00
G01 Z-0.0500
G01 F60.00
G01 X37.6156 Y-21.3625
G01 X37.6160 Y-22.7533
G01 X33.9449 Y-26.4309
G01 X33.9082 Y-26.4823
G01 X33.8599 Y-26.5726
G01 X33.8210 Y-26.6927
G01 X33.8060 Y-26.8300
G01 X33.8184 Y-26.9556
G01 X33.8551 Y-27.0764
G01 X33.9215 Y-27.1975
G01 X33.9864 Y-27.2767
G01 X34.0324 Y-27.3200
G01 X34.1464 Y-27.3979
G01 X34.2147 Y-27.4292
G01 X34.3244 Y-27.4616
G01 X34.4380 Y-27.4737
G01 X34.5131 Y-27.4708
G01 X34.6254 Y-27.4494
G01 X34.6964 Y-27.4249
G01 X34.7977 Y-27.3718
G01 X34.8676 Y-27.3200
G01 X38.7153 Y-23.4753
G01 X38.7954 Y-23.3778
G01 X38.8333 Y-23.3129
G01 X38.8725 Y-23.2183
G01 X38.9017 Y-23.0712
G01 X38.9040 Y-21.3629
G01 X39.0247 Y-21.2616
G01 X39.0977 Y-21.1829
G01 X39.1694 Y-21.0877
G01 X39.2246 Y-20.9956
G01 X39.2705 Y-20.8986
G01 X39.3067 Y-20.7975
G01 X39.3327 Y-20.6934
G01 X39.3494 Y-20.5753
G01 X39.3494 Y-20.3847
G01 X39.3348 Y-20.2784
G01 X39.3067 Y-20.1625
G01 X39.2748 Y-20.0726
G01 X39.2246 Y-19.9644
G01 X39.1694 Y-19.8723
G01 X39.1055 Y-19.7861
G01 X39.0334 Y-19.7066
G01 X38.9539 Y-19.6345
G01 X38.8677 Y-19.5706
G01 X38.7756 Y-19.5154
G01 X38.6786 Y-19.4695
G01 X38.5775 Y-19.4333
G01 X38.4734 Y-19.4073
G01 X38.3672 Y-19.3915
G01 X38.2600 Y-19.3863
G01 X38.1528 Y-19.3915
G01 X38.0466 Y-19.4073
G01 X37.9425 Y-19.4333
G01 X37.8414 Y-19.4695
G01 X37.7444 Y-19.5154
G01 X37.6523 Y-19.5706
G01 X37.5661 Y-19.6345
G01 X37.4866 Y-19.7066
G01 X37.4145 Y-19.7861
G01 X37.3506 Y-19.8723
G01 X37.2954 Y-19.9644
G01 X37.2495 Y-20.0614
G01 X37.2133 Y-20.1625
G01 X37.1873 Y-20.2666
G01 X37.1715 Y-20.3728
G01 X37.1663 Y-20.4800
G01 X37.1715 Y-20.5872
G01 X37.1873 Y-20.6934
G01 X37.2133 Y-20.7975
G01 X37.2495 Y-20.8986
G01 X37.2954 Y-20.9956
G01 X37.3506 Y-21.0877
G01 X37.4784 Y-21.2447
G00 Z2.0000
G00 X37.2044 Y-32.9700
G01 F60.00
G01 Z-0.0500
G01 F60.00
G01 X37.1889 Y-33.0745
G01 X37.1838 Y-33.1800
G01 X37.1889 Y-33.2855
G01 X37.2044 Y-33.3900
G01 X37.2301 Y-33.4924
G01 X37.2657 Y-33.5919
G01 X37.3108 Y-33.6873
G01 X37.3651 Y-33.7779
G01 X37.4280 Y-33.8628
G01 X37.4990 Y-33.9410
G01 X37.5772 Y-34.0120
G01 X37.6621 Y-34.0749
G01 X37.7527 Y-34.1292
G01 X37.8481 Y-34.1743
G01 X37.9476 Y-34.2099
G01 X38.0500 Y-34.2356
G01 X38.1545 Y-34.2511
G01 X38.2600 Y-34.2562
G01 X38.3655 Y-34.2511
G01 X38.4700 Y-34.2356
G01 X38.5724 Y-34.2099
G01 X38.6719 Y-34.1743
G01 X38.7673 Y-34.1292
G01 X38.8579 Y-34.0749
G01 X38.9428 Y-34.0120
G01 X39.0210 Y-33.9410
G01 X39.0920 Y-33.8628
G01 X39.1549 Y-33.7779
G01 X39.2092 Y-33.6873
G01 X39.2543 Y-33.5919
G01 X39.2899 Y-33.4924
G01 X39.3156 Y-33.3900
G01 X39.3311 Y-33.2855
G01 X39.3362 Y-33.1800
G01 X39.3311 Y-33.0745
G01 X39.3156 Y-32.9700
G01 X39.2899 Y-32.8676
G01 X39.2543 Y-32.7681
G01 X39.2092 Y-32.6727
G01 X39.1549 Y-32.5821
G01 X39.0920 Y-32.4972
G01 X39.0210 Y-32.4190
G01 X38.9428 Y-32.3480
G01 X38.8579 Y-32.2851
G01 X38.7673 Y-32.2308
G01 X38.6719 Y-32.1857
G01 X38.5724 Y-32.1501
G01 X38.4700 Y-32.1244
G01 X38.3655 Y-32.1089
G01 X38.2600 Y-32.1038
G01 X38.1545 Y-32.1089
G01 X38.0500 Y-32.1244
G01 X37.9476 Y-32.1501
G01 X37.8481 Y-32.1857
G01 X37.7527 Y-32.2308
G01 X37.6621 Y-32.2851
G01 X37.5772 Y-32.3480
G01 X37.4990 Y-32.4190
G01 X37.4280 Y-32.4972
G01 X37.3651 Y-32.5821
G01 X37.3108 Y-32.6727
G01 X37.2657 Y-32.7681
G01 X37.2301 Y-32.8676
G01 X37.2044 Y-32.9700
G00 Z2.0000
G00 X39.7444 Y-32.9700
G01 F60.00
G01 Z-0.0500
G01 F60.00
G01 X39.7289 Y-33.0745
G01 X39.7238 Y-33.1800
G01 X39.7289 Y-33.2855
G01 X39.7444 Y-33.3900
G01 X39.7701 Y-33.4924
G01 X39.8057 Y-33.5919
G01 X39.8508 Y-33.6873
G01 X39.9051 Y-33.7779
G01 X39.9680 Y-33.8628
G01 X40.0390 Y-33.9410
G01 X40.1172 Y-34.0120
G01 X40.2021 Y-34.0749
G01 X40.2927 Y-34.1292
G01 X40.3881 Y-34.1743
G01 X40.4876 Y-34.2099
G01 X40.5900 Y-34.2356
G01 X40.6945 Y-34.2511
G01 X40.8000 Y-34.2562
G01 X40.9055 Y-34.2511
G01 X41.0100 Y-34.2356
G01 X41.1124 Y-34.2099
G01 X41.2119 Y-34.1743
G01 X41.3073 Y-34.1292
G01 X41.3979 Y-34.0749
G01 X41.4828 Y-34.0120
G01 X41.5610 Y-33.9410
G01 X41.6320 Y-33.8628
G01 X41.6949 Y-33.7779
G01 X41.7492 Y-33.6873
G01 X41.7943 Y-33.5919
G01 X41.8299 Y-33.4924
G01 X41.8556 Y-33.3900
G01 X41.8711 Y-33.2855
G01 X41.8762 Y-33.1800
G01 X41.8711 Y-33.0745
G01 X41.8556 Y-32.9700
G01 X41.8299 Y-32.8676
G01 X41.7943 Y-32.7681
G01 X41.7492 Y-32.6727
G01 X41.6949 Y-32.5821
G01 X41.6320 Y-32.4972
G01 X41.5610 Y-32.4190
G01 X41.4828 Y-32.3480
G01 X41.3979 Y-32.2851
G01 X41.3073 Y-32.2308
G01 X41.2119 Y-32.1857
G01 X41.1124 Y-32.1501
G01 X41.0100 Y-32.1244
G01 X40.9055 Y-32.1089
G01 X40.8000 Y-32.1038
G01 X40.6945 Y-32.1089
G01 X40.5900 Y-32.1244
G01 X40.4876 Y-32.1501
G01 X40.3881 Y-32.1857
G01 X40.2927 Y-32.2308
G01 X40.2021 Y-32.2851
G01 X40.1172 Y-32.3480
G01 X40.0390 Y-32.4190
G01 X39.9680 Y-32.4972
G01 X39.9051 Y-32.5821
G01 X39.8508 Y-32.6727
G01 X39.8057 Y-32.7681
G01 X39.7701 Y-32.8676
G01 X39.7444 Y-32.9700
G00 Z2.0000
G00 X42.2844 Y-32.9700
G01 F60.00
G01 Z-0.0500
G01 F60.00
G01 X42.2689 Y-33.0745
G01 X42.2638 Y-33.1800
G01 X42.2689 Y-33.2855
G01 X42.2844 Y-33.3900
G01 X42.3101 Y-33.4924
G01 X42.3457 Y-33.5919
G01 X42.3908 Y-33.6873
G01 X42.4451 Y-33.7779
G01 X42.5080 Y-33.8628
G01 X42.5790 Y-33.9410
G01 X42.6572 Y-34.0120
G01 X42.7421 Y-34.0749
G01 X42.8327 Y-34.1292
G01 X42.9281 Y-34.1743
G01 X43.0276 Y-34.2099
G01 X43.1300 Y-34.2356
G01 X43.2345 Y-34.2511
G01 X43.3400 Y-34.2562
G01 X43.4455 Y-34.2511
G01 X43.5500 Y-34.2356
G01 X43.6524 Y-34.2099
G01 X43.7519 Y-34.1743
G01 X43.8473 Y-34.1292
G01 X43.9379 Y-34.0749
G01 X44.0228 Y-34.0120
G01 X44.1010 Y-33.9410
G01 X44.1720 Y-33.8628
G01 X44.2349 Y-33.7779
G01 X44.2892 Y-33.6873
G01 X44.3343 Y-33.5919
G01 X44.3699 Y-33.4924
G01 X44.3956 Y-33.3900
G01 X44.4111 Y-33.2855
G01 X44.4162 Y-33.1800
G01 X44.4111 Y-33.0745
G01 X44.3956 Y-32.9700
G01 X44.3699 Y-32.8676
G01 X44.3343 Y-32.7681
G01 X44.2892 Y-32.6727
G01 X44.2349 Y-32.5821
G01 X44.1720 Y-32.4972
G01 X44.1010 Y-32.4190
G01 X44.0228 Y-32.3480
G01 X43.9379 Y-32.2851
G01 X43.8473 Y-32.2308
G01 X43.7519 Y-32.1857
G01 X43.6524 Y-32.1501
G01 X43.5500 Y-32.1244
G01 X43.4455 Y-32.1089
G01 X43.3400 Y-32.1038
G01 X43.2345 Y-32.1089
G01 X43.1300 Y-32.1244
G01 X43.0276 Y-32.1501
G01 X42.9281 Y-32.1857
G01 X42.8327 Y-32.2308
G01 X42.7421 Y-32.2851
G01 X42.6572 Y-32.3480
G01 X42.5790 Y-32.4190
G01 X42.5080 Y-32.4972
G01 X42.4451 Y-32.5821
G01 X42.3908 Y-32.6727
G01 X42.3457 Y-32.7681
G01 X42.3101 Y-32.8676
G01 X42.2844 Y-32.9700
G00 Z2.0000
G00 X44.8244 Y-32.9700
G01 F60.00
G01 Z-0.0500
G01 F60.00
G01 X44.8089 Y-33.0745
G01 X44.8038 Y-33.1800
G01 X44.8089 Y-33.2855
G01 X44.8244 Y-33.3900
G01 X44.8501 Y-33.4924
G01 X44.8857 Y-33.5919
G01 X44.9308 Y-33.6873
G01 X44.9851 Y-33.7779
G01 X45.0480 Y-33.8628
G01 X45.1190 Y-33.9410
G01 X45.1972 Y-34.0120
G01 X45.2821 Y-34.0749
G01 X45.3727 Y-34.1292
G01 X45.4681 Y-34.1743
G01 X45.5676 Y-34.2099
G01 X45.6700 Y-34.2356
G01 X45.7745 Y-34.2511
G01 X45.8800 Y-34.2562
G01 X45.9855 Y-34.2511
G01 X46.0900 Y-34.2356
G01 X46.1924 Y-34.2099
G01 X46.2919 Y-34.1743
G01 X46.3873 Y-34.1292
G01 X46.4779 Y-34.0749
G01 X46.5628 Y-34.0120
G01 X46.6410 Y-33.9410
G01 X46.7120 Y-33.8628
G01 X46.7749 Y-33.7779
G01 X46.8292 Y-33.6873
G01 X46.8743 Y-33.5919
G01 X46.9099 Y-33.4924
G01 X46.9356 Y-33.3900
G01 X46.9511 Y-33.2855
G01 X46.9562 Y-33.1800
G01 X46.9511 Y-33.0745
G01 X46.9356 Y-32.9700
G01 X46.9099 Y-32.8676
G01 X46.8743 Y-32.7681
G01 X46.8292 Y-32.6727
G01 X46.7749 Y-32.5821
G01 X46.7120 Y-32.4972
G01 X46.6410 Y-32.4190
G01 X46.5628 Y-32.3480
G01 X46.4779 Y-32.2851
G01 X46.3873 Y-32.2308
G01 X46.2919 Y-32.1857
G01 X46.1924 Y-32.1501
G01 X46.0900 Y-32.1244
G01 X45.9855 Y-32.1089
G01 X45.8800 Y-32.1038
G01 X45.7745 Y-32.1089
G01 X45.6700 Y-32.1244
G01 X45.5676 Y-32.1501
G01 X45.4681 Y-32.1857
G01 X45.3727 Y-32.2308
G01 X45.2821 Y-32.2851
G01 X45.1972 Y-32.3480
G01 X45.1190 Y-32.4190
G01 X45.0480 Y-32.4972
G01 X44.9851 Y-32.5821
G01 X44.9308 Y-32.6727
G01 X44.8857 Y-32.7681
G01 X44.8501 Y-32.8676
G01 X44.8244 Y-32.9700
G00 Z2.0000
G00 X47.5517 Y-34.2536
G01 F60.00
G01 Z-0.0500
G01 F60.00
G01 X49.2645 Y-34.2560
G01 X49.3567 Y-34.2328
G01 X49.4331 Y-34.1762
G01 X49.4728 Y-34.1167
G01 X49.4960 Y-34.0245
G01 X49.4962 Y-32.3475
G01 X49.4889 Y-32.2883
G01 X49.4728 Y-32.2433
G01 X49.4162 Y-32.1669
G01 X49.3567 Y-32.1272
G01 X49.2645 Y-32.1040
G01 X47.5875 Y-32.1038
G01 X47.5283 Y-32.1111
G01 X47.4833 Y-32.1272
G01 X47.4069 Y-32.1838
G01 X47.3672 Y-32.2433
G01 X47.3440 Y-32.3355
G01 X47.3440 Y-34.0245
G01 X47.3580 Y-34.0946
G01 X47.4069 Y-34.1762
G01 X47.4833 Y-34.2328
G01 X47.5517 Y-34.2536
G00 Z2.0000
G00 X53.0546 Y-39.7038
G01 F60.00
G01 Z-0.0500
G01 F60.00
G01 X53.2748 Y-39.7541
G01 X53.3759 Y-39.7627
G01 X53.5057 Y-39.7901
G01 X53.6268 Y-39.7622
G01 X53.7252 Y-39.7541
G01 X53.9454 Y-39.7038
G01 X54.1556 Y-39.6213
G01 X54.3512 Y-39.5084
G01 X54.5277 Y-39.3676
G01 X54.6813 Y-39.2021
G01 X54.8085 Y-39.0155
G01 X54.9065 Y-38.8120
G01 X54.9731 Y-38.5962
G01 X55.0071 Y-38.3718
G01 X55.0391 Y-38.2546
G01 X55.0070 Y-38.1478
G01 X54.9731 Y-37.9238
G01 X54.9065 Y-37.7080
G01 X54.8085 Y-37.5045
G01 X54.6813 Y-37.3179
G01 X54.5277 Y-37.1524
G01 X54.3512 Y-37.0116
G01 X54.1556 Y-36.8987
G01 X53.9454 Y-36.8162
G01 X53.7252 Y-36.7659
G01 X53.5564 Y-36.7533
G01 X53.4436 Y-36.7533
G01 X53.2748 Y-36.7659
G01 X53.0546 Y-36.8162
G01 X52.8444 Y-36.8987
G01 X52.6488 Y-37.0116
G01 X52.4723 Y-37.1524
G01 X52.3187 Y-37.3179
G01 X52.1915 Y-37.5045
G01 X52.0935 Y-37.7080
G01 X52.0269 Y-37.9238
G01 X51.9933 Y-38.1471
G01 X51.9946 Y-38.3817
G01 X52.0269 Y-38.5962
G01 X52.0935 Y-38.8120
G01 X52.1915 Y-39.0155
G01 X52.3187 Y-39.2021
G01 X52.4723 Y-39.3676
G01 X52.6488 Y-39.5084
G01 X52.8444 Y-39.6213
G01 X53.0546 Y-39.7038
G00 Z2.0000
G00 X34.6644 Y-32.9700
G01 F60.00
G01 Z-0.0500
G01 F60.00
G01 X34.6489 Y-33.0745
G01 X34.6438 Y-33.1800
G01 X34.6489 Y-33.2855
G01 X34.6644 Y-33.3900
G01 X34.6901 Y-33.4924
G01 X34.7257 Y-33.5919
G01 X34.7708 Y-33.6873
G01 X34.8251 Y-33.7779
G01 X34.8880 Y-33.8628
G01 X34.9590 Y-33.9410
G01 X35.0372 Y-34.0120
G01 X35.1221 Y-34.0749
G01 X35.2127 Y-34.1292
G01 X35.3081 Y-34.1743
G01 X35.4076 Y-34.2099
G01 X35.5100 Y-34.2356
G01 X35.6145 Y-34.2511
G01 X35.7200 Y-34.2562
G01 X35.8255 Y-34.2511
G01 X35.9300 Y-34.2356
G01 X36.0324 Y-34.2099
G01 X36.1319 Y-34.1743
G01 X36.2273 Y-34.1292
G01 X36.3179 Y-34.0749
G01 X36.4028 Y-34.0120
G01 X36.4810 Y-33.9410
G01 X36.5520 Y-33.8628
G01 X36.6149 Y-33.7779
G01 X36.6692 Y-33.6873
G01 X36.7143 Y-33.5919
G01 X36.7499 Y-33.4924
G01 X36.7756 Y-33.3900
G01 X36.7911 Y-33.2855
G01 X36.7962 Y-33.1800
G01 X36.7911 Y-33.0745
G01 X36.7756 Y-32.9700
G01 X36.7499 Y-32.8676
G01 X36.7143 Y-32.7681
G01 X36.6692 Y-32.6727
G01 X36.6149 Y-32.5821
G01 X36.5520 Y-32.4972
G01 X36.4810 Y-32.4190
G01 X36.4028 Y-32.3480
G01 X36.3179 Y-32.2851
G01 X36.2273 Y-32.2308
G01 X36.1319 Y-32.1857
G01 X36.0324 Y-32.1501
G01 X35.9300 Y-32.1244
G01 X35.8255 Y-32.1089
G01 X35.7200 Y-32.1038
G01 X35.6145 Y-32.1089
G01 X35.5100 Y-32.1244
G01 X35.4076 Y-32.1501
G01 X35.3081 Y-32.1857
G01 X35.2127 Y-32.2308
G01 X35.1221 Y-32.2851
G01 X35.0372 Y-32.3480
G01 X34.9590 Y-32.4190
G01 X34.8880 Y-32.4972
G01 X34.8251 Y-32.5821
G01 X34.7708 Y-32.6727
G01 X34.7257 Y-32.7681
G01 X34.6901 Y-32.8676
G01 X34.6644 Y-32.9700
G00 Z2.0000
G00 X32.1244 Y-32.9700
G01 F60.00
G01 Z-0.0500
G01 F60.00
G01 X32.1089 Y-33.0745
G01 X32.1038 Y-33.1800
G01 X32.1089 Y-33.2855
G01 X32.1244 Y-33.3900
G01 X32.1501 Y-33.4924
G01 X32.1857 Y-33.5919
G01 X32.2308 Y-33.6873
G01 X32.2851 Y-33.7779
G01 X32.3480 Y-33.8628
G01 X32.4190 Y-33.9410
G01 X32.4972 Y-34.0120
G01 X32.5821 Y-34.0749
G01 X32.6727 Y-34.1292
G01 X32.7681 Y-34.1743
G01 X32.8676 Y-34.2099
G01 X32.9700 Y-34.2356
G01 X33.0745 Y-34.2511
G01 X33.1800 Y-34.2562
G01 X33.2855 Y-34.2511
G01 X33.3900 Y-34.2356
G01 X33.4924 Y-34.2099
G01 X33.5919 Y-34.1743
G01 X33.6873 Y-34.1292
G01 X33.7779 Y-34.0749
G01 X33.8628 Y-34.0120
G01 X33.9410 Y-33.9410
G01 X34.0120 Y-33.8628
G01 X34.0749 Y-33.7779
G01 X34.1292 Y-33.6873
G01 X34.1743 Y-33.5919
G01 X34.2099 Y-33.4924
G01 X34.2356 Y-33.3900
G01 X34.2511 Y-33.2855
G01 X34.2562 Y-33.1800
G01 X34.2511 Y-33.0745
G01 X34.2356 Y-32.9700
G01 X34.2099 Y-32.8676
G01 X34.1743 Y-32.7681
G01 X34.1292 Y-32.6727
G01 X34.0749 Y-32.5821
G01 X34.0120 Y-32.4972
G01 X33.9410 Y-32.4190
G01 X33.8628 Y-32.3480
G01 X33.7779 Y-32.2851
G01 X33.6873 Y-32.2308
G01 X33.5919 Y-32.1857
G01 X33.4924 Y-32.1501
G01 X33.3900 Y-32.1244
G01 X33.2855 Y-32.1089
G01 X33.1800 Y-32.1038
G01 X33.0745 Y-32.1089
G01 X32.9700 Y-32.1244
G01 X32.8676 Y-32.1501
G01 X32.7681 Y-32.1857
G01 X32.6727 Y-32.2308
G01 X32.5821 Y-32.2851
G01 X32.4972 Y-32.3480
G01 X32.4190 Y-32.4190
G01 X32.3480 Y-32.4972
G01 X32.2851 Y-32.5821
G01 X32.2308 Y-32.6727
G01 X32.1857 Y-32.7681
G01 X32.1501 Y-32.8676
G01 X32.1244 Y-32.9700
G00 Z2.0000
G00 X31.4624 Y-33.8983
G01 F60.00
G01 Z-0.0500
G01 F60.00
G01 X31.6182 Y-33.7867
G01 X31.7784 Y-33.7316
G01 X31.8412 Y-33.7217
G01 X32.0231 Y-33.7269
G01 X32.1725 Y-33.7741
G01 X32.2239 Y-33.7995
G01 X32.3504 Y-33.8919
G01 X32.4772 Y-34.0176
G01 X32.6333 Y-34.1269
G01 X32.8060 Y-34.2075
G01 X32.9901 Y-34.2568
G01 X33.1800 Y-34.2734
G01 X33.3699 Y-34.2568
G01 X33.5540 Y-34.2075
G01 X33.7267 Y-34.1269
G01 X33.8828 Y-34.0176
G01 X34.0208 Y-33.8829
G01 X34.1361 Y-33.7995
G01 X34.1815 Y-33.7763
G01 X34.3495 Y-33.7246
G01 X34.5379 Y-33.7229
G01 X34.5877 Y-33.7335
G01 X34.7530 Y-33.7928
G01 X34.8904 Y-33.8919
G01 X35.0172 Y-34.0176
G01 X35.1733 Y-34.1269
G01 X35.3460 Y-34.2075
G01 X35.5301 Y-34.2568
G01 X35.7200 Y-34.2734
G01 X35.9099 Y-34.2568
G01 X36.0940 Y-34.2075
G01 X36.2667 Y-34.1269
G01 X36.4228 Y-34.0176
G01 X36.5496 Y-33.8919
G01 X36.6982 Y-33.7867
G01 X36.8895 Y-33.7246
G01 X37.0652 Y-33.7219
G01 X37.1277 Y-33.7335
G01 X37.2930 Y-33.7928
G01 X37.4304 Y-33.8919
G01 X37.5572 Y-34.0176
G01 X37.7133 Y-34.1269
G01 X37.8860 Y-34.2075
G01 X38.0701 Y-34.2568
G01 X38.2600 Y-34.2734
G01 X38.4499 Y-34.2568
G01 X38.6340 Y-34.2075
G01 X38.8067 Y-34.1269
G01 X38.9628 Y-34.0176
G01 X39.0896 Y-33.8919
G01 X39.2382 Y-33.7867
G01 X39.4295 Y-33.7246
G01 X39.6052 Y-33.7219
G01 X39.6677 Y-33.7335
G01 X39.8330 Y-33.7928
G01 X39.9704 Y-33.8919
G01 X40.0972 Y-34.0176
G01 X40.2533 Y-34.1269
G01 X40.4260 Y-34.2075
G01 X40.6101 Y-34.2568
G01 X40.8000 Y-34.2734
G01 X40.9899 Y-34.2568
G01 X41.1740 Y-34.2075
G01 X41.3467 Y-34.1269
G01 X41.5028 Y-34.0176
G01 X41.6296 Y-33.8919
G01 X41.7782 Y-33.7867
G01 X41.9695 Y-33.7246
G01 X42.1388 Y-33.7217
G01 X42.2016 Y-33.7316
G01 X42.3730 Y-33.7928
G01 X42.5104 Y-33.8919
G01 X42.6372 Y-34.0176
G01 X42.7933 Y-34.1269
G01 X42.9660 Y-34.2075
G01 X43.1501 Y-34.2568
G01 X43.3400 Y-34.2734
G01 X43.5299 Y-34.2568
G01 X43.7140 Y-34.2075
G01 X43.8867 Y-34.1269
G01 X44.0428 Y-34.0176
G01 X44.1696 Y-33.8919
G01 X44.3182 Y-33.7867
G01 X44.5095 Y-33.7246
G01 X44.6788 Y-33.7217
G01 X44.7477 Y-33.7335
G01 X44.8785 Y-33.7763
G01 X44.9239 Y-33.7995
G01 X45.0504 Y-33.8919
G01 X45.1772 Y-34.0176
G01 X45.3333 Y-34.1269
G01 X45.5060 Y-34.2075
G01 X45.6901 Y-34.2568
G01 X45.8800 Y-34.2734
G01 X46.0699 Y-34.2568
G01 X46.2540 Y-34.2075
G01 X46.4267 Y-34.1269
G01 X46.5384 Y-34.0494
G01 X46.6758 Y-33.9804
G01 X46.8835 Y-33.9426
G01 X47.0826 Y-33.9712
G01 X47.2301 Y-34.0404
G01 X47.2831 Y-34.0757
G01 X47.4039 Y-34.1958
G01 X47.4632 Y-34.2402
G01 X47.5365 Y-34.2675
G01 X49.2873 Y-34.2692
G01 X49.3768 Y-34.2402
G01 X49.4359 Y-34.1959
G01 X49.4802 Y-34.1368
G01 X49.5075 Y-34.0635
G01 X49.5092 Y-32.3127
G01 X49.4802 Y-32.2232
G01 X49.4359 Y-32.1641
G01 X49.3768 Y-32.1198
G01 X49.3035 Y-32.0925
G01 X47.5527 Y-32.0908
G01 X47.4632 Y-32.1198
G01 X47.4038 Y-32.1643
G01 X47.2779 Y-32.2892
G01 X47.1313 Y-32.3701
G01 X47.0649 Y-32.3920
G01 X46.9293 Y-32.4156
G01 X46.8784 Y-32.4165
G01 X46.7295 Y-32.3955
G01 X46.6808 Y-32.3806
G01 X46.5401 Y-32.3116
G01 X46.4267 Y-32.2331
G01 X46.2540 Y-32.1525
G01 X46.0699 Y-32.1032
G01 X45.8800 Y-32.0866
G01 X45.6901 Y-32.1032
G01 X45.5060 Y-32.1525
G01 X45.3333 Y-32.2331
G01 X45.1772 Y-32.3424
G01 X45.0504 Y-32.4681
G01 X44.9018 Y-32.5733
G01 X44.7105 Y-32.6354
G01 X44.5412 Y-32.6383
G01 X44.4784 Y-32.6284
G01 X44.3070 Y-32.5672
G01 X44.1696 Y-32.4681
G01 X44.0428 Y-32.3424
G01 X43.8867 Y-32.2331
G01 X43.7140 Y-32.1525
G01 X43.5299 Y-32.1032
G01 X43.3400 Y-32.0866
G01 X43.1501 Y-32.1032
G01 X42.9660 Y-32.1525
G01 X42.7933 Y-32.2331
G01 X42.6372 Y-32.3424
G01 X42.5104 Y-32.4681
G01 X42.3618 Y-32.5733
G01 X42.1705 Y-32.6354
G01 X42.0012 Y-32.6383
G01 X41.9384 Y-32.6284
G01 X41.7670 Y-32.5672
G01 X41.6296 Y-32.4681
G01 X41.5028 Y-32.3424
G01 X41.3467 Y-32.2331
G01 X41.1740 Y-32.1525
G01 X40.9899 Y-32.1032
G01 X40.8000 Y-32.0866
G01 X40.6101 Y-32.1032
G01 X40.4260 Y-32.1525
G01 X40.2533 Y-32.2331
G01 X40.0972 Y-32.3424
G01 X39.9704 Y-32.4681
G01 X39.8218 Y-32.5733
G01 X39.6305 Y-32.6354
G01 X39.4612 Y-32.6383
G01 X39.3984 Y-32.6284
G01 X39.2270 Y-32.5672
G01 X39.0896 Y-32.4681
G01 X38.9628 Y-32.3424
G01 X38.8067 Y-32.2331
G01 X38.6340 Y-32.1525
G01 X38.4499 Y-32.1032
G01 X38.2600 Y-32.0866
G01 X38.0701 Y-32.1032
G01 X37.8860 Y-32.1525
G01 X37.7133 Y-32.2331
G01 X37.5572 Y-32.3424
G01 X37.4304 Y-32.4681
G01 X37.2818 Y-32.5733
G01 X37.0905 Y-32.6354
G01 X36.9212 Y-32.6383
G01 X36.8584 Y-32.6284
G01 X36.6870 Y-32.5672
G01 X36.5496 Y-32.4681
G01 X36.4228 Y-32.3424
G01 X36.2667 Y-32.2331
G01 X36.0940 Y-32.1525
G01 X35.9099 Y-32.1032
G01 X35.7200 Y-32.0866
G01 X35.5301 Y-32.1032
G01 X35.3460 Y-32.1525
G01 X35.1733 Y-32.2331
G01 X35.0172 Y-32.3424
G01 X34.8904 Y-32.4681
G01 X34.7418 Y-32.5733
G01 X34.5505 Y-32.6354
G01 X34.3812 Y-32.6383
G01 X34.3184 Y-32.6284
G01 X34.1470 Y-32.5672
G01 X34.0096 Y-32.4681
G01 X33.8828 Y-32.3424
G01 X33.7267 Y-32.2331
G01 X33.5540 Y-32.1525
G01 X33.3699 Y-32.1032
G01 X33.1800 Y-32.0866
G01 X32.9901 Y-32.1032
G01 X32.8060 Y-32.1525
G01 X32.6333 Y-32.2331
G01 X32.4772 Y-32.3424
G01 X32.3504 Y-32.4681
G01 X32.2018 Y-32.5733
G01 X32.0105 Y-32.6354
G01 X31.8476 Y-32.6384
G01 X31.7784 Y-32.6284
G01 X31.6070 Y-32.5672
G01 X31.4696 Y-32.4681
G01 X31.3428 Y-32.3424
G01 X31.1867 Y-32.2331
G01 X31.0140 Y-32.1525
G01 X30.8299 Y-32.1032
G01 X30.6400 Y-32.0866
G01 X30.4501 Y-32.1032
G01 X30.2660 Y-32.1525
G01 X30.0933 Y-32.2331
G01 X29.9372 Y-32.3424
G01 X29.8024 Y-32.4772
G01 X29.6931 Y-32.6333
G01 X29.6125 Y-32.8060
G01 X29.5632 Y-32.9901
G01 X29.5466 Y-33.1800
G01 X29.5632 Y-33.3699
G01 X29.6125 Y-33.5540
G01 X29.6931 Y-33.7267
G01 X29.8024 Y-33.8828
G01 X29.9372 Y-34.0176
G01 X30.0933 Y-34.1269
G01 X30.2660 Y-34.2075
G01 X30.4501 Y-34.2568
G01 X30.6400 Y-34.2734
G01 X30.8299 Y-34.2568
G01 X31.0140 Y-34.2075
G01 X31.1867 Y-34.1269
G01 X31.3428 Y-34.0176
G01 X31.4624 Y-33.8983
G00 Z2.0000
G00 X29.5844 Y-32.9700
G01 F60.00
G01 Z-0.0500
G01 F60.00
G01 X29.5689 Y-33.0745
G01 X29.5638 Y-33.1800
G01 X29.5689 Y-33.2855
G01 X29.5844 Y-33.3900
G01 X29.6101 Y-33.4924
G01 X29.6457 Y-33.5919
G01 X29.6908 Y-33.6873
G01 X29.7451 Y-33.7779
G01 X29.8080 Y-33.8628
G01 X29.8790 Y-33.9410
G01 X29.9572 Y-34.0120
G01 X30.0421 Y-34.0749
G01 X30.1327 Y-34.1292
G01 X30.2281 Y-34.1743
G01 X30.3276 Y-34.2099
G01 X30.4300 Y-34.2356
G01 X30.5345 Y-34.2511
G01 X30.6400 Y-34.2562
G01 X30.7455 Y-34.2511
G01 X30.8500 Y-34.2356
G01 X30.9524 Y-34.2099
G01 X31.0519 Y-34.1743
G01 X31.1473 Y-34.1292
G01 X31.2379 Y-34.0749
G01 X31.3228 Y-34.0120
G01 X31.4010 Y-33.9410
G01 X31.4720 Y-33.8628
G01 X31.5349 Y-33.7779
G01 X31.5892 Y-33.6873
G01 X31.6343 Y-33.5919
G01 X31.6699 Y-33.4924
G01 X31.6956 Y-33.3900
G01 X31.7111 Y-33.2855
G01 X31.7162 Y-33.1800
G01 X31.7111 Y-33.0745
G01 X31.6956 Y-32.9700
G01 X31.6699 Y-32.8676
G01 X31.6343 Y-32.7681
G01 X31.5892 Y-32.6727
G01 X31.5349 Y-32.5821
G01 X31.4720 Y-32.4972
G01 X31.4010 Y-32.4190
G01 X31.3228 Y-32.3480
G01 X31.2379 Y-32.2851
G01 X31.1473 Y-32.2308
G01 X31.0519 Y-32.1857
G01 X30.9524 Y-32.1501
G01 X30.8500 Y-32.1244
G01 X30.7455 Y-32.1089
G01 X30.6400 Y-32.1038
G01 X30.5345 Y-32.1089
G01 X30.4300 Y-32.1244
G01 X30.3276 Y-32.1501
G01 X30.2281 Y-32.1857
G01 X30.1327 Y-32.2308
G01 X30.0421 Y-32.2851
G01 X29.9572 Y-32.3480
G01 X29.8790 Y-32.4190
G01 X29.8080 Y-32.4972
G01 X29.7451 Y-32.5821
G01 X29.6908 Y-32.6727
G01 X29.6457 Y-32.7681
G01 X29.6101 Y-32.8676
G01 X29.5844 Y-32.9700
G00 Z2.0000
G00 X7.2749 Y-23.4191
G01 F60.00
G01 Z-0.0500
G01 F60.00
G01 X9.8647 Y-26.0153
G01 X9.9622 Y-26.0954
G01 X10.0736 Y-26.1549
G01 X10.1944 Y-26.1916
G01 X10.3200 Y-26.2040
G01 X10.4456 Y-26.1916
G01 X10.5664 Y-26.1549
G01 X10.6778 Y-26.0954
G01 X10.7753 Y-26.0153
G01 X10.8554 Y-25.9178
G01 X10.9101 Y-25.8174
G01 X10.9362 Y-25.7469
G01 X10.9594 Y-25.6350
G01 X10.9637 Y-25.5480
G01 X10.9536 Y-25.4462
G01 X10.9325 Y-25.3617
G01 X10.8879 Y-25.2564
G01 X10.8251 Y-25.1609
G01 X8.4240 Y-22.7533
G01 X8.4240 Y-21.5737
G01 X8.6420 Y-21.5735
G01 X8.7342 Y-21.5503
G01 X8.7937 Y-21.5106
G01 X8.8258 Y-21.4752
G01 X8.8595 Y-21.4121
G01 X8.8735 Y-21.3420
G01 X8.8735 Y-19.6180
G01 X8.8595 Y-19.5479
G01 X8.8258 Y-19.4848
G01 X8.7752 Y-19.4342
G01 X8.7121 Y-19.4005
G01 X8.6300 Y-19.3863
G01 X6.9180 Y-19.3865
G01 X6.8479 Y-19.4005
G01 X6.7848 Y-19.4342
G01 X6.7342 Y-19.4848
G01 X6.7005 Y-19.5479
G01 X6.6863 Y-19.6300
G01 X6.6889 Y-21.3658
G01 X6.7097 Y-21.4342
G01 X6.7342 Y-21.4752
G01 X6.7663 Y-21.5106
G01 X6.8258 Y-21.5503
G01 X6.9180 Y-21.5735
G01 X7.1360 Y-21.5737
G01 X7.1392 Y-23.0831
G01 X7.1606 Y-23.1954
G01 X7.1851 Y-23.2664
G01 X7.2180 Y-23.3340
G01 X7.2749 Y-23.4191
G00 Z2.0000
G00 X6.6750 Y-21.3810
G01 F60.00
G01 Z-0.0500
G01 F60.00
G01 X6.7023 Y-21.4543
G01 X6.7466 Y-21.5134
G01 X6.8776 Y-21.6109
G01 X7.0005 Y-21.7375
G01 X7.0954 Y-21.9289
G01 X7.1232 Y-22.1105
G01 X7.1199 Y-22.9726
G01 X7.1284 Y-23.1361
G01 X7.1685 Y-23.2733
G01 X7.2345 Y-23.3949
G01 X7.3467 Y-23.5203
G01 X9.8781 Y-26.0507
G01 X9.9741 Y-26.1244
G01 X10.0948 Y-26.1823
G01 X10.2291 Y-26.2156
G01 X10.3719 Y-26.2199
G01 X10.5036 Y-26.1959
G01 X10.6358 Y-26.1417
G01 X10.7464 Y-26.0662
G01 X10.9174 Y-25.8819
G01 X11.0830 Y-25.7705
G01 X11.2763 Y-25.7151
G01 X11.4773 Y-25.7221
G01 X11.6662 Y-25.7909
G01 X11.8157 Y-25.9056
G01 X12.0474 Y-26.2419
G01 X12.1940 Y-26.3896
G01 X12.2865 Y-26.5161
G01 X12.3118 Y-26.5675
G01 X12.3614 Y-26.7295
G01 X12.3643 Y-26.8988
G01 X12.3543 Y-26.9616
G01 X12.3096 Y-27.0985
G01 X12.2829 Y-27.1492
G01 X12.1940 Y-27.2704
G01 X12.0474 Y-27.4181
G01 X11.9413 Y-27.5696
G01 X11.8632 Y-27.7372
G01 X11.8153 Y-27.9158
G01 X11.7992 Y-28.1000
G01 X11.8153 Y-28.2842
G01 X11.8632 Y-28.4628
G01 X11.9413 Y-28.6304
G01 X12.0474 Y-28.7819
G01 X12.2001 Y-28.9370
G01 X12.3047 Y-29.0897
G01 X12.3614 Y-29.2695
G01 X12.3630 Y-29.4579
G01 X12.3525 Y-29.5077
G01 X12.2931 Y-29.6730
G01 X12.1940 Y-29.8104
G01 X12.0474 Y-29.9581
G01 X11.9413 Y-30.1096
G01 X11.8632 Y-30.2772
G01 X11.8153 Y-30.4558
G01 X11.7992 Y-30.6400
G01 X11.8153 Y-30.8242
G01 X11.8632 Y-31.0028
G01 X11.9413 Y-31.1704
G01 X12.0474 Y-31.3219
G01 X12.1781 Y-31.4526
G01 X12.3296 Y-31.5587
G01 X12.4972 Y-31.6368
G01 X12.6758 Y-31.6847
G01 X12.8600 Y-31.7008
G01 X13.0442 Y-31.6847
G01 X13.2228 Y-31.6368
G01 X13.3904 Y-31.5587
G01 X13.5419 Y-31.4526
G01 X13.6726 Y-31.3219
G01 X13.7787 Y-31.1704
G01 X13.8568 Y-31.0028
G01 X13.9047 Y-30.8242
G01 X13.9208 Y-30.6400
G01 X13.9047 Y-30.4558
G01 X13.8568 Y-30.2772
G01 X13.7787 Y-30.1096
G01 X13.6726 Y-29.9581
G01 X13.5260 Y-29.8104
G01 X13.4335 Y-29.6839
G01 X13.4104 Y-29.6385
G01 X13.3676 Y-29.5077
G01 X13.3557 Y-29.4388
G01 X13.3586 Y-29.2695
G01 X13.4208 Y-29.0782
G01 X13.5260 Y-28.9296
G01 X13.6726 Y-28.7819
G01 X13.7787 Y-28.6304
G01 X13.8568 Y-28.4628
G01 X13.9047 Y-28.2842
G01 X13.9208 Y-28.1000
G01 X13.9047 Y-27.9158
G01 X13.8568 Y-27.7372
G01 X13.7787 Y-27.5696
G01 X13.6726 Y-27.4181
G01 X13.5260 Y-27.2704
G01 X13.4335 Y-27.1439
G01 X13.4061 Y-27.0865
G01 X13.3639 Y-26.9555
G01 X13.3560 Y-26.9052
G01 X13.3586 Y-26.7295
G01 X13.4153 Y-26.5497
G01 X13.5199 Y-26.3970
G01 X13.6726 Y-26.2419
G01 X13.7787 Y-26.0904
G01 X13.8568 Y-25.9228
G01 X13.9047 Y-25.7442
G01 X13.9208 Y-25.5600
G01 X13.9047 Y-25.3758
G01 X13.8568 Y-25.1972
G01 X13.7787 Y-25.0296
G01 X13.6726 Y-24.8781
G01 X13.5256 Y-24.7301
G01 X13.4265 Y-24.5927
G01 X13.3672 Y-24.4274
G01 X13.3566 Y-24.3775
G01 X13.3583 Y-24.1891
G01 X13.4204 Y-23.9978
G01 X13.5256 Y-23.8492
G01 X13.6722 Y-23.7015
G01 X13.6987 Y-23.6638
G01 X13.6808 Y-23.6638
G01 X13.5980 Y-23.7580
G01 X13.5221 Y-23.8268
G01 X13.4399 Y-23.8878
G01 X13.3413 Y-23.9459
G01 X13.1743 Y-24.0151
G01 X13.0753 Y-24.0411
G01 X12.9623 Y-24.0587
G01 X12.8600 Y-24.0637
G01 X12.7577 Y-24.0587
G01 X12.6447 Y-24.0411
G01 X12.5457 Y-24.0151
G01 X12.3787 Y-23.9459
G01 X12.2801 Y-23.8878
G01 X12.1979 Y-23.8268
G01 X12.1220 Y-23.7580
G01 X12.0392 Y-23.6637
G01 X12.0213 Y-23.6637
G01 X12.0478 Y-23.7015
G01 X12.2005 Y-23.8566
G01 X12.2868 Y-23.9757
G01 X12.3100 Y-24.0212
G01 X12.3528 Y-24.1519
G01 X12.3644 Y-24.2145
G01 X12.3617 Y-24.3902
G01 X12.2996 Y-24.5814
G01 X12.2005 Y-24.7227
G01 X12.0474 Y-24.8781
G01 X11.9413 Y-25.0296
G01 X11.8970 Y-25.1102
G01 X11.8027 Y-25.2266
G01 X11.7649 Y-25.2607
G01 X11.6160 Y-25.3542
G01 X11.4470 Y-25.4022
G01 X11.3963 Y-25.4075
G01 X11.2589 Y-25.4007
G01 X11.1963 Y-25.3891
G01 X11.0332 Y-25.3236
G01 X10.8835 Y-25.2040
G01 X10.7533 Y-25.0597
G01 X8.6250 Y-22.9362
G01 X8.5714 Y-22.8746
G01 X8.4828 Y-22.7157
G01 X8.4593 Y-22.6432
G01 X8.4369 Y-22.4913
G01 X8.4368 Y-22.1153
G01 X8.4465 Y-22.0085
G01 X8.4890 Y-21.8635
G01 X8.5109 Y-21.8175
G01 X8.6122 Y-21.6739
G01 X8.8134 Y-21.5134
G01 X8.8577 Y-21.4543
G01 X8.8850 Y-21.3810
G01 X8.8868 Y-19.5952
G01 X8.8314 Y-19.4327
G01 X8.8030 Y-19.2650
G01 X8.8030 Y-19.2140
G01 X8.8265 Y-19.0655
G01 X8.8477 Y-19.0055
G01 X8.9105 Y-18.8831
G01 X8.9404 Y-18.8419
G01 X9.0666 Y-18.7195
G01 X9.2219 Y-18.6374
G01 X9.2704 Y-18.6216
G01 X9.4348 Y-18.5969
G01 X10.3890 Y-18.5968
G01 X10.4573 Y-18.5859
G01 X10.5886 Y-18.5433
G01 X10.7082 Y-18.4743
G01 X10.8107 Y-18.3819
G01 X10.9174 Y-18.2619
G01 X11.0830 Y-18.1505
G01 X11.2763 Y-18.0951
G01 X11.4392 Y-18.0978
G01 X11.5020 Y-18.1083
G01 X11.6662 Y-18.1709
G01 X11.8247 Y-18.2947
G01 X12.0474 Y-18.6219
G01 X12.1880 Y-18.7628
G01 X12.2868 Y-18.8965
G01 X12.3100 Y-18.9419
G01 X12.3528 Y-19.0726
G01 X12.3644 Y-19.1352
G01 X12.3617 Y-19.3109
G01 X12.3100 Y-19.4788
G01 X12.2868 Y-19.5243
G01 X12.2005 Y-19.6434
G01 X12.0478 Y-19.7985
G01 X12.0213 Y-19.8363
G01 X12.0392 Y-19.8363
G01 X12.1220 Y-19.7420
G01 X12.1979 Y-19.6732
G01 X12.2801 Y-19.6122
G01 X12.3787 Y-19.5541
G01 X12.4717 Y-19.5114
G01 X12.6447 Y-19.4589
G01 X12.7577 Y-19.4413
G01 X12.8600 Y-19.4363
G01 X12.9623 Y-19.4413
G01 X13.0753 Y-19.4589
G01 X13.2483 Y-19.5114
G01 X13.3413 Y-19.5541
G01 X13.4399 Y-19.6122
G01 X13.5221 Y-19.6732
G01 X13.5980 Y-19.7420
G01 X13.6808 Y-19.8362
G01 X13.6987 Y-19.8362
G01 X13.6722 Y-19.7985
G01 X13.5256 Y-19.6508
G01 X13.4204 Y-19.5022
G01 X13.3583 Y-19.3109
G01 X13.3566 Y-19.1225
G01 X13.3672 Y-19.0726
G01 X13.4265 Y-18.9073
G01 X13.5256 Y-18.7699
G01 X13.6729 Y-18.6214
G01 X13.7787 Y-18.4704
G01 X13.8568 Y-18.3028
G01 X13.9047 Y-18.1242
G01 X13.9208 Y-17.9400
G01 X13.9047 Y-17.7558
G01 X13.8568 Y-17.5772
G01 X13.7787 Y-17.4096
G01 X13.6726 Y-17.2581
G01 X13.5199 Y-17.1030
G01 X13.4153 Y-16.9503
G01 X13.3586 Y-16.7705
G01 X13.3560 Y-16.5948
G01 X13.3639 Y-16.5445
G01 X13.4061 Y-16.4135
G01 X13.4335 Y-16.3561
G01 X13.5260 Y-16.2296
G01 X13.6726 Y-16.0819
G01 X13.7787 Y-15.9304
G01 X13.8568 Y-15.7628
G01 X13.9047 Y-15.5842
G01 X13.9208 Y-15.4000
G01 X13.9047 Y-15.2158
G01 X13.8568 Y-15.0372
G01 X13.7787 Y-14.8696
G01 X13.6726 Y-14.7181
G01 X13.5260 Y-14.5704
G01 X13.4208 Y-14.4218
G01 X13.3586 Y-14.2305
G01 X13.3557 Y-14.0612
G01 X13.3675 Y-13.9923
G01 X13.4104 Y-13.8615
G01 X13.4335 Y-13.8161
G01 X13.5260 Y-13.6896
G01 X13.6726 Y-13.5419
G01 X13.7787 Y-13.3904
G01 X13.8568 Y-13.2228
G01 X13.9047 Y-13.0442
G01 X13.9208 Y-12.8600
G01 X13.9047 Y-12.6758
G01 X13.8568 Y-12.4972
G01 X13.7787 Y-12.3296
G01 X13.6726 Y-12.1781
G01 X13.5419 Y-12.0474
G01 X13.3904 Y-11.9413
G01 X13.2228 Y-11.8632
G01 X13.0442 Y-11.8153
G01 X12.8600 Y-11.7992
G01 X12.6758 Y-11.8153
G01 X12.4972 Y-11.8632
G01 X12.3296 Y-11.9413
G01 X12.1781 Y-12.0474
G01 X12.0474 Y-12.1781
G01 X11.9413 Y-12.3296
G01 X11.8632 Y-12.4972
G01 X11.8153 Y-12.6758
G01 X11.7992 Y-12.8600
G01 X11.8153 Y-13.0442
G01 X11.8632 Y-13.2228
G01 X11.9413 Y-13.3904
G01 X12.0474 Y-13.5419
G01 X12.1940 Y-13.6896
G01 X12.2992 Y-13.8382
G01 X12.3614 Y-14.0294
G01 X12.3643 Y-14.1988
G01 X12.3543 Y-14.2616
G01 X12.2931 Y-14.4330
G01 X12.1940 Y-14.5704
G01 X12.0474 Y-14.7181
G01 X11.9413 Y-14.8696
G01 X11.8632 Y-15.0372
G01 X11.8153 Y-15.2158
G01 X11.7992 Y-15.4000
G01 X11.8153 Y-15.5842
G01 X11.8632 Y-15.7628
G01 X11.9413 Y-15.9304
G01 X12.0474 Y-16.0819
G01 X12.2001 Y-16.2370
G01 X12.3047 Y-16.3897
G01 X12.3614 Y-16.5695
G01 X12.3643 Y-16.7388
G01 X12.3525 Y-16.8077
G01 X12.3096 Y-16.9385
G01 X12.2865 Y-16.9839
G01 X12.1940 Y-17.1104
G01 X12.0474 Y-17.2581
G01 X11.9413 Y-17.4096
G01 X11.8970 Y-17.4902
G01 X11.7750 Y-17.6329
G01 X11.6160 Y-17.7342
G01 X11.4594 Y-17.7792
G01 X11.3899 Y-17.7875
G01 X11.2209 Y-17.7757
G01 X11.0223 Y-17.6969
G01 X10.8903 Y-17.5908
G01 X10.8108 Y-17.4981
G01 X10.7082 Y-17.4057
G01 X10.5886 Y-17.3367
G01 X10.5241 Y-17.3120
G01 X10.3890 Y-17.2833
G01 X8.9547 Y-17.2833
G01 X8.8447 Y-17.2737
G01 X8.6516 Y-17.2071
G01 X8.3355 Y-16.9779
G01 X8.1600 Y-16.8960
G01 X7.9729 Y-16.8459
G01 X7.7800 Y-16.8290
G01 X7.5871 Y-16.8459
G01 X7.4000 Y-16.8960
G01 X7.2245 Y-16.9779
G01 X7.0659 Y-17.0889
G01 X6.9289 Y-17.2259
G01 X6.8179 Y-17.3845
G01 X6.7360 Y-17.5600
G01 X6.6859 Y-17.7471
G01 X6.6690 Y-17.9400
G01 X6.6859 Y-18.1329
G01 X6.7360 Y-18.3200
G01 X6.8179 Y-18.4955
G01 X6.8825 Y-18.5889
G01 X6.9515 Y-18.7262
G01 X6.9893 Y-18.9339
G01 X6.9681 Y-19.1019
G01 X6.9466 Y-19.1685
G01 X6.8790 Y-19.3028
G01 X6.7488 Y-19.4437
G01 X6.7023 Y-19.5057
G01 X6.6750 Y-19.5790
G01 X6.6750 Y-21.3810
G00 Z2.0000
G00 X8.5534 Y-18.7134
G01 F60.00
G01 Z-0.0500
G01 F60.00
G01 X8.6625 Y-18.5844
G01 X10.3260 Y-18.5839
G01 X10.4456 Y-18.5716
G01 X10.5664 Y-18.5349
G01 X10.6778 Y-18.4754
G01 X10.7753 Y-18.3953
G01 X10.8554 Y-18.2978
G01 X10.9149 Y-18.1864
G01 X10.9516 Y-18.0656
G01 X10.9640 Y-17.9400
G01 X10.9516 Y-17.8144
G01 X10.9149 Y-17.6936
G01 X10.8485 Y-17.5725
G01 X10.8100 Y-17.5224
G01 X10.7376 Y-17.4500
G01 X10.6236 Y-17.3721
G01 X10.5069 Y-17.3238
G01 X10.4338 Y-17.3064
G01 X10.3260 Y-17.2961
G01 X8.6629 Y-17.2960
G01 X8.5616 Y-17.1753
G01 X8.4829 Y-17.1023
G01 X8.3877 Y-17.0306
G01 X8.3060 Y-16.9813
G01 X8.1986 Y-16.9295
G01 X8.0975 Y-16.8933
G01 X7.8991 Y-16.8530
G01 X7.7800 Y-16.8463
G01 X7.6728 Y-16.8515
G01 X7.5666 Y-16.8673
G01 X7.4511 Y-16.8971
G01 X7.3505 Y-16.9344
G01 X7.1825 Y-17.0242
G01 X7.0861 Y-17.0945
G01 X7.0066 Y-17.1666
G01 X6.9345 Y-17.2461
G01 X6.8706 Y-17.3323
G01 X6.8154 Y-17.4244
G01 X6.7695 Y-17.5214
G01 X6.7333 Y-17.6225
G01 X6.7073 Y-17.7266
G01 X6.6915 Y-17.8328
G01 X6.6863 Y-17.9400
G01 X6.6915 Y-18.0472
G01 X6.7073 Y-18.1534
G01 X6.7333 Y-18.2575
G01 X6.7695 Y-18.3586
G01 X6.8154 Y-18.4556
G01 X6.8706 Y-18.5477
G01 X6.9345 Y-18.6339
G01 X7.0066 Y-18.7134
G01 X7.0861 Y-18.7855
G01 X7.1723 Y-18.8494
G01 X7.2644 Y-18.9046
G01 X7.3614 Y-18.9505
G01 X7.4625 Y-18.9867
G01 X7.5666 Y-19.0127
G01 X7.6728 Y-19.0285
G01 X7.7800 Y-19.0337
G01 X7.8872 Y-19.0285
G01 X7.9934 Y-19.0127
G01 X8.0975 Y-18.9867
G01 X8.1986 Y-18.9505
G01 X8.2956 Y-18.9046
G01 X8.3877 Y-18.8494
G01 X8.4739 Y-18.7855
G01 X8.5534 Y-18.7134
G00 Z2.0000
G00 X3.7330 Y-38.3722
G01 F60.00
G01 Z-0.0500
G01 F60.00
G01 X3.7669 Y-38.5962
G01 X3.8335 Y-38.8120
G01 X3.9315 Y-39.0155
G01 X4.0587 Y-39.2021
G01 X4.2123 Y-39.3676
G01 X4.3888 Y-39.5084
G01 X4.5844 Y-39.6213
G01 X4.7946 Y-39.7038
G01 X5.0148 Y-39.7541
G01 X5.1159 Y-39.7627
G01 X5.2457 Y-39.7901
G01 X5.3668 Y-39.7622
G01 X5.4652 Y-39.7541
G01 X5.6854 Y-39.7038
G01 X5.8956 Y-39.6213
G01 X6.0912 Y-39.5084
G01 X6.2677 Y-39.3676
G01 X6.4213 Y-39.2021
G01 X6.5485 Y-39.0155
G01 X6.6465 Y-38.8120
G01 X6.7131 Y-38.5962
G01 X6.7467 Y-38.3729
G01 X6.7467 Y-38.1471
G01 X6.7131 Y-37.9238
G01 X6.6465 Y-37.7080
G01 X6.5485 Y-37.5045
G01 X6.4213 Y-37.3179
G01 X6.2677 Y-37.1524
G01 X6.0912 Y-37.0116
G01 X5.8956 Y-36.8987
G01 X5.6854 Y-36.8162
G01 X5.4652 Y-36.7659
G01 X5.2964 Y-36.7533
G01 X5.1836 Y-36.7533
G01 X5.0148 Y-36.7659
G01 X4.7946 Y-36.8162
G01 X4.5844 Y-36.8987
G01 X4.3888 Y-37.0116
G01 X4.2123 Y-37.1524
G01 X4.0587 Y-37.3179
G01 X3.9315 Y-37.5045
G01 X3.8335 Y-37.7080
G01 X3.7669 Y-37.9238
G01 X3.7329 Y-38.1482
G01 X3.7009 Y-38.2654
G01 X3.7330 Y-38.3722
G00 Z2.0000
G00 X2.4811 Y-38.2165
G01 F60.00
G01 Z-0.0500
G01 F60.00
G01 X2.4972 Y-38.2658
G01 X2.4666 Y-38.3632
G01 X2.4562 Y-38.4775
G01 X2.4563 Y-40.4058
G01 X2.4811 Y-40.5750
G01 X2.4995 Y-40.6292
G01 X2.5718 Y-40.7683
G01 X2.7111 Y-40.9132
