(G-code generated by FlatCAM Evo vUnstable - Version Date: 2022/4/31)

(Name: bot_pcb_2-NPTH.drl_cnc)
(Type: G-code from Excellon)
(Units: MM)

(Created on Sunday, 15 October 2023 at 18:09)

(This preprocessor is the default preprocessor.)
(It is made to work with MACH3 compatible motion controllers.)


(TOOLS DIAMETER: )
(Tool: 1 -> Dia: 3.0)

(FEEDRATE Z: )
(Tool: 1 -> Feedrate: 150.0)

(FEEDRATE RAPIDS: )
(Tool: 1 -> Feedrate Rapids: 1500)

(Z_CUT: )
(Tool: 1 -> Z_Cut: -10.0)

(Tools Offset: )
(Tool: 1 -> Offset Z: 0.0)

(Z_MOVE: )
(Tool: 1 -> Z_Move: 2.0)

(Z Start: None mm)
(Z End: 15 mm)
(X,Y End: None mm)
(Steps per circle: 16)
(Preprocessor Excellon: default)

(X range:    3.7400 ...   55.0000  mm)
(Y range:  -39.7600 ...   -3.7400  mm)

(Spindle Speed: 12000 RPM)
G21
G90
G94

G01 F150.00
G00 Z2.0000

M03 S12000
G00 X5.2400 Y-5.2400
G01 Z-10.0000
G01 Z0
G00 Z2.0000
G00 X5.2400 Y-38.2600
G01 Z-10.0000
G01 Z0
G00 Z2.0000
G00 X53.5000 Y-38.2600
G01 Z-10.0000
G01 Z0
G00 Z2.0000
G00 X53.5000 Y-5.2400
G01 Z-10.0000
G01 Z0
G00 Z2.0000
M05
G00 Z15.00


