(G-code generated by FlatCAM Evo vUnstable - Version Date: 2022/4/31)

(Name: bot_pcb_2-F_Cu.gbr_iso_combined_cnc)
(Type: G-code from Geometry)
(Units: MM)

(Created on Sunday, 15 October 2023 at 18:10)

(This preprocessor is the default preprocessor.)
(It is made to work with MACH3 compatible motion controllers.)

(TOOL DIAMETER: 0.4875 mm)
(Feedrate_XY: 60.0 mm/min)
(Feedrate_Z: 60.0 mm/min)
(Feedrate rapids 1500.0 mm/min)

(Z_Cut: -0.05 mm)
(Z_Move: 2.0 mm)
(Z Start: None mm)
(Z End: 15.0 mm)
(X,Y End: None mm)
(Steps per circle: 16)
(Preprocessor Geometry: default)

(X range:    2.4562 ...   56.2838  mm)
(Y range:  -41.0438 ...   -2.4562  mm)

(Spindle Speed: 12000.0 RPM)
G21
G90
G94

G01 F60.00
G00 Z2.0000

M03 S12000.0
G01 F60.00
G00 X2.4585 Y-5.4244
G01 F60.00
G01 Z-0.0500
G01 F60.00
G01 X2.4562 Y-38.0425
G01 X2.4666 Y-38.1569
G01 X2.4972 Y-38.2542
G01 X2.4799 Y-38.3096
G01 X2.4563 Y-38.4728
G01 X2.4562 Y-40.4010
G01 X2.4876 Y-40.5993
G01 X2.5590 Y-40.7462
G01 X2.5993 Y-40.8032
G01 X2.7314 Y-40.9280
G01 X2.9007 Y-41.0124
G01 X3.0990 Y-41.0438
G01 X5.0461 Y-41.0438
G01 X5.1804 Y-41.0291
G01 X5.2367 Y-41.0127
G01 X5.4339 Y-41.0438
G01 X53.3061 Y-41.0438
G01 X53.4404 Y-41.0291
G01 X53.4967 Y-41.0127
G01 X53.6892 Y-41.0437
G01 X55.6410 Y-41.0438
G01 X55.8393 Y-41.0124
G01 X55.9862 Y-40.9410
G01 X56.0432 Y-40.9007
G01 X56.1680 Y-40.7686
G01 X56.2524 Y-40.5993
G01 X56.2838 Y-40.4010
G01 X56.2837 Y-38.4730
G01 X56.2734 Y-38.3631
G01 X56.2428 Y-38.2658
G01 X56.2601 Y-38.2104
G01 X56.2838 Y-38.0425
G01 X56.2838 Y-5.4575
G01 X56.2734 Y-5.3431
G01 X56.2428 Y-5.2458
G01 X56.2601 Y-5.1904
G01 X56.2837 Y-5.0272
G01 X56.2838 Y-3.0990
G01 X56.2524 Y-2.9007
G01 X56.1810 Y-2.7538
G01 X56.1407 Y-2.6968
G01 X56.0086 Y-2.5720
G01 X55.8393 Y-2.4876
G01 X55.6457 Y-2.4563
G01 X53.6939 Y-2.4562
G01 X53.5596 Y-2.4709
G01 X53.5033 Y-2.4873
G01 X53.3061 Y-2.4562
G01 X47.9888 Y-2.4563
G01 X47.8442 Y-2.4745
G01 X47.6620 Y-2.5492
G01 X47.5166 Y-2.6692
G01 X47.4025 Y-2.8493
G01 X47.3553 Y-3.0317
G01 X47.3659 Y-3.2329
G01 X47.4374 Y-3.4194
G01 X47.5462 Y-3.5583
G01 X47.5887 Y-3.5959
G01 X47.7041 Y-3.6708
G01 X47.8510 Y-3.7505
G01 X47.9764 Y-3.8628
G01 X53.9333 Y-9.8197
G01 X54.0480 Y-9.9489
G01 X54.1115 Y-10.0667
G01 X54.1499 Y-10.1949
G01 X54.1601 Y-10.3674
G01 X54.1601 Y-25.5126
G01 X54.1516 Y-25.6761
G01 X54.1115 Y-25.8133
G01 X54.0480 Y-25.9311
G01 X53.9333 Y-26.0603
G01 X51.4603 Y-28.5333
G01 X51.3349 Y-28.6455
G01 X51.2133 Y-28.7115
G01 X51.0806 Y-28.7509
G01 X50.9126 Y-28.7601
G01 X47.0287 Y-28.7572
G01 X46.9185 Y-28.7697
G01 X46.7627 Y-28.8213
G01 X46.5885 Y-28.9450
G01 X46.4708 Y-29.1066
G01 X46.4170 Y-29.2618
G01 X46.4052 Y-29.3313
G01 X46.4106 Y-29.5133
G01 X46.4575 Y-29.6614
G01 X46.4829 Y-29.7132
G01 X46.5757 Y-29.8402
G01 X46.6926 Y-29.9581
G01 X46.7987 Y-30.1096
G01 X46.8768 Y-30.2772
G01 X46.9247 Y-30.4558
G01 X46.9408 Y-30.6400
G01 X46.9247 Y-30.8242
G01 X46.8768 Y-31.0028
G01 X46.7987 Y-31.1704
G01 X46.6425 Y-31.3921
G01 X46.5776 Y-31.5201
G01 X46.5593 Y-31.5816
G01 X46.5368 Y-31.7383
G01 X46.5401 Y-33.1326
G01 X46.5309 Y-33.3006
G01 X46.4915 Y-33.4333
G01 X46.4255 Y-33.5549
G01 X46.3133 Y-33.6803
G01 X43.7819 Y-36.2107
G01 X43.6859 Y-36.2844
G01 X43.5652 Y-36.3423
G01 X43.4219 Y-36.3767
G01 X43.2835 Y-36.3794
G01 X43.1520 Y-36.3547
G01 X43.0282 Y-36.3038
G01 X42.9101 Y-36.2233
G01 X42.8148 Y-36.1230
G01 X42.7407 Y-36.0008
G01 X42.6963 Y-35.8745
G01 X42.6785 Y-35.7419
G01 X42.6891 Y-35.5994
G01 X42.7303 Y-35.4625
G01 X42.7972 Y-35.3414
G01 X42.9067 Y-35.2197
G01 X45.0453 Y-33.0852
G01 X45.1134 Y-32.9998
G01 X45.1824 Y-32.8647
G01 X45.1983 Y-32.8159
G01 X45.2210 Y-32.6748
G01 X45.2233 Y-31.7430
G01 X45.2173 Y-31.6660
G01 X45.1853 Y-31.5284
G01 X45.1656 Y-31.4789
G01 X45.0904 Y-31.3535
G01 X44.9613 Y-31.1704
G01 X44.8832 Y-31.0028
G01 X44.8353 Y-30.8242
G01 X44.8192 Y-30.6400
G01 X44.8353 Y-30.4558
G01 X44.8832 Y-30.2772
G01 X44.9613 Y-30.1096
G01 X45.0674 Y-29.9581
G01 X45.2138 Y-29.8108
G01 X45.3066 Y-29.6837
G01 X45.3301 Y-29.6372
G01 X45.3724 Y-29.5077
G01 X45.3843 Y-29.4382
G01 X45.3811 Y-29.2679
G01 X45.3187 Y-29.0771
G01 X45.2138 Y-28.9292
G01 X45.0666 Y-28.7807
G01 X44.9613 Y-28.6304
G01 X44.8832 Y-28.4628
G01 X44.8353 Y-28.2842
G01 X44.8192 Y-28.1000
G01 X44.8353 Y-27.9158
G01 X44.8832 Y-27.7372
G01 X44.9613 Y-27.5696
G01 X45.0674 Y-27.4181
G01 X45.2138 Y-27.2707
G01 X45.3066 Y-27.1437
G01 X45.3301 Y-27.0972
G01 X45.3725 Y-26.9677
G01 X45.3841 Y-26.9040
G01 X45.3811 Y-26.7279
G01 X45.3247 Y-26.5497
G01 X45.2187 Y-26.3952
G01 X45.0671 Y-26.2414
G01 X44.9613 Y-26.0904
G01 X44.8832 Y-25.9228
G01 X44.8353 Y-25.7442
G01 X44.8192 Y-25.5600
G01 X44.8353 Y-25.3758
G01 X44.8832 Y-25.1972
G01 X44.9613 Y-25.0296
G01 X45.0674 Y-24.8781
G01 X45.2141 Y-24.7304
G01 X45.3133 Y-24.5931
G01 X45.3342 Y-24.5461
G01 X45.3834 Y-24.3777
G01 X45.3815 Y-24.1875
G01 X45.3251 Y-24.0094
G01 X45.2191 Y-23.8549
G01 X45.0678 Y-23.7015
G01 X45.0413 Y-23.6638
G01 X45.0592 Y-23.6638
G01 X45.1420 Y-23.7580
G01 X45.2179 Y-23.8268
G01 X45.3001 Y-23.8878
G01 X45.3987 Y-23.9459
G01 X45.5657 Y-24.0151
G01 X45.6647 Y-24.0411
G01 X45.7777 Y-24.0587
G01 X45.8800 Y-24.0637
G01 X45.9823 Y-24.0587
G01 X46.0953 Y-24.0411
G01 X46.1943 Y-24.0151
G01 X46.3613 Y-23.9459
G01 X46.4599 Y-23.8878
G01 X46.5421 Y-23.8268
G01 X46.6180 Y-23.7580
G01 X46.7008 Y-23.6637
G01 X46.7187 Y-23.6637
G01 X46.6922 Y-23.7015
G01 X46.5748 Y-23.8201
G01 X46.5023 Y-23.9153
G01 X46.4310 Y-24.0619
G01 X46.3995 Y-24.2605
G01 X46.4244 Y-24.4345
G01 X46.4456 Y-24.4945
G01 X46.5223 Y-24.6383
G01 X46.6645 Y-24.7805
G01 X46.8436 Y-24.8718
G01 X47.0327 Y-24.9031
G01 X48.4890 Y-24.9032
G01 X48.5573 Y-24.9141
G01 X48.6886 Y-24.9567
G01 X48.8082 Y-25.0257
G01 X48.9107 Y-25.1181
G01 X48.9919 Y-25.2298
G01 X49.0480 Y-25.3559
G01 X49.0659 Y-25.4227
G01 X49.0804 Y-25.5600
G01 X49.0767 Y-25.6290
G01 X49.0480 Y-25.7641
G01 X49.0233 Y-25.8286
G01 X48.9543 Y-25.9482
G01 X48.9107 Y-26.0019
G01 X48.8082 Y-26.0943
G01 X48.6886 Y-26.1633
G01 X48.5815 Y-26.2070
G01 X48.4783 Y-26.2605
G01 X48.4166 Y-26.3053
G01 X48.3035 Y-26.4227
G01 X48.2268 Y-26.5665
G01 X48.2056 Y-26.6265
G01 X48.1807 Y-26.8005
G01 X48.2122 Y-26.9991
G01 X48.3035 Y-27.1783
G01 X48.4457 Y-27.3205
G01 X48.6248 Y-27.4118
G01 X48.8139 Y-27.4431
G01 X50.4217 Y-27.4432
G01 X50.5175 Y-27.4360
G01 X50.7135 Y-27.3732
G01 X50.8693 Y-27.2616
G01 X52.6616 Y-25.4693
G01 X52.7336 Y-25.3795
G01 X52.8026 Y-25.2442
G01 X52.8207 Y-25.1832
G01 X52.8432 Y-25.0217
G01 X52.8428 Y-22.1221
G01 X52.8027 Y-21.9198
G01 X52.7038 Y-21.7447
G01 X52.5557 Y-21.6087
G01 X52.4087 Y-21.5383
G01 X52.3479 Y-21.5196
G01 X52.1985 Y-21.5025
G01 X52.1476 Y-21.5046
G01 X52.0033 Y-21.5337
G01 X51.8448 Y-21.5867
G01 X50.0752 Y-21.5868
G01 X49.9857 Y-21.5577
G01 X49.9266 Y-21.5134
G01 X49.8823 Y-21.4543
G01 X49.8532 Y-21.3648
G01 X49.8532 Y-19.5952
G01 X49.8823 Y-19.5057
G01 X49.9291 Y-19.4433
G01 X50.0411 Y-19.3284
G01 X50.1248 Y-19.1760
G01 X50.1439 Y-19.1153
G01 X50.1675 Y-18.9798
G01 X50.1684 Y-18.9288
G01 X50.1475 Y-18.7799
G01 X50.1326 Y-18.7312
G01 X50.0663 Y-18.5954
G01 X49.9348 Y-18.3917
G01 X49.7970 Y-18.2555
G01 X49.6178 Y-18.1642
G01 X49.4192 Y-18.1328
G01 X49.2578 Y-18.1553
G01 X49.1968 Y-18.1734
G01 X49.0414 Y-18.2555
G01 X48.8619 Y-18.4307
G01 X48.7502 Y-18.5119
G01 X48.6886 Y-18.5433
G01 X48.5573 Y-18.5859
G01 X48.4890 Y-18.5968
G01 X47.0327 Y-18.5969
G01 X46.9183 Y-18.6096
G01 X46.7504 Y-18.6668
G01 X46.5878 Y-18.7850
G01 X46.4895 Y-18.9151
G01 X46.4549 Y-18.9830
G01 X46.4127 Y-19.1140
G01 X46.4047 Y-19.1643
G01 X46.4074 Y-19.3400
G01 X46.4696 Y-19.5313
G01 X46.5687 Y-19.6725
G01 X46.6922 Y-19.7985
G01 X46.7187 Y-19.8363
G01 X46.7008 Y-19.8363
G01 X46.6180 Y-19.7420
G01 X46.5421 Y-19.6732
G01 X46.4599 Y-19.6122
G01 X46.3613 Y-19.5541
G01 X46.2683 Y-19.5114
G01 X46.0953 Y-19.4589
G01 X45.9823 Y-19.4413
G01 X45.8800 Y-19.4363
G01 X45.7777 Y-19.4413
G01 X45.6647 Y-19.4589
G01 X45.4917 Y-19.5114
G01 X45.3987 Y-19.5541
G01 X45.3001 Y-19.6122
G01 X45.2179 Y-19.6732
G01 X45.1420 Y-19.7420
G01 X45.0592 Y-19.8362
G01 X45.0413 Y-19.8362
G01 X45.0678 Y-19.7985
G01 X45.2191 Y-19.6451
G01 X45.3251 Y-19.4906
G01 X45.3815 Y-19.3125
G01 X45.3834 Y-19.1223
G01 X45.3342 Y-18.9539
G01 X45.3133 Y-18.9069
G01 X45.2141 Y-18.7696
G01 X45.0671 Y-18.6214
G01 X44.9613 Y-18.4704
G01 X44.8832 Y-18.3028
G01 X44.8353 Y-18.1242
G01 X44.8192 Y-17.9400
G01 X44.8353 Y-17.7558
G01 X44.8832 Y-17.5772
G01 X44.9613 Y-17.4096
G01 X45.0674 Y-17.2581
G01 X45.2187 Y-17.1048
G01 X45.3247 Y-16.9503
G01 X45.3811 Y-16.7721
G01 X45.3841 Y-16.5960
G01 X45.3725 Y-16.5323
G01 X45.3301 Y-16.4028
G01 X45.3066 Y-16.3563
G01 X45.2138 Y-16.2292
G01 X45.0666 Y-16.0807
G01 X44.9613 Y-15.9304
G01 X44.8832 Y-15.7628
G01 X44.8353 Y-15.5842
G01 X44.8192 Y-15.4000
G01 X44.8353 Y-15.2158
G01 X44.8832 Y-15.0372
G01 X44.9613 Y-14.8696
G01 X45.0674 Y-14.7181
G01 X45.2138 Y-14.5707
G01 X45.3187 Y-14.4229
G01 X45.3811 Y-14.2321
G01 X45.3843 Y-14.0618
G01 X45.3725 Y-13.9923
G01 X45.3301 Y-13.8628
G01 X45.3066 Y-13.8163
G01 X45.2138 Y-13.6892
G01 X45.0674 Y-13.5419
G01 X44.9613 Y-13.3904
G01 X44.8832 Y-13.2228
G01 X44.8353 Y-13.0442
G01 X44.8192 Y-12.8600
G01 X44.8353 Y-12.6758
G01 X44.8832 Y-12.4972
G01 X44.9613 Y-12.3296
G01 X45.1175 Y-12.1079
G01 X45.1824 Y-11.9799
G01 X45.1996 Y-11.9248
G01 X45.2232 Y-11.7617
G01 X45.2233 Y-10.8583
G01 X45.2136 Y-10.7482
G01 X45.1526 Y-10.5653
G01 X45.0388 Y-10.4077
G01 X42.3723 Y-7.7411
G01 X42.3002 Y-7.6790
G01 X42.1161 Y-7.5842
G01 X41.9178 Y-7.5528
G01 X21.8975 Y-7.5529
G01 X21.7922 Y-7.5624
G01 X21.6350 Y-7.6120
G01 X21.5886 Y-7.6355
G01 X21.4674 Y-7.7234
G01 X21.3212 Y-7.8677
G01 X21.2630 Y-7.9358
G01 X21.1801 Y-8.0898
G01 X21.1617 Y-8.1441
G01 X21.1367 Y-8.3183
G01 X21.1368 Y-9.1158
G01 X21.1536 Y-9.2488
G01 X21.2131 Y-9.4145
G01 X21.3340 Y-9.5741
G01 X21.4866 Y-9.6832
G01 X21.6774 Y-9.7457
G01 X21.8816 Y-9.7457
G01 X22.0467 Y-9.6946
G01 X22.0932 Y-9.6712
G01 X22.2096 Y-9.5869
G01 X22.3172 Y-9.4824
G01 X22.4733 Y-9.3731
G01 X22.6460 Y-9.2925
G01 X22.8301 Y-9.2432
G01 X23.0200 Y-9.2266
G01 X23.2099 Y-9.2432
G01 X23.3940 Y-9.2925
G01 X23.5667 Y-9.3731
G01 X23.7228 Y-9.4824
G01 X23.8492 Y-9.6078
G01 X23.9866 Y-9.7069
G01 X24.1523 Y-9.7665
G01 X24.2160 Y-9.7781
G01 X24.3921 Y-9.7752
G01 X24.5829 Y-9.7127
G01 X24.7308 Y-9.6078
G01 X24.8572 Y-9.4824
G01 X25.0133 Y-9.3731
G01 X25.1860 Y-9.2925
G01 X25.3701 Y-9.2432
G01 X25.5600 Y-9.2266
G01 X25.7499 Y-9.2432
G01 X25.9340 Y-9.2925
G01 X26.1067 Y-9.3731
G01 X26.2628 Y-9.4824
G01 X26.3893 Y-9.6078
G01 X26.5266 Y-9.7069
G01 X26.5735 Y-9.7279
G01 X26.7419 Y-9.7771
G01 X26.9321 Y-9.7752
G01 X27.1103 Y-9.7188
G01 X27.2601 Y-9.6164
G01 X27.3972 Y-9.4824
G01 X27.5533 Y-9.3731
G01 X27.7260 Y-9.2925
G01 X27.9101 Y-9.2432
G01 X28.1000 Y-9.2266
G01 X28.2899 Y-9.2432
G01 X28.4740 Y-9.2925
G01 X28.6467 Y-9.3731
G01 X28.8028 Y-9.4824
G01 X28.9376 Y-9.6172
G01 X29.0469 Y-9.7733
G01 X29.1275 Y-9.9460
G01 X29.1768 Y-10.1301
G01 X29.1934 Y-10.3200
G01 X29.1768 Y-10.5099
G01 X29.1275 Y-10.6940
G01 X29.0469 Y-10.8667
G01 X28.9376 Y-11.0228
G01 X28.8028 Y-11.1576
G01 X28.6467 Y-11.2669
G01 X28.4740 Y-11.3475
G01 X28.2899 Y-11.3968
G01 X28.1000 Y-11.4134
G01 X27.9101 Y-11.3968
G01 X27.7260 Y-11.3475
G01 X27.5533 Y-11.2669
G01 X27.3972 Y-11.1576
G01 X27.2419 Y-11.0124
G01 X27.0880 Y-10.9296
G01 X27.0209 Y-10.9087
G01 X26.8851 Y-10.8875
G01 X26.8276 Y-10.8883
G01 X26.6853 Y-10.9111
G01 X26.6255 Y-10.9323
G01 X26.4802 Y-11.0100
G01 X26.3643 Y-11.1220
G01 X26.3251 Y-11.1735
G01 X26.2525 Y-11.3182
G01 X26.2175 Y-11.5102
G01 X26.2175 Y-12.3409
G01 X26.2315 Y-12.4529
G01 X26.2759 Y-12.5890
G01 X26.3030 Y-12.6408
G01 X26.4050 Y-12.7762
G01 X28.1877 Y-14.5588
G01 X28.2802 Y-14.6334
G01 X28.4153 Y-14.7024
G01 X28.4641 Y-14.7183
G01 X28.6383 Y-14.7433
G01 X32.7812 Y-14.7432
G01 X32.9748 Y-14.7119
G01 X33.1269 Y-14.6378
G01 X33.1739 Y-14.6047
G01 X33.2883 Y-14.4890
G01 X33.3835 Y-14.3112
G01 X33.4193 Y-14.1005
G01 X33.3879 Y-13.9022
G01 X33.2955 Y-13.7212
G01 X33.1739 Y-13.5963
G01 X33.1320 Y-13.5661
G01 X33.0313 Y-13.5131
G01 X32.8498 Y-13.4319
G01 X32.7918 Y-13.3943
G01 X32.6893 Y-13.3019
G01 X32.6081 Y-13.1902
G01 X32.5520 Y-13.0641
G01 X32.5341 Y-12.9973
G01 X32.5196 Y-12.8600
G01 X32.5341 Y-12.7227
G01 X32.5520 Y-12.6559
G01 X32.5767 Y-12.5914
G01 X32.6457 Y-12.4718
G01 X32.7381 Y-12.3692
G01 X32.7918 Y-12.3257
G01 X32.9114 Y-12.2567
G01 X33.0427 Y-12.2141
G01 X33.1110 Y-12.2033
G01 X37.2051 Y-12.2014
G01 X37.4103 Y-12.1510
G01 X37.5465 Y-12.0704
G01 X37.7296 Y-11.9413
G01 X37.8972 Y-11.8632
G01 X38.0758 Y-11.8153
G01 X38.2600 Y-11.7992
G01 X38.4442 Y-11.8153
G01 X38.6228 Y-11.8632
G01 X38.7904 Y-11.9413
G01 X38.9419 Y-12.0474
G01 X39.0726 Y-12.1781
G01 X39.1787 Y-12.3296
G01 X39.2568 Y-12.4972
G01 X39.3047 Y-12.6758
G01 X39.3208 Y-12.8600
G01 X39.3047 Y-13.0442
G01 X39.2568 Y-13.2228
G01 X39.1787 Y-13.3904
G01 X39.0726 Y-13.5419
G01 X38.9262 Y-13.6892
G01 X38.8334 Y-13.8163
G01 X38.8099 Y-13.8628
G01 X38.7656 Y-13.9984
G01 X38.7556 Y-14.0676
G01 X38.7589 Y-14.2321
G01 X38.8213 Y-14.4229
G01 X38.9262 Y-14.5708
G01 X39.0726 Y-14.7181
G01 X39.1787 Y-14.8696
G01 X39.2568 Y-15.0372
G01 X39.3047 Y-15.2158
G01 X39.3208 Y-15.4000
G01 X39.3047 Y-15.5842
G01 X39.2568 Y-15.7628
G01 X39.1787 Y-15.9304
G01 X39.0726 Y-16.0819
G01 X38.9262 Y-16.2292
G01 X38.8334 Y-16.3563
G01 X38.8099 Y-16.4028
G01 X38.7676 Y-16.5323
G01 X38.7559 Y-16.5960
G01 X38.7589 Y-16.7721
G01 X38.8153 Y-16.9503
G01 X38.9213 Y-17.1048
G01 X39.0726 Y-17.2581
G01 X39.1787 Y-17.4096
G01 X39.2568 Y-17.5772
G01 X39.3047 Y-17.7558
G01 X39.3208 Y-17.9400
G01 X39.3047 Y-18.1242
G01 X39.2568 Y-18.3028
G01 X39.1787 Y-18.4704
G01 X39.0726 Y-18.6219
G01 X38.9259 Y-18.7696
G01 X38.8267 Y-18.9069
G01 X38.8058 Y-18.9539
G01 X38.7566 Y-19.1223
G01 X38.7585 Y-19.3125
G01 X38.8149 Y-19.4906
G01 X38.9209 Y-19.6451
G01 X39.0722 Y-19.7985
G01 X39.0987 Y-19.8362
G01 X39.0808 Y-19.8362
G01 X38.9980 Y-19.7420
G01 X38.9221 Y-19.6732
G01 X38.8399 Y-19.6122
G01 X38.7413 Y-19.5541
G01 X38.6483 Y-19.5114
G01 X38.4753 Y-19.4589
G01 X38.3623 Y-19.4413
G01 X38.2600 Y-19.4363
G01 X38.1577 Y-19.4413
G01 X38.0447 Y-19.4589
G01 X37.8717 Y-19.5114
G01 X37.7787 Y-19.5541
G01 X37.6801 Y-19.6122
G01 X37.5979 Y-19.6732
G01 X37.5220 Y-19.7420
G01 X37.4392 Y-19.8363
G01 X37.4213 Y-19.8363
G01 X37.4478 Y-19.7985
G01 X37.5652 Y-19.6799
G01 X37.6377 Y-19.5847
G01 X37.7090 Y-19.4381
G01 X37.7405 Y-19.2395
G01 X37.7090 Y-19.0409
G01 X37.6377 Y-18.8943
G01 X37.5929 Y-18.8326
G01 X37.4954 Y-18.7356
G01 X37.4541 Y-18.7056
G01 X37.2964 Y-18.6282
G01 X37.1073 Y-18.5969
G01 X35.6510 Y-18.5968
G01 X35.5827 Y-18.5859
G01 X35.4514 Y-18.5433
G01 X35.3318 Y-18.4743
G01 X35.2781 Y-18.4307
G01 X35.1536 Y-18.3004
G01 X34.9924 Y-18.1930
G01 X34.7991 Y-18.1375
G01 X34.6361 Y-18.1402
G01 X34.5733 Y-18.1507
G01 X34.4091 Y-18.2133
G01 X34.2789 Y-18.3113
G01 X34.2343 Y-18.3567
G01 X34.0775 Y-18.5889
G01 X34.0131 Y-18.7150
G01 X33.9979 Y-18.7609
G01 X33.9724 Y-18.9084
G01 X33.9731 Y-18.9721
G01 X33.9931 Y-19.1082
G01 X34.0081 Y-19.1569
G01 X34.0880 Y-19.3134
G01 X34.2108 Y-19.4431
G01 X34.2577 Y-19.5057
G01 X34.2867 Y-19.5952
G01 X34.2868 Y-21.3648
G01 X34.2577 Y-21.4543
G01 X34.2134 Y-21.5134
G01 X34.1543 Y-21.5577
G01 X34.0648 Y-21.5867
G01 X32.2952 Y-21.5868
G01 X32.1327 Y-21.5314
G01 X31.9650 Y-21.5030
G01 X31.9140 Y-21.5030
G01 X31.7655 Y-21.5265
G01 X31.7055 Y-21.5477
G01 X31.5617 Y-21.6244
G01 X31.4195 Y-21.7666
G01 X31.3282 Y-21.9458
G01 X31.2984 Y-22.1157
G01 X31.2969 Y-22.4913
G01 X31.3096 Y-22.6057
G01 X31.3668 Y-22.7735
G01 X31.4784 Y-22.9293
G01 X34.0689 Y-25.5199
G01 X34.1587 Y-25.5918
G01 X34.2940 Y-25.6609
G01 X34.3425 Y-25.6766
G01 X34.5165 Y-25.7015
G01 X34.6779 Y-25.6790
G01 X34.7389 Y-25.6609
G01 X34.8729 Y-25.5926
G01 X34.9233 Y-25.5539
G01 X35.0365 Y-25.4366
G01 X35.1481 Y-25.2298
G01 X35.2293 Y-25.1181
G01 X35.3318 Y-25.0257
G01 X35.4514 Y-24.9567
G01 X35.5159 Y-24.9320
G01 X35.6510 Y-24.9032
G01 X37.1073 Y-24.9031
G01 X37.2217 Y-24.8904
G01 X37.3662 Y-24.8436
G01 X37.4116 Y-24.8204
G01 X37.5522 Y-24.7150
G01 X37.6577 Y-24.5744
G01 X37.6808 Y-24.5290
G01 X37.7237 Y-24.3982
G01 X37.7356 Y-24.3229
G01 X37.7326 Y-24.1600
G01 X37.6704 Y-23.9687
G01 X37.5713 Y-23.8275
G01 X37.4478 Y-23.7015
G01 X37.4213 Y-23.6637
G01 X37.4392 Y-23.6637
G01 X37.5220 Y-23.7580
G01 X37.5979 Y-23.8268
G01 X37.6801 Y-23.8878
G01 X37.7787 Y-23.9459
G01 X37.9457 Y-24.0151
G01 X38.0447 Y-24.0411
G01 X38.1577 Y-24.0587
G01 X38.2600 Y-24.0637
G01 X38.3623 Y-24.0587
G01 X38.4753 Y-24.0411
G01 X38.5743 Y-24.0151
G01 X38.7413 Y-23.9459
G01 X38.8399 Y-23.8878
G01 X38.9221 Y-23.8268
G01 X38.9980 Y-23.7580
G01 X39.0808 Y-23.6638
G01 X39.0987 Y-23.6638
G01 X39.0722 Y-23.7015
G01 X38.9209 Y-23.8549
G01 X38.8149 Y-24.0094
G01 X38.7585 Y-24.1875
G01 X38.7566 Y-24.3777
G01 X38.8058 Y-24.5461
G01 X38.8267 Y-24.5931
G01 X38.9259 Y-24.7304
G01 X39.0726 Y-24.8781
G01 X39.1787 Y-25.0296
G01 X39.2568 Y-25.1972
G01 X39.3047 Y-25.3758
G01 X39.3208 Y-25.5600
G01 X39.3047 Y-25.7442
G01 X39.2568 Y-25.9228
G01 X39.1787 Y-26.0904
G01 X39.0726 Y-26.2419
G01 X38.9213 Y-26.3952
G01 X38.8153 Y-26.5497
G01 X38.7589 Y-26.7279
G01 X38.7557 Y-26.8982
G01 X38.7675 Y-26.9677
G01 X38.8099 Y-27.0972
G01 X38.8334 Y-27.1437
G01 X38.9262 Y-27.2707
G01 X39.0726 Y-27.4181
G01 X39.1787 Y-27.5696
G01 X39.2568 Y-27.7372
G01 X39.3047 Y-27.9158
G01 X39.3208 Y-28.1000
G01 X39.3047 Y-28.2842
G01 X39.2568 Y-28.4628
G01 X39.1787 Y-28.6304
G01 X39.0776 Y-28.7757
G01 X39.0123 Y-28.9037
G01 X38.9962 Y-28.9552
G01 X38.9705 Y-29.1225
G01 X38.9991 Y-29.3205
G01 X39.0710 Y-29.4733
G01 X39.1078 Y-29.5255
G01 X39.2434 Y-29.6566
G01 X39.2877 Y-29.7157
G01 X39.3150 Y-29.7890
G01 X39.3150 Y-31.4910
G01 X39.2877 Y-31.5643
G01 X39.2434 Y-31.6234
G01 X39.1843 Y-31.6677
G01 X39.1110 Y-31.6950
G01 X37.4252 Y-31.6967
G01 X37.3357 Y-31.6677
G01 X37.2766 Y-31.6234
G01 X37.2069 Y-31.5330
G01 X37.0876 Y-31.4192
G01 X36.8966 Y-31.3246
G01 X36.7150 Y-31.2968
G01 X35.7674 Y-31.3001
G01 X35.6039 Y-31.2916
G01 X35.4667 Y-31.2515
G01 X35.3414 Y-31.1828
G01 X35.2197 Y-31.0733
G01 X27.6667 Y-23.5203
G01 X27.5572 Y-23.3986
G01 X27.4885 Y-23.2733
G01 X27.4484 Y-23.1361
G01 X27.4399 Y-22.9726
G01 X27.4431 Y-21.0089
G01 X27.4303 Y-20.8938
G01 X27.3841 Y-20.7510
G01 X27.3606 Y-20.7046
G01 X27.2550 Y-20.5638
G01 X20.0467 Y-13.3603
G01 X19.9372 Y-13.2386
G01 X19.8685 Y-13.1133
G01 X19.8284 Y-12.9761
G01 X19.8199 Y-12.8126
G01 X19.8232 Y-11.5289
G01 X19.8161 Y-11.4335
G01 X19.7526 Y-11.2360
G01 X19.6260 Y-11.0659
G01 X19.4734 Y-10.9568
G01 X19.3121 Y-10.9011
G01 X19.2487 Y-10.8911
G01 X19.0667 Y-10.8966
G01 X18.8771 Y-10.9626
G01 X18.7397 Y-11.0617
G01 X18.6428 Y-11.1576
G01 X18.4867 Y-11.2669
G01 X18.3140 Y-11.3475
G01 X18.1299 Y-11.3968
G01 X17.9400 Y-11.4134
G01 X17.7501 Y-11.3968
G01 X17.5660 Y-11.3475
G01 X17.3933 Y-11.2669
G01 X17.2372 Y-11.1576
G01 X17.1108 Y-11.0322
G01 X16.9629 Y-10.9273
G01 X16.7721 Y-10.8648
G01 X16.5960 Y-10.8619
G01 X16.5323 Y-10.8735
G01 X16.3666 Y-10.9331
G01 X16.2292 Y-11.0322
G01 X16.1028 Y-11.1576
G01 X15.9467 Y-11.2669
G01 X15.7740 Y-11.3475
G01 X15.5899 Y-11.3968
G01 X15.4000 Y-11.4134
G01 X15.2101 Y-11.3968
G01 X15.0260 Y-11.3475
G01 X14.8533 Y-11.2669
G01 X14.6972 Y-11.1576
G01 X14.5624 Y-11.0228
G01 X14.4479 Y-10.8821
G01 X14.2994 Y-10.7770
G01 X14.1875 Y-10.7371
G01 X13.9242 Y-10.4738
G01 X13.9362 Y-10.3200
G01 X13.9242 Y-10.1662
G01 X14.1825 Y-9.9079
G01 X14.2390 Y-9.8895
G01 X14.3604 Y-9.8253
G01 X14.4213 Y-9.7794
G01 X14.5206 Y-9.6755
G01 X14.6256 Y-9.5406
G01 X14.7119 Y-9.3683
G01 X14.7432 Y-9.1748
G01 X14.7399 Y-7.8274
G01 X14.7484 Y-7.6639
G01 X14.7885 Y-7.5267
G01 X14.8520 Y-7.4089
G01 X14.9667 Y-7.2797
G01 X18.3836 Y-3.8628
G01 X18.5090 Y-3.7505
G01 X18.7485 Y-3.6151
G01 X18.8772 Y-3.4875
G01 X18.9769 Y-3.2973
G01 X19.0061 Y-3.1309
G01 X19.0052 Y-3.0609
G01 X18.9769 Y-2.9007
G01 X18.9027 Y-2.7486
G01 X18.8652 Y-2.6968
G01 X18.7447 Y-2.5801
G01 X18.5637 Y-2.4876
G01 X18.3654 Y-2.4562
G01 X5.4339 Y-2.4562
G01 X5.2996 Y-2.4709
G01 X5.2433 Y-2.4873
G01 X5.0508 Y-2.4563
G01 X3.0990 Y-2.4562
G01 X2.9312 Y-2.4799
G01 X2.8761 Y-2.4971
G01 X2.7314 Y-2.5720
G01 X2.6038 Y-2.6921
G01 X2.5646 Y-2.7435
G01 X2.5023 Y-2.8650
G01 X2.4788 Y-2.9376
G01 X2.4563 Y-3.0943
G01 X2.4562 Y-5.0225
G01 X2.4666 Y-5.1369
G01 X2.4972 Y-5.2342
G01 X2.4812 Y-5.2833
G01 X2.4585 Y-5.4244
G00 Z2.0000
G00 X3.7157 Y-5.2782
G01 F60.00
G01 Z-0.0500
G01 F60.00
G01 X3.7669 Y-5.5762
G01 X3.8335 Y-5.7920
G01 X3.9315 Y-5.9955
G01 X4.0587 Y-6.1821
G01 X4.2123 Y-6.3476
G01 X4.3888 Y-6.4884
G01 X4.5844 Y-6.6013
G01 X4.7946 Y-6.6838
G01 X5.0148 Y-6.7341
G01 X5.1836 Y-6.7467
G01 X5.2964 Y-6.7467
G01 X5.4652 Y-6.7341
G01 X5.6854 Y-6.6838
G01 X5.8956 Y-6.6013
G01 X6.0912 Y-6.4884
G01 X6.2677 Y-6.3476
G01 X6.4213 Y-6.1821
G01 X6.5485 Y-5.9955
G01 X6.6465 Y-5.7920
G01 X6.7131 Y-5.5762
G01 X6.7454 Y-5.3617
G01 X6.7467 Y-5.1271
G01 X6.7131 Y-4.9038
G01 X6.6465 Y-4.6880
G01 X6.5485 Y-4.4845
G01 X6.4213 Y-4.2979
G01 X6.2677 Y-4.1324
G01 X6.0912 Y-3.9916
G01 X5.8956 Y-3.8787
G01 X5.6854 Y-3.7962
G01 X5.4652 Y-3.7459
G01 X5.3667 Y-3.7378
G01 X5.2457 Y-3.7099
G01 X5.1159 Y-3.7373
G01 X5.0148 Y-3.7459
G01 X4.7946 Y-3.7962
G01 X4.5844 Y-3.8787
G01 X4.3888 Y-3.9916
G01 X4.2123 Y-4.1324
G01 X4.0587 Y-4.2979
G01 X3.9315 Y-4.4845
G01 X3.8335 Y-4.6880
G01 X3.7669 Y-4.9038
G01 X3.7328 Y-5.1286
G01 X3.7009 Y-5.2346
G01 X3.7157 Y-5.2782
G00 Z2.0000
G00 X9.3622 Y-11.3616
G01 F60.00
G01 Z-0.0500
G01 F60.00
G01 X9.4517 Y-11.3936
G01 X9.6760 Y-11.3962
G01 X9.6783 Y-12.9112
G01 X9.7075 Y-13.0583
G01 X9.7467 Y-13.1529
G01 X9.7846 Y-13.2178
G01 X9.8647 Y-13.3153
G01 X9.9622 Y-13.3954
G01 X10.0736 Y-13.4549
G01 X10.1944 Y-13.4916
G01 X10.3200 Y-13.5040
G01 X10.4456 Y-13.4916
G01 X10.5664 Y-13.4549
G01 X10.6778 Y-13.3954
G01 X10.7753 Y-13.3153
G01 X10.8618 Y-13.2077
G01 X10.9192 Y-13.0953
G01 X10.9490 Y-12.9973
G01 X10.9594 Y-12.9350
G01 X10.9640 Y-11.3962
G01 X11.1645 Y-11.3960
G01 X11.2567 Y-11.3728
G01 X11.3162 Y-11.3331
G01 X11.3483 Y-11.2977
G01 X11.3820 Y-11.2346
G01 X11.3936 Y-11.1883
G01 X11.3960 Y-9.4755
G01 X11.3728 Y-9.3833
G01 X11.3162 Y-9.3069
G01 X11.2346 Y-9.2580
G01 X11.1645 Y-9.2440
G01 X9.4875 Y-9.2438
G01 X9.4283 Y-9.2511
G01 X9.3833 Y-9.2672
G01 X9.3069 Y-9.3238
G01 X9.2580 Y-9.4054
G01 X9.2440 Y-9.4755
G01 X9.2440 Y-11.1645
G01 X9.2511 Y-11.2117
G01 X9.2784 Y-11.2778
G01 X9.3069 Y-11.3162
G01 X9.3622 Y-11.3616
G00 Z2.0000
G00 X6.8966 Y-14.7568
G01 F60.00
G01 Z-0.0500
G01 F60.00
G01 X7.0153 Y-14.6184
G01 X7.1368 Y-14.5166
G01 X7.1362 Y-14.5003
G01 X7.0662 Y-14.5493
G01 X6.9293 Y-14.6862
G01 X6.8803 Y-14.7562
G01 X6.8966 Y-14.7568
G00 Z2.0000
G00 X7.1362 Y-16.2997
G01 F60.00
G01 Z-0.0500
G01 F60.00
G01 X7.1368 Y-16.2834
G01 X7.0066 Y-16.1734
G01 X6.8966 Y-16.0432
G01 X6.8803 Y-16.0438
G01 X6.9293 Y-16.1138
G01 X7.0662 Y-16.2507
G01 X7.1362 Y-16.2997
G00 Z2.0000
G00 X8.5593 Y-16.2323
G01 F60.00
G01 Z-0.0500
G01 F60.00
G01 X8.6197 Y-16.2121
G01 X8.7804 Y-16.1905
G01 X8.9803 Y-16.2215
G01 X9.1676 Y-16.3181
G01 X9.2839 Y-16.4314
G01 X9.3457 Y-16.4777
G01 X9.4352 Y-16.5067
G01 X11.2048 Y-16.5067
G01 X11.2943 Y-16.4777
G01 X11.3534 Y-16.4334
G01 X11.3977 Y-16.3743
G01 X11.4267 Y-16.2848
G01 X11.4250 Y-14.4990
G01 X11.3977 Y-14.4257
G01 X11.3534 Y-14.3666
G01 X11.2943 Y-14.3223
G01 X11.0236 Y-14.2178
G01 X10.8675 Y-14.0906
G01 X10.7529 Y-13.9091
G01 X10.7059 Y-13.7159
G01 X10.7155 Y-13.5462
G01 X10.7285 Y-13.4884
G01 X10.7929 Y-13.3356
G01 X10.8501 Y-13.2553
G01 X10.9233 Y-13.1286
G01 X10.9659 Y-12.9973
G01 X10.9804 Y-12.8600
G01 X10.9768 Y-11.9218
G01 X11.0017 Y-11.7523
G01 X11.0201 Y-11.6980
G01 X11.0919 Y-11.5598
G01 X11.2130 Y-11.4299
G01 X11.3361 Y-11.3358
G01 X11.4772 Y-11.1996
G01 X11.6271 Y-11.1226
G01 X11.6892 Y-11.1034
G01 X11.8556 Y-11.0822
G01 X12.0414 Y-11.1123
G01 X12.1947 Y-11.1849
G01 X12.3135 Y-11.2665
G01 X12.4862 Y-11.3470
G01 X12.6702 Y-11.3963
G01 X12.8600 Y-11.4129
G01 X13.0278 Y-11.3982
G01 X13.0138 Y-11.3842
G01 X12.8720 Y-11.3960
G01 X12.7545 Y-11.3911
G01 X12.6500 Y-11.3756
G01 X12.5476 Y-11.3499
G01 X12.4481 Y-11.3143
G01 X12.3527 Y-11.2692
G01 X12.2621 Y-11.2149
G01 X12.1682 Y-11.1441
G01 X12.0359 Y-11.0118
G01 X11.9720 Y-10.9277
G01 X11.9108 Y-10.8273
G01 X11.8705 Y-10.7428
G01 X11.8301 Y-10.6324
G01 X11.8044 Y-10.5300
G01 X11.7889 Y-10.4255
G01 X11.7838 Y-10.3200
G01 X11.7889 Y-10.2145
G01 X11.8044 Y-10.1100
G01 X11.8301 Y-10.0076
G01 X11.8705 Y-9.8972
G01 X11.9108 Y-9.8127
G01 X11.9720 Y-9.7123
G01 X12.0359 Y-9.6282
G01 X12.1682 Y-9.4959
G01 X12.2621 Y-9.4251
G01 X12.3527 Y-9.3708
G01 X12.4481 Y-9.3257
G01 X12.5476 Y-9.2901
G01 X12.6500 Y-9.2644
G01 X12.7545 Y-9.2489
G01 X12.8720 Y-9.2440
G01 X13.0138 Y-9.2558
G01 X13.0278 Y-9.2418
G01 X12.8600 Y-9.2271
G01 X12.6702 Y-9.2437
G01 X12.4862 Y-9.2930
G01 X12.3135 Y-9.3735
G01 X12.2001 Y-9.4520
G01 X12.0600 Y-9.5208
G01 X12.0045 Y-9.5371
G01 X11.8500 Y-9.5576
G01 X11.6686 Y-9.5311
G01 X11.6088 Y-9.5104
G01 X11.4628 Y-9.4299
G01 X11.3362 Y-9.3043
G01 X11.2768 Y-9.2598
G01 X11.1873 Y-9.2308
G01 X9.4527 Y-9.2308
G01 X9.3632 Y-9.2598
G01 X9.3041 Y-9.3041
G01 X9.2598 Y-9.3632
G01 X9.2308 Y-9.4527
G01 X9.2325 Y-11.2035
G01 X9.2598 Y-11.2768
G01 X9.3041 Y-11.3359
G01 X9.4208 Y-11.4243
G01 X9.5458 Y-11.5561
G01 X9.6377 Y-11.7478
G01 X9.6632 Y-11.9217
G01 X9.6596 Y-12.8600
G01 X9.6741 Y-12.9973
G01 X9.7167 Y-13.1286
G01 X9.8698 Y-13.3790
G01 X9.8901 Y-13.4249
G01 X9.9329 Y-13.5948
G01 X9.9263 Y-13.7708
G01 X9.9138 Y-13.8263
G01 X9.8508 Y-13.9826
G01 X9.7234 Y-14.1401
G01 X9.5638 Y-14.2453
G01 X9.3457 Y-14.3223
G01 X9.2839 Y-14.3686
G01 X9.1532 Y-14.4923
G01 X9.0082 Y-14.5670
G01 X8.9412 Y-14.5886
G01 X8.7981 Y-14.6088
G01 X8.7469 Y-14.6079
G01 X8.5755 Y-14.5754
G01 X8.4238 Y-14.4999
G01 X8.4232 Y-14.5166
G01 X8.5447 Y-14.6184
G01 X8.6255 Y-14.7061
G01 X8.6894 Y-14.7923
G01 X8.7446 Y-14.8844
G01 X8.7905 Y-14.9814
G01 X8.8267 Y-15.0825
G01 X8.8527 Y-15.1866
G01 X8.8685 Y-15.2928
G01 X8.8737 Y-15.4000
G01 X8.8670 Y-15.5191
G01 X8.8298 Y-15.7060
G01 X8.7905 Y-15.8186
G01 X8.7387 Y-15.9260
G01 X8.6328 Y-16.0844
G01 X8.5447 Y-16.1816
G01 X8.4232 Y-16.2834
G01 X8.4238 Y-16.3001
G01 X8.5593 Y-16.2323
G00 Z2.0000
G00 X9.3447 Y-16.4591
G01 F60.00
G01 Z-0.0500
G01 F60.00
G01 X9.4108 Y-16.4864
G01 X9.4700 Y-16.4937
G01 X11.1700 Y-16.4937
G01 X11.2292 Y-16.4864
G01 X11.2742 Y-16.4703
G01 X11.3506 Y-16.4137
G01 X11.3995 Y-16.3321
G01 X11.4135 Y-16.2620
G01 X11.4137 Y-14.5500
G01 X11.4064 Y-14.4908
G01 X11.3903 Y-14.4458
G01 X11.3337 Y-14.3694
G01 X11.2521 Y-14.3205
G01 X11.1820 Y-14.3065
G01 X9.4700 Y-14.3063
G01 X9.4108 Y-14.3136
G01 X9.3658 Y-14.3297
G01 X9.2894 Y-14.3863
G01 X9.2405 Y-14.4679
G01 X9.2265 Y-14.5380
G01 X9.2265 Y-16.2620
G01 X9.2336 Y-16.3092
G01 X9.2609 Y-16.3753
G01 X9.2894 Y-16.4137
G01 X9.3447 Y-16.4591
G00 Z2.0000
G00 X9.3579 Y-21.0355
G01 F60.00
G01 Z-0.0500
G01 F60.00
G01 X9.4689 Y-21.1941
G01 X9.6059 Y-21.3311
G01 X9.7645 Y-21.4421
G01 X9.9400 Y-21.5240
G01 X10.1271 Y-21.5741
G01 X10.3200 Y-21.5910
G01 X10.5129 Y-21.5741
G01 X10.7000 Y-21.5240
G01 X10.8755 Y-21.4421
G01 X11.0341 Y-21.3311
G01 X11.1492 Y-21.2169
G01 X11.2866 Y-21.1178
G01 X11.4584 Y-21.0563
G01 X11.5276 Y-21.0463
G01 X11.6921 Y-21.0496
G01 X11.8829 Y-21.1121
G01 X12.0308 Y-21.2169
G01 X12.1459 Y-21.3311
G01 X12.3045 Y-21.4421
G01 X12.4800 Y-21.5240
G01 X12.6671 Y-21.5741
G01 X12.8600 Y-21.5910
G01 X13.0529 Y-21.5741
G01 X13.2400 Y-21.5240
G01 X13.4155 Y-21.4421
G01 X13.5741 Y-21.3311
G01 X13.6893 Y-21.2169
G01 X13.8266 Y-21.1178
G01 X13.9984 Y-21.0563
G01 X14.0676 Y-21.0463
G01 X14.2321 Y-21.0496
G01 X14.4229 Y-21.1121
G01 X14.5708 Y-21.2169
G01 X14.6859 Y-21.3311
G01 X14.8445 Y-21.4421
G01 X15.0200 Y-21.5240
G01 X15.2071 Y-21.5741
G01 X15.4000 Y-21.5910
G01 X15.5929 Y-21.5741
G01 X15.7800 Y-21.5240
G01 X15.9555 Y-21.4421
G01 X16.1141 Y-21.3311
G01 X16.2292 Y-21.2169
G01 X16.3666 Y-21.1178
G01 X16.5384 Y-21.0563
G01 X16.6076 Y-21.0463
G01 X16.7721 Y-21.0496
G01 X16.9629 Y-21.1121
G01 X17.1108 Y-21.2169
G01 X17.2259 Y-21.3311
G01 X17.3845 Y-21.4421
G01 X17.5600 Y-21.5240
G01 X17.7471 Y-21.5741
G01 X17.9400 Y-21.5910
G01 X18.1329 Y-21.5741
G01 X18.3200 Y-21.5240
G01 X18.4955 Y-21.4421
G01 X18.6541 Y-21.3311
G01 X18.7692 Y-21.2169
G01 X18.9066 Y-21.1178
G01 X19.0784 Y-21.0563
G01 X19.1476 Y-21.0463
G01 X19.3121 Y-21.0496
G01 X19.4903 Y-21.1060
G01 X19.6401 Y-21.2084
G01 X19.7659 Y-21.3311
G01 X19.9245 Y-21.4421
G01 X20.1000 Y-21.5240
G01 X20.2871 Y-21.5741
G01 X20.4800 Y-21.5910
G01 X20.6729 Y-21.5741
G01 X20.8600 Y-21.5240
G01 X21.0355 Y-21.4421
G01 X21.1306 Y-21.3764
G01 X21.2834 Y-21.3026
G01 X21.4924 Y-21.2707
G01 X21.6621 Y-21.2974
G01 X21.7219 Y-21.3180
G01 X21.8679 Y-21.3985
G01 X21.9837 Y-21.5112
G01 X22.0457 Y-21.5577
G01 X22.1190 Y-21.5850
G01 X23.9048 Y-21.5867
G01 X23.9943 Y-21.5577
G01 X24.0534 Y-21.5134
G01 X24.0977 Y-21.4543
G01 X24.1250 Y-21.3810
G01 X24.1267 Y-19.5952
G01 X24.0977 Y-19.5057
G01 X24.0534 Y-19.4466
G01 X23.9943 Y-19.4023
G01 X23.9210 Y-19.3750
G01 X22.1352 Y-19.3733
G01 X22.0457 Y-19.4023
G01 X21.9837 Y-19.4487
G01 X21.8535 Y-19.5719
G01 X21.7036 Y-19.6489
G01 X21.6415 Y-19.6682
G01 X21.4611 Y-19.6888
G01 X21.3078 Y-19.6636
G01 X21.2563 Y-19.6474
G01 X21.1283 Y-19.5822
G01 X21.0355 Y-19.5179
G01 X20.8600 Y-19.4360
G01 X20.6729 Y-19.3859
G01 X20.4800 Y-19.3690
G01 X20.2871 Y-19.3859
G01 X20.1000 Y-19.4360
G01 X19.9245 Y-19.5179
G01 X19.7659 Y-19.6289
G01 X19.6508 Y-19.7430
G01 X19.5029 Y-19.8479
G01 X19.3121 Y-19.9104
G01 X19.1360 Y-19.9134
G01 X19.0723 Y-19.9017
G01 X18.9066 Y-19.8422
G01 X18.7692 Y-19.7431
G01 X18.6541 Y-19.6289
G01 X18.4955 Y-19.5179
G01 X18.3200 Y-19.4360
G01 X18.1329 Y-19.3859
G01 X17.9400 Y-19.3690
G01 X17.7471 Y-19.3859
G01 X17.5600 Y-19.4360
G01 X17.3845 Y-19.5179
G01 X17.2259 Y-19.6289
G01 X17.1108 Y-19.7430
G01 X16.9629 Y-19.8479
G01 X16.7721 Y-19.9104
G01 X16.6018 Y-19.9136
G01 X16.5384 Y-19.9037
G01 X16.3666 Y-19.8422
G01 X16.2292 Y-19.7430
G01 X16.1141 Y-19.6289
G01 X15.9555 Y-19.5179
G01 X15.7800 Y-19.4360
G01 X15.5929 Y-19.3859
G01 X15.4000 Y-19.3690
G01 X15.2071 Y-19.3859
G01 X15.0200 Y-19.4360
G01 X14.8445 Y-19.5179
G01 X14.6859 Y-19.6289
G01 X14.5708 Y-19.7430
G01 X14.4229 Y-19.8479
G01 X14.2321 Y-19.9104
G01 X14.0618 Y-19.9136
G01 X13.9984 Y-19.9037
G01 X13.8266 Y-19.8422
G01 X13.6893 Y-19.7431
G01 X13.5741 Y-19.6289
G01 X13.4155 Y-19.5179
G01 X13.2400 Y-19.4360
G01 X13.0529 Y-19.3859
G01 X12.8600 Y-19.3690
G01 X12.6671 Y-19.3859
G01 X12.4800 Y-19.4360
G01 X12.3045 Y-19.5179
G01 X12.1459 Y-19.6289
G01 X12.0308 Y-19.7431
G01 X11.8829 Y-19.8479
G01 X11.6921 Y-19.9104
G01 X11.5218 Y-19.9136
G01 X11.4584 Y-19.9037
G01 X11.2866 Y-19.8422
G01 X11.1492 Y-19.7430
G01 X11.0341 Y-19.6289
G01 X10.8755 Y-19.5179
G01 X10.7000 Y-19.4360
G01 X10.5129 Y-19.3859
G01 X10.3200 Y-19.3690
G01 X10.1271 Y-19.3859
G01 X9.9400 Y-19.4360
G01 X9.7645 Y-19.5179
G01 X9.6059 Y-19.6289
G01 X9.4689 Y-19.7659
G01 X9.3579 Y-19.9245
G01 X9.2760 Y-20.1000
G01 X9.2259 Y-20.2871
G01 X9.2090 Y-20.4800
G01 X9.2259 Y-20.6729
G01 X9.2760 Y-20.8600
G01 X9.3579 Y-21.0355
G00 Z2.0000
G00 X10.2009 Y-21.5670
G01 F60.00
G01 Z-0.0500
G01 F60.00
G01 X10.3200 Y-21.5737
G01 X10.4272 Y-21.5685
G01 X10.5334 Y-21.5527
G01 X10.6375 Y-21.5267
G01 X10.7386 Y-21.4905
G01 X10.8356 Y-21.4446
G01 X10.9277 Y-21.3894
G01 X11.0139 Y-21.3255
G01 X11.0934 Y-21.2534
G01 X11.1655 Y-21.1739
G01 X11.2294 Y-21.0877
G01 X11.2846 Y-20.9956
G01 X11.3305 Y-20.8986
G01 X11.3667 Y-20.7975
G01 X11.3927 Y-20.6934
G01 X11.4085 Y-20.5872
G01 X11.4137 Y-20.4800
G01 X11.4085 Y-20.3728
G01 X11.3927 Y-20.2666
G01 X11.3667 Y-20.1625
G01 X11.3305 Y-20.0614
G01 X11.2846 Y-19.9644
G01 X11.2294 Y-19.8723
G01 X11.1655 Y-19.7861
G01 X11.0934 Y-19.7066
G01 X11.0139 Y-19.6345
G01 X10.9277 Y-19.5706
G01 X10.8356 Y-19.5154
G01 X10.7386 Y-19.4695
G01 X10.6375 Y-19.4333
G01 X10.5334 Y-19.4073
G01 X10.4272 Y-19.3915
G01 X10.3200 Y-19.3863
G01 X10.2128 Y-19.3915
G01 X10.1066 Y-19.4073
G01 X10.0025 Y-19.4333
G01 X9.9014 Y-19.4695
G01 X9.8044 Y-19.5154
G01 X9.7123 Y-19.5706
G01 X9.6261 Y-19.6345
G01 X9.5466 Y-19.7066
G01 X9.4745 Y-19.7861
G01 X9.4106 Y-19.8723
G01 X9.3554 Y-19.9644
G01 X9.3095 Y-20.0614
G01 X9.2733 Y-20.1625
G01 X9.2473 Y-20.2666
G01 X9.2315 Y-20.3728
G01 X9.2263 Y-20.4800
G01 X9.2315 Y-20.5872
G01 X9.2473 Y-20.6934
G01 X9.2733 Y-20.7975
G01 X9.3095 Y-20.8986
G01 X9.3554 Y-20.9956
G01 X9.4106 Y-21.0877
G01 X9.4745 Y-21.1739
G01 X9.5466 Y-21.2534
G01 X9.6261 Y-21.3255
G01 X9.7123 Y-21.3894
G01 X9.8044 Y-21.4446
G01 X9.9014 Y-21.4905
G01 X10.0025 Y-21.5267
G01 X10.2009 Y-21.5670
G00 Z2.0000
G00 X12.7409 Y-21.5670
G01 F60.00
G01 Z-0.0500
G01 F60.00
G01 X12.8600 Y-21.5737
G01 X12.9672 Y-21.5685
G01 X13.0734 Y-21.5527
G01 X13.1775 Y-21.5267
G01 X13.2786 Y-21.4905
G01 X13.3756 Y-21.4446
G01 X13.4677 Y-21.3894
G01 X13.5539 Y-21.3255
G01 X13.6334 Y-21.2534
G01 X13.7055 Y-21.1739
G01 X13.7694 Y-21.0877
G01 X13.8246 Y-20.9956
G01 X13.8705 Y-20.8986
G01 X13.9067 Y-20.7975
G01 X13.9327 Y-20.6934
G01 X13.9485 Y-20.5872
G01 X13.9537 Y-20.4800
G01 X13.9485 Y-20.3728
G01 X13.9327 Y-20.2666
G01 X13.9067 Y-20.1625
G01 X13.8705 Y-20.0614
G01 X13.8246 Y-19.9644
G01 X13.7694 Y-19.8723
G01 X13.7055 Y-19.7861
G01 X13.6334 Y-19.7066
G01 X13.5539 Y-19.6345
G01 X13.4677 Y-19.5706
G01 X13.3756 Y-19.5154
G01 X13.2786 Y-19.4695
G01 X13.1775 Y-19.4333
G01 X13.0734 Y-19.4073
G01 X12.9672 Y-19.3915
G01 X12.8600 Y-19.3863
G01 X12.7528 Y-19.3915
G01 X12.6466 Y-19.4073
G01 X12.5425 Y-19.4333
G01 X12.4414 Y-19.4695
G01 X12.3444 Y-19.5154
G01 X12.2523 Y-19.5706
G01 X12.1661 Y-19.6345
G01 X12.0866 Y-19.7066
G01 X12.0145 Y-19.7861
G01 X11.9506 Y-19.8723
G01 X11.8954 Y-19.9644
G01 X11.8495 Y-20.0614
G01 X11.8133 Y-20.1625
G01 X11.7873 Y-20.2666
G01 X11.7715 Y-20.3728
G01 X11.7663 Y-20.4800
G01 X11.7715 Y-20.5872
G01 X11.7873 Y-20.6934
G01 X11.8133 Y-20.7975
G01 X11.8495 Y-20.8986
G01 X11.8954 Y-20.9956
G01 X11.9506 Y-21.0877
G01 X12.0145 Y-21.1739
G01 X12.0866 Y-21.2534
G01 X12.1661 Y-21.3255
G01 X12.2523 Y-21.3894
G01 X12.3444 Y-21.4446
G01 X12.4414 Y-21.4905
G01 X12.5425 Y-21.5267
G01 X12.7409 Y-21.5670
G00 Z2.0000
G00 X15.2809 Y-21.5670
G01 F60.00
G01 Z-0.0500
G01 F60.00
G01 X15.4000 Y-21.5737
G01 X15.5072 Y-21.5685
G01 X15.6134 Y-21.5527
G01 X15.7175 Y-21.5267
G01 X15.8186 Y-21.4905
G01 X15.9156 Y-21.4446
G01 X16.0077 Y-21.3894
G01 X16.0939 Y-21.3255
G01 X16.1734 Y-21.2534
G01 X16.2455 Y-21.1739
G01 X16.3094 Y-21.0877
G01 X16.3646 Y-20.9956
G01 X16.4105 Y-20.8986
G01 X16.4467 Y-20.7975
G01 X16.4727 Y-20.6934
G01 X16.4885 Y-20.5872
G01 X16.4937 Y-20.4800
G01 X16.4885 Y-20.3728
G01 X16.4727 Y-20.2666
G01 X16.4467 Y-20.1625
G01 X16.4105 Y-20.0614
G01 X16.3646 Y-19.9644
G01 X16.3094 Y-19.8723
G01 X16.2455 Y-19.7861
G01 X16.1734 Y-19.7066
G01 X16.0939 Y-19.6345
G01 X16.0077 Y-19.5706
G01 X15.9156 Y-19.5154
G01 X15.8186 Y-19.4695
G01 X15.7175 Y-19.4333
G01 X15.6134 Y-19.4073
G01 X15.5072 Y-19.3915
G01 X15.4000 Y-19.3863
G01 X15.2928 Y-19.3915
G01 X15.1866 Y-19.4073
G01 X15.0825 Y-19.4333
G01 X14.9814 Y-19.4695
G01 X14.8844 Y-19.5154
G01 X14.7923 Y-19.5706
G01 X14.7061 Y-19.6345
G01 X14.6266 Y-19.7066
G01 X14.5545 Y-19.7861
G01 X14.4906 Y-19.8723
G01 X14.4354 Y-19.9644
G01 X14.3895 Y-20.0614
G01 X14.3533 Y-20.1625
G01 X14.3273 Y-20.2666
G01 X14.3115 Y-20.3728
G01 X14.3063 Y-20.4800
G01 X14.3115 Y-20.5872
G01 X14.3273 Y-20.6934
G01 X14.3533 Y-20.7975
G01 X14.3895 Y-20.8986
G01 X14.4354 Y-20.9956
G01 X14.4906 Y-21.0877
G01 X14.5545 Y-21.1739
G01 X14.6266 Y-21.2534
G01 X14.7061 Y-21.3255
G01 X14.7923 Y-21.3894
G01 X14.8844 Y-21.4446
G01 X14.9814 Y-21.4905
G01 X15.0825 Y-21.5267
G01 X15.2809 Y-21.5670
G00 Z2.0000
G00 X17.8209 Y-21.5670
G01 F60.00
G01 Z-0.0500
G01 F60.00
G01 X17.9400 Y-21.5737
G01 X18.0472 Y-21.5685
G01 X18.1534 Y-21.5527
G01 X18.2575 Y-21.5267
G01 X18.3586 Y-21.4905
G01 X18.4556 Y-21.4446
G01 X18.5477 Y-21.3894
G01 X18.6339 Y-21.3255
G01 X18.7134 Y-21.2534
G01 X18.7855 Y-21.1739
G01 X18.8494 Y-21.0877
G01 X18.9046 Y-20.9956
G01 X18.9505 Y-20.8986
G01 X18.9867 Y-20.7975
G01 X19.0127 Y-20.6934
G01 X19.0285 Y-20.5872
G01 X19.0337 Y-20.4800
G01 X19.0285 Y-20.3728
G01 X19.0127 Y-20.2666
G01 X18.9867 Y-20.1625
G01 X18.9505 Y-20.0614
G01 X18.9046 Y-19.9644
G01 X18.8494 Y-19.8723
G01 X18.7855 Y-19.7861
G01 X18.7134 Y-19.7066
G01 X18.6339 Y-19.6345
G01 X18.5477 Y-19.5706
G01 X18.4556 Y-19.5154
G01 X18.3586 Y-19.4695
G01 X18.2575 Y-19.4333
G01 X18.1534 Y-19.4073
G01 X18.0472 Y-19.3915
G01 X17.9400 Y-19.3863
G01 X17.8328 Y-19.3915
G01 X17.7266 Y-19.4073
G01 X17.6225 Y-19.4333
G01 X17.5214 Y-19.4695
G01 X17.4244 Y-19.5154
G01 X17.3323 Y-19.5706
G01 X17.2461 Y-19.6345
G01 X17.1666 Y-19.7066
G01 X17.0945 Y-19.7861
G01 X17.0306 Y-19.8723
G01 X16.9754 Y-19.9644
G01 X16.9295 Y-20.0614
G01 X16.8933 Y-20.1625
G01 X16.8673 Y-20.2666
G01 X16.8515 Y-20.3728
G01 X16.8463 Y-20.4800
G01 X16.8515 Y-20.5872
G01 X16.8673 Y-20.6934
G01 X16.8933 Y-20.7975
G01 X16.9295 Y-20.8986
G01 X16.9754 Y-20.9956
G01 X17.0306 Y-21.0877
G01 X17.0945 Y-21.1739
G01 X17.1666 Y-21.2534
G01 X17.2461 Y-21.3255
G01 X17.3323 Y-21.3894
G01 X17.4244 Y-21.4446
G01 X17.5214 Y-21.4905
G01 X17.6225 Y-21.5267
G01 X17.8209 Y-21.5670
G00 Z2.0000
G00 X20.3609 Y-21.5670
G01 F60.00
G01 Z-0.0500
G01 F60.00
G01 X20.4800 Y-21.5737
G01 X20.5872 Y-21.5685
G01 X20.6934 Y-21.5527
G01 X20.7975 Y-21.5267
G01 X20.8986 Y-21.4905
G01 X20.9956 Y-21.4446
G01 X21.0877 Y-21.3894
G01 X21.1739 Y-21.3255
G01 X21.2534 Y-21.2534
G01 X21.3255 Y-21.1739
G01 X21.3894 Y-21.0877
G01 X21.4446 Y-20.9956
G01 X21.4905 Y-20.8986
G01 X21.5267 Y-20.7975
G01 X21.5527 Y-20.6934
G01 X21.5685 Y-20.5872
G01 X21.5737 Y-20.4800
G01 X21.5685 Y-20.3728
G01 X21.5527 Y-20.2666
G01 X21.5267 Y-20.1625
G01 X21.4905 Y-20.0614
G01 X21.4446 Y-19.9644
G01 X21.3894 Y-19.8723
G01 X21.3255 Y-19.7861
G01 X21.2534 Y-19.7066
G01 X21.1739 Y-19.6345
G01 X21.0877 Y-19.5706
G01 X20.9956 Y-19.5154
G01 X20.8986 Y-19.4695
G01 X20.7975 Y-19.4333
G01 X20.6934 Y-19.4073
G01 X20.5872 Y-19.3915
G01 X20.4800 Y-19.3863
G01 X20.3728 Y-19.3915
G01 X20.2666 Y-19.4073
G01 X20.1625 Y-19.4333
G01 X20.0614 Y-19.4695
G01 X19.9644 Y-19.5154
G01 X19.8723 Y-19.5706
G01 X19.7861 Y-19.6345
G01 X19.7066 Y-19.7066
G01 X19.6345 Y-19.7861
G01 X19.5706 Y-19.8723
G01 X19.5154 Y-19.9644
G01 X19.4695 Y-20.0614
G01 X19.4333 Y-20.1625
G01 X19.4073 Y-20.2666
G01 X19.3915 Y-20.3728
G01 X19.3863 Y-20.4800
G01 X19.3915 Y-20.5872
G01 X19.4073 Y-20.6934
G01 X19.4333 Y-20.7975
G01 X19.4695 Y-20.8986
G01 X19.5154 Y-20.9956
G01 X19.5706 Y-21.0877
G01 X19.6345 Y-21.1739
G01 X19.7066 Y-21.2534
G01 X19.7861 Y-21.3255
G01 X19.8723 Y-21.3894
G01 X19.9644 Y-21.4446
G01 X20.0614 Y-21.4905
G01 X20.1625 Y-21.5267
G01 X20.3609 Y-21.5670
G00 Z2.0000
G00 X22.0447 Y-21.5391
G01 F60.00
G01 Z-0.0500
G01 F60.00
G01 X22.1108 Y-21.5664
G01 X22.1700 Y-21.5737
G01 X23.8700 Y-21.5737
G01 X23.9292 Y-21.5664
G01 X23.9742 Y-21.5503
G01 X24.0506 Y-21.4937
G01 X24.0995 Y-21.4121
G01 X24.1135 Y-21.3420
G01 X24.1137 Y-19.6300
G01 X24.1064 Y-19.5708
G01 X24.0903 Y-19.5258
G01 X24.0337 Y-19.4494
G01 X23.9521 Y-19.4005
G01 X23.8820 Y-19.3865
G01 X22.1700 Y-19.3863
G01 X22.1108 Y-19.3936
G01 X22.0658 Y-19.4097
G01 X21.9894 Y-19.4663
G01 X21.9405 Y-19.5479
G01 X21.9265 Y-19.6180
G01 X21.9265 Y-21.3420
G01 X21.9405 Y-21.4121
G01 X21.9609 Y-21.4553
G01 X22.0063 Y-21.5106
G01 X22.0447 Y-21.5391
G00 Z2.0000
G00 X21.2449 Y-27.2291
G01 F60.00
G01 Z-0.0500
G01 F60.00
G01 X24.9160 Y-30.9067
G01 X24.9160 Y-32.3189
G01 X24.8076 Y-32.4107
G01 X24.7359 Y-32.4882
G01 X24.6651 Y-32.5821
G01 X24.6108 Y-32.6727
G01 X24.5657 Y-32.7681
G01 X24.5301 Y-32.8676
G01 X24.5044 Y-32.9700
G01 X24.4889 Y-33.0745
G01 X24.4838 Y-33.1800
G01 X24.4889 Y-33.2855
G01 X24.5269 Y-33.4809
G01 X24.5657 Y-33.5919
G01 X24.6055 Y-33.6767
G01 X24.6720 Y-33.7877
G01 X24.7990 Y-33.9410
G01 X24.8772 Y-34.0120
G01 X24.9621 Y-34.0749
G01 X25.0527 Y-34.1292
G01 X25.1481 Y-34.1743
G01 X25.2476 Y-34.2099
G01 X25.3500 Y-34.2356
G01 X25.4545 Y-34.2511
G01 X25.5600 Y-34.2562
G01 X25.6655 Y-34.2511
G01 X25.7700 Y-34.2356
G01 X25.8724 Y-34.2099
G01 X25.9719 Y-34.1743
G01 X26.0673 Y-34.1292
G01 X26.1677 Y-34.0680
G01 X26.3124 Y-33.9493
G01 X26.3841 Y-33.8718
G01 X26.4549 Y-33.7779
G01 X26.5092 Y-33.6873
G01 X26.5543 Y-33.5919
G01 X26.5931 Y-33.4809
G01 X26.6296 Y-33.2974
G01 X26.6362 Y-33.1800
G01 X26.6311 Y-33.0745
G01 X26.6129 Y-32.9584
G01 X26.5586 Y-32.7793
G01 X26.5145 Y-32.6833
G01 X26.4549 Y-32.5821
G01 X26.3920 Y-32.4972
G01 X26.3124 Y-32.4107
G01 X26.2040 Y-32.3189
G01 X26.2017 Y-30.5888
G01 X26.1890 Y-30.5027
G01 X26.1592 Y-30.4047
G01 X26.0885 Y-30.2725
G01 X26.0153 Y-30.1847
G01 X22.2053 Y-26.3747
G01 X22.0977 Y-26.2882
G01 X21.9964 Y-26.2351
G01 X21.8873 Y-26.2010
G01 X21.8012 Y-26.1883
G01 X21.6869 Y-26.1892
G01 X21.5631 Y-26.2138
G01 X21.4571 Y-26.2567
G01 X21.3509 Y-26.3249
G01 X21.2864 Y-26.3833
G01 X21.2146 Y-26.4722
G01 X21.1551 Y-26.5836
G01 X21.1184 Y-26.7044
G01 X21.1063 Y-26.8180
G01 X21.1106 Y-26.9050
G01 X21.1375 Y-27.0283
G01 X21.1821 Y-27.1336
G01 X21.2449 Y-27.2291
G00 Z2.0000
G00 X18.7049 Y-27.2291
G01 F60.00
G01 Z-0.0500
G01 F60.00
G01 X22.3760 Y-30.9067
G01 X22.3760 Y-32.3189
G01 X22.2676 Y-32.4107
G01 X22.1959 Y-32.4882
G01 X22.1251 Y-32.5821
G01 X22.0708 Y-32.6727
G01 X22.0257 Y-32.7681
G01 X21.9901 Y-32.8676
G01 X21.9644 Y-32.9700
G01 X21.9489 Y-33.0745
G01 X21.9438 Y-33.1800
G01 X21.9489 Y-33.2855
G01 X21.9869 Y-33.4809
G01 X22.0257 Y-33.5919
G01 X22.0655 Y-33.6767
G01 X22.1320 Y-33.7877
G01 X22.2590 Y-33.9410
G01 X22.3372 Y-34.0120
G01 X22.4221 Y-34.0749
G01 X22.5127 Y-34.1292
G01 X22.6081 Y-34.1743
G01 X22.7076 Y-34.2099
G01 X22.8100 Y-34.2356
G01 X22.9145 Y-34.2511
G01 X23.0200 Y-34.2562
G01 X23.1255 Y-34.2511
G01 X23.2300 Y-34.2356
G01 X23.3324 Y-34.2099
G01 X23.4319 Y-34.1743
G01 X23.5273 Y-34.1292
G01 X23.6277 Y-34.0680
G01 X23.7724 Y-33.9493
G01 X23.8441 Y-33.8718
G01 X23.9149 Y-33.7779
G01 X23.9692 Y-33.6873
G01 X24.0143 Y-33.5919
G01 X24.0531 Y-33.4809
G01 X24.0896 Y-33.2974
G01 X24.0962 Y-33.1800
G01 X24.0911 Y-33.0745
G01 X24.0729 Y-32.9584
G01 X24.0186 Y-32.7793
G01 X23.9745 Y-32.6833
G01 X23.9149 Y-32.5821
G01 X23.8520 Y-32.4972
G01 X23.7724 Y-32.4107
G01 X23.6640 Y-32.3189
G01 X23.6617 Y-30.5888
G01 X23.6490 Y-30.5027
G01 X23.6192 Y-30.4047
G01 X23.5485 Y-30.2725
G01 X23.4753 Y-30.1847
G01 X19.6653 Y-26.3747
G01 X19.5577 Y-26.2882
G01 X19.4564 Y-26.2351
G01 X19.3473 Y-26.2010
G01 X19.2612 Y-26.1883
G01 X19.1469 Y-26.1892
G01 X19.0231 Y-26.2138
G01 X18.9171 Y-26.2567
G01 X18.8109 Y-26.3249
G01 X18.7464 Y-26.3833
G01 X18.6746 Y-26.4722
G01 X18.6151 Y-26.5836
G01 X18.5784 Y-26.7044
G01 X18.5663 Y-26.8180
G01 X18.5706 Y-26.9050
G01 X18.5975 Y-27.0283
G01 X18.6421 Y-27.1336
G01 X18.7049 Y-27.2291
G00 Z2.0000
G00 X14.8949 Y-25.9591
G01 F60.00
G01 Z-0.0500
G01 F60.00
G01 X17.2960 Y-28.3667
G01 X17.2960 Y-32.3189
G01 X17.1790 Y-32.4190
G01 X17.1007 Y-32.5067
G01 X16.9967 Y-32.6622
G01 X16.9414 Y-32.7793
G01 X16.8871 Y-32.9584
G01 X16.8689 Y-33.0745
G01 X16.8640 Y-33.1920
G01 X16.8844 Y-33.3900
G01 X16.9101 Y-33.4924
G01 X16.9505 Y-33.6028
G01 X16.9967 Y-33.6978
G01 X17.1007 Y-33.8533
G01 X17.1790 Y-33.9410
G01 X17.2572 Y-34.0120
G01 X17.3421 Y-34.0749
G01 X17.4327 Y-34.1292
G01 X17.5281 Y-34.1743
G01 X17.6391 Y-34.2131
G01 X17.7418 Y-34.2376
G01 X17.9280 Y-34.2560
G01 X18.0455 Y-34.2511
G01 X18.1500 Y-34.2356
G01 X18.2524 Y-34.2099
G01 X18.3519 Y-34.1743
G01 X18.4578 Y-34.1233
G01 X18.6228 Y-34.0120
G01 X18.7093 Y-33.9324
G01 X18.8349 Y-33.7779
G01 X18.8945 Y-33.6767
G01 X18.9699 Y-33.4924
G01 X18.9976 Y-33.3782
G01 X19.0160 Y-33.1920
G01 X19.0111 Y-33.0745
G01 X18.9929 Y-32.9584
G01 X18.9386 Y-32.7793
G01 X18.8945 Y-32.6833
G01 X18.8349 Y-32.5821
G01 X18.7720 Y-32.4972
G01 X18.6924 Y-32.4107
G01 X18.5840 Y-32.3189
G01 X18.5840 Y-28.1000
G01 X18.5716 Y-27.9744
G01 X18.5349 Y-27.8536
G01 X18.4754 Y-27.7422
G01 X18.3953 Y-27.6447
G01 X15.8553 Y-25.1047
G01 X15.7675 Y-25.0315
G01 X15.7036 Y-24.9921
G01 X15.5983 Y-24.9475
G01 X15.5138 Y-24.9264
G01 X15.4000 Y-24.9160
G01 X15.2744 Y-24.9284
G01 X15.1647 Y-24.9608
G01 X15.0860 Y-24.9980
G01 X14.9915 Y-25.0622
G01 X14.9022 Y-25.1515
G01 X14.8321 Y-25.2564
G01 X14.7875 Y-25.3617
G01 X14.7664 Y-25.4462
G01 X14.7560 Y-25.5600
G01 X14.7664 Y-25.6738
G01 X14.7875 Y-25.7583
G01 X14.8321 Y-25.8636
G01 X14.8949 Y-25.9591
G00 Z2.0000
G00 X12.3549 Y-25.9591
G01 F60.00
G01 Z-0.0500
G01 F60.00
G01 X14.7560 Y-28.3667
G01 X14.7560 Y-32.3189
G01 X14.6390 Y-32.4190
G01 X14.5607 Y-32.5067
G01 X14.4567 Y-32.6622
G01 X14.4014 Y-32.7793
G01 X14.3471 Y-32.9584
G01 X14.3289 Y-33.0745
G01 X14.3240 Y-33.1920
G01 X14.3444 Y-33.3900
G01 X14.3701 Y-33.4924
G01 X14.4105 Y-33.6028
G01 X14.4567 Y-33.6978
G01 X14.5607 Y-33.8533
G01 X14.6390 Y-33.9410
G01 X14.7172 Y-34.0120
G01 X14.8021 Y-34.0749
G01 X14.8927 Y-34.1292
G01 X14.9881 Y-34.1743
G01 X15.0991 Y-34.2131
G01 X15.2018 Y-34.2376
G01 X15.3880 Y-34.2560
G01 X15.5055 Y-34.2511
G01 X15.6100 Y-34.2356
G01 X15.7124 Y-34.2099
G01 X15.8119 Y-34.1743
G01 X15.9178 Y-34.1233
G01 X16.0828 Y-34.0120
G01 X16.1693 Y-33.9324
G01 X16.2949 Y-33.7779
G01 X16.3545 Y-33.6767
G01 X16.4299 Y-33.4924
G01 X16.4576 Y-33.3782
G01 X16.4760 Y-33.1920
G01 X16.4711 Y-33.0745
G01 X16.4529 Y-32.9584
G01 X16.3986 Y-32.7793
G01 X16.3545 Y-32.6833
G01 X16.2949 Y-32.5821
G01 X16.2320 Y-32.4972
G01 X16.1524 Y-32.4107
G01 X16.0440 Y-32.3189
G01 X16.0440 Y-28.1000
G01 X16.0316 Y-27.9744
G01 X15.9949 Y-27.8536
G01 X15.9354 Y-27.7422
G01 X15.8553 Y-27.6447
G01 X13.3153 Y-25.1047
G01 X13.2275 Y-25.0315
G01 X13.1636 Y-24.9921
G01 X13.0583 Y-24.9475
G01 X12.9738 Y-24.9264
G01 X12.8600 Y-24.9160
G01 X12.7344 Y-24.9284
G01 X12.6247 Y-24.9608
G01 X12.5460 Y-24.9980
G01 X12.4515 Y-25.0622
G01 X12.3622 Y-25.1515
G01 X12.2921 Y-25.2564
G01 X12.2475 Y-25.3617
G01 X12.2264 Y-25.4462
G01 X12.2160 Y-25.5600
G01 X12.2264 Y-25.6738
G01 X12.2475 Y-25.7583
G01 X12.2921 Y-25.8636
G01 X12.3549 Y-25.9591
G00 Z2.0000
G00 X13.9296 Y-33.2974
G01 F60.00
G01 Z-0.0500
G01 F60.00
G01 X13.9362 Y-33.1800
G01 X13.9311 Y-33.0745
G01 X13.9156 Y-32.9700
G01 X13.8899 Y-32.8676
G01 X13.8543 Y-32.7681
G01 X13.8092 Y-32.6727
G01 X13.7549 Y-32.5821
G01 X13.6920 Y-32.4972
G01 X13.6210 Y-32.4190
G01 X13.5428 Y-32.3480
G01 X13.4579 Y-32.2851
G01 X13.3673 Y-32.2308
G01 X13.2719 Y-32.1857
G01 X13.1724 Y-32.1501
G01 X13.0700 Y-32.1244
G01 X12.9655 Y-32.1089
G01 X12.8600 Y-32.1038
G01 X12.7545 Y-32.1089
G01 X12.6500 Y-32.1244
G01 X12.5476 Y-32.1501
G01 X12.4481 Y-32.1857
G01 X12.3527 Y-32.2308
G01 X12.2621 Y-32.2851
G01 X12.1772 Y-32.3480
G01 X12.0990 Y-32.4190
G01 X12.0280 Y-32.4972
G01 X11.9651 Y-32.5821
G01 X11.9108 Y-32.6727
G01 X11.8657 Y-32.7681
G01 X11.8301 Y-32.8676
G01 X11.8044 Y-32.9700
G01 X11.7889 Y-33.0745
G01 X11.7838 Y-33.1800
G01 X11.7889 Y-33.2855
G01 X11.8044 Y-33.3900
G01 X11.8301 Y-33.4924
G01 X11.8657 Y-33.5919
G01 X11.9108 Y-33.6873
G01 X11.9651 Y-33.7779
G01 X12.0280 Y-33.8628
G01 X12.0990 Y-33.9410
G01 X12.1772 Y-34.0120
G01 X12.2621 Y-34.0749
G01 X12.3527 Y-34.1292
G01 X12.4481 Y-34.1743
G01 X12.5476 Y-34.2099
G01 X12.6500 Y-34.2356
G01 X12.7545 Y-34.2511
G01 X12.8600 Y-34.2562
G01 X12.9655 Y-34.2511
G01 X13.0700 Y-34.2356
G01 X13.1724 Y-34.2099
G01 X13.2719 Y-34.1743
G01 X13.3673 Y-34.1292
G01 X13.4579 Y-34.0749
G01 X13.5428 Y-34.0120
G01 X13.6210 Y-33.9410
G01 X13.6920 Y-33.8628
G01 X13.7549 Y-33.7779
G01 X13.8092 Y-33.6873
G01 X13.8543 Y-33.5919
G01 X13.8899 Y-33.4924
G01 X13.9296 Y-33.2974
G00 Z2.0000
G00 X9.4365 Y-34.2675
G01 F60.00
G01 Z-0.0500
G01 F60.00
G01 X11.2035 Y-34.2675
G01 X11.2768 Y-34.2402
G01 X11.3361 Y-34.1958
G01 X11.4571 Y-34.0756
G01 X11.5099 Y-34.0404
G01 X11.6573 Y-33.9713
G01 X11.8553 Y-33.9426
G01 X12.0641 Y-33.9803
G01 X12.2021 Y-34.0497
G01 X12.3133 Y-34.1269
G01 X12.4860 Y-34.2075
G01 X12.6701 Y-34.2568
G01 X12.8600 Y-34.2734
G01 X13.0499 Y-34.2568
G01 X13.2340 Y-34.2075
G01 X13.4067 Y-34.1269
G01 X13.5628 Y-34.0176
G01 X13.6999 Y-33.8836
G01 X13.8497 Y-33.7812
G01 X14.0279 Y-33.7248
G01 X14.1924 Y-33.7216
G01 X14.2616 Y-33.7316
G01 X14.4334 Y-33.7931
G01 X14.5708 Y-33.8922
G01 X14.6972 Y-34.0176
G01 X14.8533 Y-34.1269
G01 X15.0260 Y-34.2075
G01 X15.2101 Y-34.2568
G01 X15.4000 Y-34.2734
G01 X15.5899 Y-34.2568
G01 X15.7740 Y-34.2075
G01 X15.9467 Y-34.1269
G01 X16.1028 Y-34.0176
G01 X16.2292 Y-33.8922
G01 X16.3771 Y-33.7873
G01 X16.5679 Y-33.7248
G01 X16.7324 Y-33.7216
G01 X16.8016 Y-33.7316
G01 X16.9734 Y-33.7931
G01 X17.1108 Y-33.8922
G01 X17.2372 Y-34.0176
G01 X17.3933 Y-34.1269
G01 X17.5660 Y-34.2075
G01 X17.7501 Y-34.2568
G01 X17.9400 Y-34.2734
G01 X18.1299 Y-34.2568
G01 X18.3140 Y-34.2075
G01 X18.4867 Y-34.1269
G01 X18.6428 Y-34.0176
G01 X18.7692 Y-33.8922
G01 X18.9171 Y-33.7873
G01 X19.1079 Y-33.7248
G01 X19.2724 Y-33.7216
G01 X19.3416 Y-33.7316
G01 X19.5134 Y-33.7931
G01 X19.6508 Y-33.8922
G01 X19.7772 Y-34.0176
G01 X19.9333 Y-34.1269
G01 X20.1060 Y-34.2075
G01 X20.2901 Y-34.2568
G01 X20.4800 Y-34.2734
G01 X20.6699 Y-34.2568
G01 X20.8540 Y-34.2075
G01 X21.0267 Y-34.1269
G01 X21.1828 Y-34.0176
G01 X21.3092 Y-33.8922
G01 X21.4571 Y-33.7873
G01 X21.6479 Y-33.7248
G01 X21.8124 Y-33.7216
G01 X21.8816 Y-33.7316
G01 X22.0534 Y-33.7931
G01 X22.1907 Y-33.8922
G01 X22.3172 Y-34.0176
G01 X22.4733 Y-34.1269
G01 X22.6460 Y-34.2075
G01 X22.8301 Y-34.2568
G01 X23.0200 Y-34.2734
G01 X23.2099 Y-34.2568
G01 X23.3940 Y-34.2075
G01 X23.5667 Y-34.1269
G01 X23.7228 Y-34.0176
G01 X23.8492 Y-33.8922
G01 X23.9971 Y-33.7873
G01 X24.1879 Y-33.7248
G01 X24.3524 Y-33.7216
G01 X24.4216 Y-33.7316
G01 X24.5934 Y-33.7931
G01 X24.7307 Y-33.8922
G01 X24.8572 Y-34.0176
G01 X25.0133 Y-34.1269
G01 X25.1860 Y-34.2075
G01 X25.3701 Y-34.2568
G01 X25.5600 Y-34.2734
G01 X25.7499 Y-34.2568
G01 X25.9340 Y-34.2075
G01 X26.1067 Y-34.1269
G01 X26.2628 Y-34.0176
G01 X26.3893 Y-33.8922
G01 X26.5371 Y-33.7873
G01 X26.7279 Y-33.7248
G01 X26.8924 Y-33.7216
G01 X26.9616 Y-33.7316
G01 X27.1334 Y-33.7931
G01 X27.2707 Y-33.8922
G01 X27.3972 Y-34.0176
G01 X27.5533 Y-34.1269
G01 X27.7260 Y-34.2075
G01 X27.9101 Y-34.2568
G01 X28.1000 Y-34.2734
G01 X28.2899 Y-34.2568
G01 X28.4740 Y-34.2075
G01 X28.6467 Y-34.1269
G01 X28.8028 Y-34.0176
G01 X28.9376 Y-33.8828
G01 X29.0469 Y-33.7267
G01 X29.1275 Y-33.5540
G01 X29.1768 Y-33.3699
G01 X29.1934 Y-33.1800
G01 X29.1768 Y-32.9901
G01 X29.1275 Y-32.8060
G01 X29.0469 Y-32.6333
G01 X28.8274 Y-32.3230
G01 X28.7664 Y-32.1401
G01 X28.7567 Y-32.0301
G01 X28.7601 Y-30.6874
G01 X28.7516 Y-30.5239
G01 X28.7115 Y-30.3867
G01 X28.6455 Y-30.2651
G01 X28.5333 Y-30.1397
G01 X24.7319 Y-26.3392
G01 X24.6319 Y-26.2633
G01 X24.5110 Y-26.2060
G01 X24.3809 Y-26.1744
G01 X24.2426 Y-26.1699
G01 X24.1020 Y-26.1953
G01 X23.9782 Y-26.2462
G01 X23.8601 Y-26.3267
G01 X23.7677 Y-26.4235
G01 X23.6946 Y-26.5410
G01 X23.6054 Y-26.7080
G01 X23.4750 Y-26.8405
G01 X23.2847 Y-26.9401
G01 X23.0736 Y-26.9711
G01 X22.8882 Y-26.9401
G01 X22.7040 Y-26.8453
G01 X22.6320 Y-26.7832
G01 X22.1919 Y-26.3392
G01 X22.0959 Y-26.2656
G01 X21.9710 Y-26.2060
G01 X21.8409 Y-26.1744
G01 X21.6935 Y-26.1706
G01 X21.5620 Y-26.1953
G01 X21.4382 Y-26.2462
G01 X21.3201 Y-26.3267
G01 X21.2222 Y-26.4307
G01 X21.0654 Y-26.7080
G01 X20.9258 Y-26.8476
G01 X20.7447 Y-26.9401
G01 X20.5465 Y-26.9715
G01 X20.3482 Y-26.9401
G01 X20.1760 Y-26.8538
G01 X20.0920 Y-26.7832
G01 X19.6519 Y-26.3392
G01 X19.5519 Y-26.2633
G01 X19.4310 Y-26.2060
G01 X19.3009 Y-26.1744
G01 X19.1535 Y-26.1706
G01 X19.0220 Y-26.1953
G01 X18.8982 Y-26.2462
G01 X18.7801 Y-26.3267
G01 X18.6822 Y-26.4307
G01 X18.5254 Y-26.7080
G01 X18.3741 Y-26.8558
G01 X18.1928 Y-26.9437
G01 X18.0384 Y-26.9694
G01 X17.9808 Y-26.9701
G01 X17.8323 Y-26.9466
G01 X17.7835 Y-26.9306
G01 X17.6484 Y-26.8616
G01 X17.5661 Y-26.7962
G01 X15.8419 Y-25.0692
G01 X15.7459 Y-24.9956
G01 X15.6252 Y-24.9377
G01 X15.4864 Y-24.9037
G01 X15.3481 Y-24.9001
G01 X15.2120 Y-24.9253
G01 X15.0842 Y-24.9783
G01 X14.9701 Y-25.0567
G01 X14.8777 Y-25.1535
G01 X14.8046 Y-25.2710
G01 X14.7154 Y-25.4380
G01 X14.5850 Y-25.5705
G01 X14.3947 Y-25.6701
G01 X14.1965 Y-25.7015
G01 X13.9982 Y-25.6701
G01 X13.8260 Y-25.5838
G01 X13.7420 Y-25.5132
G01 X13.3019 Y-25.0692
G01 X13.2019 Y-24.9933
G01 X13.0810 Y-24.9360
G01 X12.9509 Y-24.9044
G01 X12.8081 Y-24.9001
G01 X12.6720 Y-24.9253
G01 X12.5402 Y-24.9806
G01 X12.4301 Y-25.0567
G01 X12.3377 Y-25.1535
G01 X12.2646 Y-25.2710
G01 X12.2164 Y-25.4055
G01 X12.1983 Y-25.5427
G01 X12.2091 Y-25.6806
G01 X12.2503 Y-25.8175
G01 X12.3172 Y-25.9386
G01 X12.4267 Y-26.0603
G01 X14.5626 Y-28.1917
G01 X14.6726 Y-28.3453
G01 X14.7303 Y-28.5138
G01 X14.7433 Y-28.6383
G01 X14.7433 Y-31.9711
G01 X14.7075 Y-32.1818
G01 X14.6194 Y-32.3504
G01 X14.4798 Y-32.4900
G01 X14.2988 Y-32.5825
G01 X14.1005 Y-32.6138
G01 X13.9327 Y-32.5902
G01 X13.8720 Y-32.5704
G01 X13.7181 Y-32.4876
G01 X13.5628 Y-32.3424
G01 X13.4067 Y-32.2331
G01 X13.2340 Y-32.1525
G01 X13.0499 Y-32.1032
G01 X12.8600 Y-32.0866
G01 X12.6701 Y-32.1032
G01 X12.4860 Y-32.1525
G01 X12.3133 Y-32.2331
G01 X12.1998 Y-32.3116
G01 X12.0470 Y-32.3854
G01 X11.8380 Y-32.4174
G01 X11.6683 Y-32.3907
G01 X11.6085 Y-32.3700
G01 X11.4625 Y-32.2895
G01 X11.3362 Y-32.1643
G01 X11.2768 Y-32.1198
G01 X11.2035 Y-32.0925
G01 X9.4527 Y-32.0908
G01 X9.3632 Y-32.1198
G01 X9.3041 Y-32.1641
G01 X9.2598 Y-32.2232
G01 X9.2308 Y-32.3127
G01 X9.2308 Y-34.0473
G01 X9.2598 Y-34.1368
G01 X9.3041 Y-34.1959
G01 X9.3632 Y-34.2402
G01 X9.4365 Y-34.2675
G00 Z2.0000
G00 X9.3622 Y-34.2216
G01 F60.00
G01 Z-0.0500
G01 F60.00
G01 X9.4283 Y-34.2489
G01 X9.4875 Y-34.2562
G01 X11.1525 Y-34.2562
G01 X11.2117 Y-34.2489
G01 X11.2567 Y-34.2328
G01 X11.3331 Y-34.1762
G01 X11.3820 Y-34.0946
G01 X11.3960 Y-34.0245
G01 X11.3962 Y-32.3475
G01 X11.3889 Y-32.2883
G01 X11.3728 Y-32.2433
G01 X11.3162 Y-32.1669
G01 X11.2346 Y-32.1180
G01 X11.1645 Y-32.1040
G01 X9.4875 Y-32.1038
G01 X9.4283 Y-32.1111
G01 X9.3833 Y-32.1272
G01 X9.3069 Y-32.1838
G01 X9.2580 Y-32.2654
G01 X9.2440 Y-32.3355
G01 X9.2440 Y-34.0245
G01 X9.2580 Y-34.0946
G01 X9.2784 Y-34.1378
G01 X9.3238 Y-34.1931
G01 X9.3622 Y-34.2216
G00 Z2.0000
G00 X3.7157 Y-38.2982
G01 F60.00
G01 Z-0.0500
G01 F60.00
G01 X3.7669 Y-38.5962
G01 X3.8335 Y-38.8120
G01 X3.9315 Y-39.0155
G01 X4.0587 Y-39.2021
G01 X4.2123 Y-39.3676
G01 X4.3888 Y-39.5084
G01 X4.5844 Y-39.6213
G01 X4.7946 Y-39.7038
G01 X5.0148 Y-39.7541
G01 X5.1133 Y-39.7622
G01 X5.2343 Y-39.7901
G01 X5.3641 Y-39.7627
G01 X5.4652 Y-39.7541
G01 X5.6854 Y-39.7038
G01 X5.8956 Y-39.6213
G01 X6.0912 Y-39.5084
G01 X6.2677 Y-39.3676
G01 X6.4213 Y-39.2021
G01 X6.5485 Y-39.0155
G01 X6.6465 Y-38.8120
G01 X6.7131 Y-38.5962
G01 X6.7454 Y-38.3817
G01 X6.7467 Y-38.1471
G01 X6.7131 Y-37.9238
G01 X6.6465 Y-37.7080
G01 X6.5485 Y-37.5045
G01 X6.4213 Y-37.3179
G01 X6.2677 Y-37.1524
G01 X6.0912 Y-37.0116
G01 X5.8956 Y-36.8987
G01 X5.6854 Y-36.8162
G01 X5.4652 Y-36.7659
G01 X5.2964 Y-36.7533
G01 X5.1836 Y-36.7533
G01 X5.0148 Y-36.7659
G01 X4.7946 Y-36.8162
G01 X4.5844 Y-36.8987
G01 X4.3888 Y-37.0116
G01 X4.2123 Y-37.1524
G01 X4.0587 Y-37.3179
G01 X3.9315 Y-37.5045
G01 X3.8335 Y-37.7080
G01 X3.7669 Y-37.9238
G01 X3.7328 Y-38.1486
G01 X3.7009 Y-38.2546
G01 X3.7157 Y-38.2982
G00 Z2.0000
G00 X21.5496 Y-33.2974
G01 F60.00
G01 Z-0.0500
G01 F60.00
G01 X21.5562 Y-33.1800
G01 X21.5511 Y-33.0745
G01 X21.5356 Y-32.9700
G01 X21.5099 Y-32.8676
G01 X21.4743 Y-32.7681
G01 X21.4292 Y-32.6727
G01 X21.3749 Y-32.5821
G01 X21.3120 Y-32.4972
G01 X21.2410 Y-32.4190
G01 X21.1628 Y-32.3480
G01 X21.0779 Y-32.2851
G01 X20.9873 Y-32.2308
G01 X20.8919 Y-32.1857
G01 X20.7924 Y-32.1501
G01 X20.6900 Y-32.1244
G01 X20.5855 Y-32.1089
G01 X20.4800 Y-32.1038
G01 X20.3745 Y-32.1089
G01 X20.2700 Y-32.1244
G01 X20.1676 Y-32.1501
G01 X20.0681 Y-32.1857
G01 X19.9727 Y-32.2308
G01 X19.8821 Y-32.2851
G01 X19.7972 Y-32.3480
G01 X19.7190 Y-32.4190
G01 X19.6480 Y-32.4972
G01 X19.5851 Y-32.5821
G01 X19.5308 Y-32.6727
G01 X19.4857 Y-32.7681
G01 X19.4501 Y-32.8676
G01 X19.4244 Y-32.9700
G01 X19.4089 Y-33.0745
G01 X19.4038 Y-33.1800
G01 X19.4089 Y-33.2855
G01 X19.4244 Y-33.3900
G01 X19.4501 Y-33.4924
G01 X19.4857 Y-33.5919
G01 X19.5308 Y-33.6873
G01 X19.5851 Y-33.7779
G01 X19.6480 Y-33.8628
G01 X19.7190 Y-33.9410
G01 X19.7972 Y-34.0120
G01 X19.8821 Y-34.0749
G01 X19.9727 Y-34.1292
G01 X20.0681 Y-34.1743
G01 X20.1676 Y-34.2099
G01 X20.2700 Y-34.2356
G01 X20.3745 Y-34.2511
G01 X20.4800 Y-34.2562
G01 X20.5855 Y-34.2511
G01 X20.6900 Y-34.2356
G01 X20.7924 Y-34.2099
G01 X20.8919 Y-34.1743
G01 X20.9873 Y-34.1292
G01 X21.0779 Y-34.0749
G01 X21.1628 Y-34.0120
G01 X21.2410 Y-33.9410
G01 X21.3120 Y-33.8628
G01 X21.3749 Y-33.7779
G01 X21.4292 Y-33.6873
G01 X21.4743 Y-33.5919
G01 X21.5099 Y-33.4924
G01 X21.5496 Y-33.2974
G00 Z2.0000
G00 X23.7849 Y-27.2291
G01 F60.00
G01 Z-0.0500
G01 F60.00
G01 X27.4560 Y-30.9067
G01 X27.4560 Y-32.3189
G01 X27.3476 Y-32.4107
G01 X27.2759 Y-32.4882
G01 X27.2051 Y-32.5821
G01 X27.1508 Y-32.6727
G01 X27.1057 Y-32.7681
G01 X27.0701 Y-32.8676
G01 X27.0444 Y-32.9700
G01 X27.0289 Y-33.0745
G01 X27.0238 Y-33.1800
G01 X27.0289 Y-33.2855
G01 X27.0669 Y-33.4809
G01 X27.1057 Y-33.5919
G01 X27.1455 Y-33.6767
G01 X27.2120 Y-33.7877
G01 X27.3390 Y-33.9410
G01 X27.4172 Y-34.0120
G01 X27.5021 Y-34.0749
G01 X27.5927 Y-34.1292
G01 X27.6881 Y-34.1743
G01 X27.7876 Y-34.2099
G01 X27.8900 Y-34.2356
G01 X27.9945 Y-34.2511
G01 X28.1000 Y-34.2562
G01 X28.2055 Y-34.2511
G01 X28.3100 Y-34.2356
G01 X28.4124 Y-34.2099
G01 X28.5119 Y-34.1743
G01 X28.6073 Y-34.1292
G01 X28.7077 Y-34.0680
G01 X28.8524 Y-33.9493
G01 X28.9241 Y-33.8718
G01 X28.9949 Y-33.7779
G01 X29.0492 Y-33.6873
G01 X29.0943 Y-33.5919
G01 X29.1331 Y-33.4809
G01 X29.1696 Y-33.2974
G01 X29.1762 Y-33.1800
G01 X29.1711 Y-33.0745
G01 X29.1529 Y-32.9584
G01 X29.0986 Y-32.7793
G01 X29.0545 Y-32.6833
G01 X28.9949 Y-32.5821
G01 X28.9320 Y-32.4972
G01 X28.8524 Y-32.4107
G01 X28.7440 Y-32.3189
G01 X28.7417 Y-30.5888
G01 X28.7290 Y-30.5027
G01 X28.6992 Y-30.4047
G01 X28.6285 Y-30.2725
G01 X28.5553 Y-30.1847
G01 X24.7453 Y-26.3747
G01 X24.6377 Y-26.2882
G01 X24.5364 Y-26.2351
G01 X24.4273 Y-26.2010
G01 X24.3412 Y-26.1883
G01 X24.2150 Y-26.1906
G01 X24.1031 Y-26.2138
G01 X23.9864 Y-26.2621
G01 X23.8815 Y-26.3322
G01 X23.8000 Y-26.4124
G01 X23.7482 Y-26.4823
G01 X23.6908 Y-26.5947
G01 X23.6584 Y-26.7044
G01 X23.6460 Y-26.8300
G01 X23.6564 Y-26.9438
G01 X23.6775 Y-27.0283
G01 X23.7221 Y-27.1336
G01 X23.7849 Y-27.2291
G00 Z2.0000
G00 X32.2047 Y-21.5391
G01 F60.00
G01 Z-0.0500
G01 F60.00
G01 X32.2708 Y-21.5664
G01 X32.3300 Y-21.5737
G01 X34.0300 Y-21.5737
G01 X34.0892 Y-21.5664
G01 X34.1342 Y-21.5503
G01 X34.2106 Y-21.4937
G01 X34.2595 Y-21.4121
G01 X34.2735 Y-21.3420
G01 X34.2737 Y-19.6300
G01 X34.2664 Y-19.5708
G01 X34.2503 Y-19.5258
G01 X34.1937 Y-19.4494
G01 X34.1121 Y-19.4005
G01 X34.0420 Y-19.3865
G01 X32.3300 Y-19.3863
G01 X32.2708 Y-19.3936
G01 X32.2258 Y-19.4097
G01 X32.1494 Y-19.4663
G01 X32.1005 Y-19.5479
G01 X32.0865 Y-19.6180
G01 X32.0865 Y-21.3420
G01 X32.1005 Y-21.4121
G01 X32.1209 Y-21.4553
G01 X32.1494 Y-21.4937
G01 X32.2047 Y-21.5391
G00 Z2.0000
G00 X33.0609 Y-19.0270
G01 F60.00
G01 Z-0.0500
G01 F60.00
G01 X33.1800 Y-19.0337
G01 X33.2872 Y-19.0285
G01 X33.3934 Y-19.0127
G01 X33.4975 Y-18.9867
G01 X33.5986 Y-18.9505
G01 X33.6956 Y-18.9046
G01 X33.7877 Y-18.8494
G01 X33.8739 Y-18.7855
G01 X33.9534 Y-18.7134
G01 X34.0255 Y-18.6339
G01 X34.0894 Y-18.5477
G01 X34.1446 Y-18.4556
G01 X34.1905 Y-18.3586
G01 X34.2267 Y-18.2575
G01 X34.2527 Y-18.1534
G01 X34.2685 Y-18.0472
G01 X34.2737 Y-17.9400
G01 X34.2685 Y-17.8328
G01 X34.2527 Y-17.7266
G01 X34.2267 Y-17.6225
G01 X34.1905 Y-17.5214
G01 X34.1446 Y-17.4244
G01 X34.0894 Y-17.3323
G01 X34.0255 Y-17.2461
G01 X33.9534 Y-17.1666
G01 X33.8739 Y-17.0945
G01 X33.7877 Y-17.0306
G01 X33.6956 Y-16.9754
G01 X33.5986 Y-16.9295
G01 X33.4975 Y-16.8933
G01 X33.3934 Y-16.8673
G01 X33.2872 Y-16.8515
G01 X33.1800 Y-16.8463
G01 X33.0728 Y-16.8515
G01 X32.9666 Y-16.8673
G01 X32.8625 Y-16.8933
G01 X32.7614 Y-16.9295
G01 X32.6644 Y-16.9754
G01 X32.5723 Y-17.0306
G01 X32.4861 Y-17.0945
G01 X32.4066 Y-17.1666
G01 X32.3345 Y-17.2461
G01 X32.2706 Y-17.3323
G01 X32.2154 Y-17.4244
G01 X32.1695 Y-17.5214
G01 X32.1333 Y-17.6225
G01 X32.1073 Y-17.7266
G01 X32.0915 Y-17.8328
G01 X32.0863 Y-17.9400
G01 X32.0915 Y-18.0472
G01 X32.1073 Y-18.1534
G01 X32.1333 Y-18.2575
G01 X32.1695 Y-18.3586
G01 X32.2154 Y-18.4556
G01 X32.2706 Y-18.5477
G01 X32.3345 Y-18.6339
G01 X32.4066 Y-18.7134
G01 X32.4861 Y-18.7855
G01 X32.5723 Y-18.8494
G01 X32.6644 Y-18.9046
G01 X32.7614 Y-18.9505
G01 X32.8625 Y-18.9867
G01 X33.0609 Y-19.0270
G00 Z2.0000
G00 X35.6450 Y-18.5794
G01 F60.00
G01 Z-0.0500
G01 F60.00
G01 X37.4393 Y-18.5840
G01 X37.5220 Y-18.6780
G01 X37.6073 Y-18.7542
G01 X37.7576 Y-18.8546
G01 X37.8717 Y-18.9086
G01 X38.0447 Y-18.9611
G01 X38.1577 Y-18.9787
G01 X38.3504 Y-18.9796
G01 X38.4753 Y-18.9611
G01 X38.6594 Y-18.9043
G01 X38.7520 Y-18.8605
G01 X38.8399 Y-18.8078
G01 X38.9221 Y-18.7468
G01 X38.9980 Y-18.6780
G01 X39.0668 Y-18.6021
G01 X39.1278 Y-18.5199
G01 X39.1805 Y-18.4320
G01 X39.2243 Y-18.3394
G01 X39.2588 Y-18.2430
G01 X39.2837 Y-18.1436
G01 X39.2987 Y-18.0423
G01 X39.3037 Y-17.9400
G01 X39.2987 Y-17.8377
G01 X39.2811 Y-17.7247
G01 X39.2286 Y-17.5517
G01 X39.1746 Y-17.4376
G01 X39.0668 Y-17.2779
G01 X38.9312 Y-17.1410
G01 X38.8298 Y-17.0658
G01 X38.6594 Y-16.9757
G01 X38.5515 Y-16.9380
G01 X38.3623 Y-16.9013
G01 X38.2480 Y-16.8965
G01 X38.0682 Y-16.9143
G01 X37.9570 Y-16.9412
G01 X37.8606 Y-16.9757
G01 X37.7576 Y-17.0254
G01 X37.6073 Y-17.1258
G01 X37.5220 Y-17.2020
G01 X37.4393 Y-17.2960
G01 X35.7200 Y-17.2960
G01 X35.5827 Y-17.3110
G01 X35.4736 Y-17.3451
G01 X35.3622 Y-17.4046
G01 X35.2647 Y-17.4847
G01 X35.1915 Y-17.5725
G01 X35.1467 Y-17.6471
G01 X35.1006 Y-17.7646
G01 X35.0792 Y-17.8769
G01 X35.0783 Y-17.9912
G01 X35.1006 Y-18.1154
G01 X35.1299 Y-18.1974
G01 X35.1846 Y-18.2978
G01 X35.2647 Y-18.3953
G01 X35.3525 Y-18.4685
G01 X35.4271 Y-18.5133
G01 X35.5331 Y-18.5562
G01 X35.6450 Y-18.5794
G00 Z2.0000
G00 X37.4478 Y-21.1615
G01 F60.00
G01 Z-0.0500
G01 F60.00
G01 X37.6163 Y-21.3379
G01 X37.6163 Y-21.3008
G01 X37.5220 Y-21.2180
G01 X37.4392 Y-21.1237
G01 X37.4213 Y-21.1237
G01 X37.4478 Y-21.1615
G00 Z2.0000
G00 X37.4478 Y-22.3385
G01 F60.00
G01 Z-0.0500
G01 F60.00
G01 X37.4213 Y-22.3763
G01 X37.4392 Y-22.3763
G01 X37.5220 Y-22.2820
G01 X37.6163 Y-22.1992
G01 X37.6163 Y-22.1621
G01 X37.4478 Y-22.3385
G00 Z2.0000
G00 X38.9980 Y-22.2820
G01 F60.00
G01 Z-0.0500
G01 F60.00
G01 X39.0808 Y-22.3762
G01 X39.0987 Y-22.3762
G01 X39.0722 Y-22.3385
G01 X38.9037 Y-22.1621
G01 X38.9037 Y-22.1992
G01 X38.9980 Y-22.2820
G00 Z2.0000
G00 X38.9037 Y-21.3379
G01 F60.00
G01 Z-0.0500
G01 F60.00
G01 X39.0722 Y-21.1615
G01 X39.0987 Y-21.1238
G01 X39.0808 Y-21.1238
G01 X38.9980 Y-21.2180
G01 X38.9037 Y-21.3008
G01 X38.9037 Y-21.3379
G00 Z2.0000
G00 X35.6450 Y-26.1994
G01 F60.00
G01 Z-0.0500
G01 F60.00
G01 X37.4393 Y-26.2040
G01 X37.5220 Y-26.2980
G01 X37.6073 Y-26.3742
G01 X37.7576 Y-26.4746
G01 X37.8717 Y-26.5286
G01 X38.0447 Y-26.5811
G01 X38.1577 Y-26.5987
G01 X38.3504 Y-26.5996
G01 X38.4753 Y-26.5811
G01 X38.6594 Y-26.5243
G01 X38.7520 Y-26.4805
G01 X38.8399 Y-26.4278
G01 X38.9221 Y-26.3668
G01 X38.9980 Y-26.2980
G01 X39.0668 Y-26.2221
G01 X39.1278 Y-26.1399
G01 X39.1805 Y-26.0520
G01 X39.2243 Y-25.9594
G01 X39.2588 Y-25.8630
G01 X39.2837 Y-25.7636
G01 X39.2987 Y-25.6623
G01 X39.3037 Y-25.5600
G01 X39.2987 Y-25.4577
G01 X39.2811 Y-25.3447
G01 X39.2243 Y-25.1606
G01 X39.1342 Y-24.9902
G01 X39.0590 Y-24.8888
G01 X38.9312 Y-24.7610
G01 X38.8298 Y-24.6858
G01 X38.6594 Y-24.5957
G01 X38.5515 Y-24.5580
G01 X38.3623 Y-24.5213
G01 X38.2600 Y-24.5163
G01 X38.1458 Y-24.5227
G01 X37.9685 Y-24.5580
G01 X37.8606 Y-24.5957
G01 X37.7576 Y-24.6454
G01 X37.6073 Y-24.7458
G01 X37.5220 Y-24.8220
G01 X37.4393 Y-24.9160
G01 X35.7200 Y-24.9160
G01 X35.5827 Y-24.9310
G01 X35.4736 Y-24.9651
G01 X35.3622 Y-25.0246
G01 X35.2647 Y-25.1047
G01 X35.1915 Y-25.1925
G01 X35.1467 Y-25.2671
G01 X35.1006 Y-25.3846
G01 X35.0792 Y-25.4969
G01 X35.0783 Y-25.6112
G01 X35.1006 Y-25.7354
G01 X35.1299 Y-25.8174
G01 X35.1846 Y-25.9178
G01 X35.2647 Y-26.0153
G01 X35.3525 Y-26.0885
G01 X35.4271 Y-26.1333
G01 X35.5331 Y-26.1762
G01 X35.6450 Y-26.1994
G00 Z2.0000
G00 X45.7658 Y-26.5973
G01 F60.00
G01 Z-0.0500
G01 F60.00
G01 X45.8800 Y-26.6037
G01 X45.9942 Y-26.5973
G01 X46.1715 Y-26.5620
G01 X46.2794 Y-26.5243
G01 X46.3824 Y-26.4746
G01 X46.5327 Y-26.3742
G01 X46.6180 Y-26.2980
G01 X46.7007 Y-26.2040
G01 X48.4260 Y-26.2039
G01 X48.5456 Y-26.1916
G01 X48.6664 Y-26.1549
G01 X48.7778 Y-26.0954
G01 X48.8753 Y-26.0153
G01 X48.9554 Y-25.9178
G01 X49.0149 Y-25.8064
G01 X49.0516 Y-25.6856
G01 X49.0640 Y-25.5600
G01 X49.0516 Y-25.4344
G01 X49.0149 Y-25.3136
G01 X48.9820 Y-25.2460
G01 X48.9251 Y-25.1609
G01 X48.8285 Y-25.0622
G01 X48.7677 Y-25.0182
G01 X48.6774 Y-24.9699
G01 X48.5456 Y-24.9284
G01 X48.4200 Y-24.9160
G01 X46.7007 Y-24.9160
G01 X46.6094 Y-24.8137
G01 X46.4599 Y-24.6922
G01 X46.2904 Y-24.6005
G01 X46.1715 Y-24.5580
G01 X45.9823 Y-24.5213
G01 X45.7896 Y-24.5204
G01 X45.6647 Y-24.5389
G01 X45.4806 Y-24.5957
G01 X45.3102 Y-24.6858
G01 X45.2088 Y-24.7610
G01 X45.0732 Y-24.8979
G01 X44.9654 Y-25.0576
G01 X44.9114 Y-25.1717
G01 X44.8563 Y-25.3564
G01 X44.8365 Y-25.5480
G01 X44.8427 Y-25.6742
G01 X44.8812 Y-25.8630
G01 X44.9541 Y-26.0413
G01 X45.0190 Y-26.1497
G01 X45.1420 Y-26.2980
G01 X45.2903 Y-26.4210
G01 X45.3987 Y-26.4859
G01 X45.5770 Y-26.5588
G01 X45.7658 Y-26.5973
G00 Z2.0000
G00 X46.6180 Y-22.2820
G01 F60.00
G01 Z-0.0500
G01 F60.00
G01 X46.7008 Y-22.3763
G01 X46.7187 Y-22.3763
G01 X46.6922 Y-22.3385
G01 X46.5237 Y-22.1621
G01 X46.5237 Y-22.1992
G01 X46.6180 Y-22.2820
G00 Z2.0000
G00 X46.6922 Y-21.1615
G01 F60.00
G01 Z-0.0500
G01 F60.00
G01 X46.7187 Y-21.1237
G01 X46.7008 Y-21.1237
G01 X46.6180 Y-21.2180
G01 X46.5237 Y-21.3008
G01 X46.5237 Y-21.3379
G01 X46.6922 Y-21.1615
G00 Z2.0000
G00 X45.0678 Y-21.1615
G01 F60.00
G01 Z-0.0500
G01 F60.00
G01 X45.2363 Y-21.3379
G01 X45.2363 Y-21.3008
G01 X45.1420 Y-21.2180
G01 X45.0592 Y-21.1238
G01 X45.0413 Y-21.1238
G01 X45.0678 Y-21.1615
G00 Z2.0000
G00 X45.2363 Y-22.1621
G01 F60.00
G01 Z-0.0500
G01 F60.00
G01 X45.0678 Y-22.3385
G01 X45.0413 Y-22.3762
G01 X45.0592 Y-22.3762
G01 X45.1420 Y-22.2820
G01 X45.2363 Y-22.1992
G01 X45.2363 Y-22.1621
G00 Z2.0000
G00 X45.7658 Y-18.9773
G01 F60.00
G01 Z-0.0500
G01 F60.00
G01 X45.8800 Y-18.9837
G01 X45.9942 Y-18.9773
G01 X46.1715 Y-18.9420
G01 X46.2794 Y-18.9043
G01 X46.3824 Y-18.8546
G01 X46.5327 Y-18.7542
G01 X46.6180 Y-18.6780
G01 X46.7007 Y-18.5840
G01 X48.4260 Y-18.5839
G01 X48.5456 Y-18.5716
G01 X48.6664 Y-18.5349
G01 X48.7778 Y-18.4754
G01 X48.8753 Y-18.3953
G01 X48.9554 Y-18.2978
G01 X49.0149 Y-18.1864
G01 X49.0516 Y-18.0656
G01 X49.0640 Y-17.9400
G01 X49.0516 Y-17.8144
G01 X49.0149 Y-17.6936
G01 X48.9820 Y-17.6260
G01 X48.9251 Y-17.5409
G01 X48.8285 Y-17.4422
G01 X48.7677 Y-17.3982
G01 X48.6774 Y-17.3499
G01 X48.5456 Y-17.3084
G01 X48.4200 Y-17.2960
G01 X46.7007 Y-17.2960
G01 X46.6094 Y-17.1937
G01 X46.4599 Y-17.0722
G01 X46.2904 Y-16.9805
G01 X46.1715 Y-16.9380
G01 X45.9823 Y-16.9013
G01 X45.7896 Y-16.9004
G01 X45.6647 Y-16.9189
G01 X45.4806 Y-16.9757
G01 X45.3102 Y-17.0658
G01 X45.2088 Y-17.1410
G01 X45.0732 Y-17.2779
G01 X44.9654 Y-17.4376
G01 X44.9114 Y-17.5517
G01 X44.8563 Y-17.7364
G01 X44.8365 Y-17.9280
G01 X44.8427 Y-18.0542
G01 X44.8812 Y-18.2430
G01 X44.9541 Y-18.4213
G01 X45.0190 Y-18.5297
G01 X45.1420 Y-18.6780
G01 X45.2903 Y-18.8010
G01 X45.3987 Y-18.8659
G01 X45.5770 Y-18.9388
G01 X45.7658 Y-18.9773
G00 Z2.0000
G00 X49.9847 Y-21.5391
G01 F60.00
G01 Z-0.0500
G01 F60.00
G01 X50.0508 Y-21.5664
G01 X50.1100 Y-21.5737
G01 X51.8100 Y-21.5737
G01 X51.8692 Y-21.5664
G01 X51.9142 Y-21.5503
G01 X51.9906 Y-21.4937
G01 X52.0395 Y-21.4121
G01 X52.0535 Y-21.3420
G01 X52.0537 Y-19.6300
G01 X52.0464 Y-19.5708
G01 X52.0303 Y-19.5258
G01 X51.9737 Y-19.4494
G01 X51.8921 Y-19.4005
G01 X51.8220 Y-19.3865
G01 X50.1100 Y-19.3863
G01 X50.0508 Y-19.3936
G01 X50.0058 Y-19.4097
G01 X49.9294 Y-19.4663
G01 X49.8805 Y-19.5479
G01 X49.8665 Y-19.6180
G01 X49.8665 Y-21.3420
G01 X49.8805 Y-21.4121
G01 X49.9009 Y-21.4553
G01 X49.9294 Y-21.4937
G01 X49.9847 Y-21.5391
G00 Z2.0000
G00 X50.8409 Y-19.0270
G01 F60.00
G01 Z-0.0500
G01 F60.00
G01 X50.9600 Y-19.0337
G01 X51.0672 Y-19.0285
G01 X51.1734 Y-19.0127
G01 X51.2775 Y-18.9867
G01 X51.3786 Y-18.9505
G01 X51.4756 Y-18.9046
G01 X51.5677 Y-18.8494
G01 X51.6539 Y-18.7855
G01 X51.7334 Y-18.7134
G01 X51.8055 Y-18.6339
G01 X51.8694 Y-18.5477
G01 X51.9246 Y-18.4556
G01 X51.9705 Y-18.3586
G01 X52.0067 Y-18.2575
G01 X52.0327 Y-18.1534
G01 X52.0485 Y-18.0472
G01 X52.0537 Y-17.9400
G01 X52.0485 Y-17.8328
G01 X52.0327 Y-17.7266
G01 X52.0067 Y-17.6225
G01 X51.9705 Y-17.5214
G01 X51.9246 Y-17.4244
G01 X51.8694 Y-17.3323
G01 X51.8055 Y-17.2461
G01 X51.7334 Y-17.1666
G01 X51.6539 Y-17.0945
G01 X51.5677 Y-17.0306
G01 X51.4756 Y-16.9754
G01 X51.3786 Y-16.9295
G01 X51.2775 Y-16.8933
G01 X51.1734 Y-16.8673
G01 X51.0672 Y-16.8515
G01 X50.9600 Y-16.8463
G01 X50.8528 Y-16.8515
G01 X50.7466 Y-16.8673
G01 X50.6425 Y-16.8933
G01 X50.5414 Y-16.9295
G01 X50.4444 Y-16.9754
G01 X50.3523 Y-17.0306
G01 X50.2661 Y-17.0945
G01 X50.1866 Y-17.1666
G01 X50.1145 Y-17.2461
G01 X50.0506 Y-17.3323
G01 X49.9954 Y-17.4244
G01 X49.9495 Y-17.5214
G01 X49.9133 Y-17.6225
G01 X49.8873 Y-17.7266
G01 X49.8715 Y-17.8328
G01 X49.8663 Y-17.9400
G01 X49.8715 Y-18.0472
G01 X49.8873 Y-18.1534
G01 X49.9133 Y-18.2575
G01 X49.9495 Y-18.3586
G01 X49.9954 Y-18.4556
G01 X50.0506 Y-18.5477
G01 X50.1145 Y-18.6339
G01 X50.1866 Y-18.7134
G01 X50.2661 Y-18.7855
G01 X50.3523 Y-18.8494
G01 X50.4444 Y-18.9046
G01 X50.5414 Y-18.9505
G01 X50.6425 Y-18.9867
G01 X50.8409 Y-19.0270
G00 Z2.0000
G00 X52.4723 Y-6.3476
G01 F60.00
G01 Z-0.0500
G01 F60.00
G01 X52.6488 Y-6.4884
G01 X52.8444 Y-6.6013
G01 X53.0546 Y-6.6838
G01 X53.2748 Y-6.7341
G01 X53.4436 Y-6.7467
G01 X53.5564 Y-6.7467
G01 X53.7252 Y-6.7341
G01 X53.9454 Y-6.6838
G01 X54.1556 Y-6.6013
G01 X54.3512 Y-6.4884
G01 X54.5277 Y-6.3476
G01 X54.6813 Y-6.1821
G01 X54.8085 Y-5.9955
G01 X54.9065 Y-5.7920
G01 X54.9731 Y-5.5762
G01 X55.0072 Y-5.3514
G01 X55.0391 Y-5.2454
G01 X55.0073 Y-5.1292
G01 X54.9731 Y-4.9038
G01 X54.9065 Y-4.6880
G01 X54.8085 Y-4.4845
G01 X54.6813 Y-4.2979
G01 X54.5277 Y-4.1324
G01 X54.3512 Y-3.9916
G01 X54.1556 Y-3.8787
G01 X53.9454 Y-3.7962
G01 X53.7252 Y-3.7459
G01 X53.6267 Y-3.7378
G01 X53.5057 Y-3.7099
G01 X53.3759 Y-3.7373
G01 X53.2748 Y-3.7459
G01 X53.0546 Y-3.7962
G01 X52.8444 Y-3.8787
G01 X52.6488 Y-3.9916
G01 X52.4723 Y-4.1324
G01 X52.3187 Y-4.2979
G01 X52.1915 Y-4.4845
G01 X52.0935 Y-4.6880
G01 X52.0269 Y-4.9038
G01 X51.9933 Y-5.1271
G01 X51.9933 Y-5.3529
G01 X52.0269 Y-5.5762
G01 X52.0935 Y-5.7920
G01 X52.1915 Y-5.9955
G01 X52.3187 Y-6.1821
G01 X52.4723 Y-6.3476
G00 Z2.0000
G00 X33.1169 Y-13.5008
G01 F60.00
G01 Z-0.0500
G01 F60.00
G01 X37.4393 Y-13.5040
G01 X37.5220 Y-13.5980
G01 X37.6073 Y-13.6742
G01 X37.7576 Y-13.7746
G01 X37.8606 Y-13.8243
G01 X37.9570 Y-13.8588
G01 X38.0682 Y-13.8857
G01 X38.2480 Y-13.9035
G01 X38.3623 Y-13.8987
G01 X38.4636 Y-13.8837
G01 X38.5630 Y-13.8588
G01 X38.6594 Y-13.8243
G01 X38.7520 Y-13.7805
G01 X38.8399 Y-13.7278
G01 X38.9221 Y-13.6668
G01 X38.9980 Y-13.5980
G01 X39.0668 Y-13.5221
G01 X39.1278 Y-13.4399
G01 X39.1805 Y-13.3520
G01 X39.2243 Y-13.2594
G01 X39.2588 Y-13.1630
G01 X39.2837 Y-13.0636
G01 X39.2987 Y-12.9623
G01 X39.3037 Y-12.8600
G01 X39.2987 Y-12.7577
G01 X39.2837 Y-12.6564
G01 X39.2588 Y-12.5570
G01 X39.1859 Y-12.3787
G01 X39.1210 Y-12.2703
G01 X38.9980 Y-12.1220
G01 X38.8497 Y-11.9990
G01 X38.7413 Y-11.9341
G01 X38.5630 Y-11.8612
G01 X38.4636 Y-11.8363
G01 X38.3623 Y-11.8213
G01 X38.2480 Y-11.8165
G01 X38.0682 Y-11.8343
G01 X37.9570 Y-11.8612
G01 X37.8606 Y-11.8957
G01 X37.7576 Y-11.9454
G01 X37.6073 Y-12.0458
G01 X37.5220 Y-12.1220
G01 X37.4393 Y-12.2160
G01 X33.1169 Y-12.2192
G01 X32.9931 Y-12.2438
G01 X32.8764 Y-12.2921
G01 X32.7715 Y-12.3622
G01 X32.6900 Y-12.4424
G01 X32.6180 Y-12.5460
G01 X32.5808 Y-12.6247
G01 X32.5484 Y-12.7344
G01 X32.5360 Y-12.8600
G01 X32.5484 Y-12.9856
G01 X32.5808 Y-13.0953
G01 X32.6180 Y-13.1740
G01 X32.6900 Y-13.2776
G01 X32.7715 Y-13.3578
G01 X32.8764 Y-13.4279
G01 X32.9931 Y-13.4762
G01 X33.1169 Y-13.5008
G00 Z2.0000
G00 X29.1696 Y-10.4374
G01 F60.00
G01 Z-0.0500
G01 F60.00
G01 X29.1762 Y-10.3200
G01 X29.1711 Y-10.2145
G01 X29.1556 Y-10.1100
G01 X29.1299 Y-10.0076
G01 X29.0943 Y-9.9081
G01 X29.0492 Y-9.8127
G01 X28.9949 Y-9.7221
G01 X28.9320 Y-9.6372
G01 X28.8610 Y-9.5590
G01 X28.7828 Y-9.4880
G01 X28.6979 Y-9.4251
G01 X28.6073 Y-9.3708
G01 X28.5119 Y-9.3257
G01 X28.4124 Y-9.2901
G01 X28.3100 Y-9.2644
G01 X28.2055 Y-9.2489
G01 X28.1000 Y-9.2438
G01 X27.9945 Y-9.2489
G01 X27.8900 Y-9.2644
G01 X27.7876 Y-9.2901
G01 X27.6881 Y-9.3257
G01 X27.5927 Y-9.3708
G01 X27.5021 Y-9.4251
G01 X27.4172 Y-9.4880
G01 X27.3390 Y-9.5590
G01 X27.2680 Y-9.6372
G01 X27.2051 Y-9.7221
G01 X27.1508 Y-9.8127
G01 X27.1057 Y-9.9081
G01 X27.0701 Y-10.0076
G01 X27.0444 Y-10.1100
G01 X27.0289 Y-10.2145
G01 X27.0238 Y-10.3200
G01 X27.0289 Y-10.4255
G01 X27.0444 Y-10.5300
G01 X27.0701 Y-10.6324
G01 X27.1057 Y-10.7319
G01 X27.1508 Y-10.8273
G01 X27.2051 Y-10.9179
G01 X27.2680 Y-11.0028
G01 X27.3390 Y-11.0810
G01 X27.4172 Y-11.1520
G01 X27.5021 Y-11.2149
G01 X27.5927 Y-11.2692
G01 X27.6881 Y-11.3143
G01 X27.7876 Y-11.3499
G01 X27.8900 Y-11.3756
G01 X27.9945 Y-11.3911
G01 X28.1000 Y-11.3962
G01 X28.2055 Y-11.3911
G01 X28.3100 Y-11.3756
G01 X28.4124 Y-11.3499
G01 X28.5119 Y-11.3143
G01 X28.6073 Y-11.2692
G01 X28.6979 Y-11.2149
G01 X28.7828 Y-11.1520
G01 X28.8610 Y-11.0810
G01 X28.9320 Y-11.0028
G01 X28.9949 Y-10.9179
G01 X29.0492 Y-10.8273
G01 X29.0943 Y-10.7319
G01 X29.1299 Y-10.6324
G01 X29.1696 Y-10.4374
G00 Z2.0000
G00 X24.7907 Y-11.0724
G01 F60.00
G01 Z-0.0500
G01 F60.00
G01 X24.9160 Y-11.1811
G01 X24.9183 Y-12.9112
G01 X24.9475 Y-13.0583
G01 X24.9867 Y-13.1529
G01 X25.0182 Y-13.2077
G01 X25.1047 Y-13.3153
G01 X27.6489 Y-15.8595
G01 X27.7009 Y-15.9051
G01 X27.7860 Y-15.9620
G01 X27.9131 Y-16.0162
G01 X28.0250 Y-16.0394
G01 X28.1000 Y-16.0440
G01 X37.4393 Y-16.0440
G01 X37.5220 Y-16.1380
G01 X37.5979 Y-16.2068
G01 X37.6801 Y-16.2678
G01 X37.7787 Y-16.3259
G01 X37.8717 Y-16.3686
G01 X38.0447 Y-16.4211
G01 X38.1577 Y-16.4387
G01 X38.2720 Y-16.4435
G01 X38.4636 Y-16.4237
G01 X38.6483 Y-16.3686
G01 X38.7624 Y-16.3146
G01 X38.9127 Y-16.2142
G01 X39.0063 Y-16.1294
G01 X39.1278 Y-15.9799
G01 X39.1859 Y-15.8813
G01 X39.2588 Y-15.7030
G01 X39.2837 Y-15.6036
G01 X39.2996 Y-15.4904
G01 X39.2996 Y-15.3096
G01 X39.2857 Y-15.2082
G01 X39.2588 Y-15.0970
G01 X39.2243 Y-15.0006
G01 X39.1805 Y-14.9080
G01 X39.1278 Y-14.8201
G01 X39.0668 Y-14.7379
G01 X38.9980 Y-14.6620
G01 X38.9221 Y-14.5932
G01 X38.8298 Y-14.5258
G01 X38.6704 Y-14.4405
G01 X38.5743 Y-14.4049
G01 X38.4636 Y-14.3763
G01 X38.3623 Y-14.3613
G01 X38.2480 Y-14.3565
G01 X38.0682 Y-14.3743
G01 X37.9570 Y-14.4012
G01 X37.8606 Y-14.4357
G01 X37.7576 Y-14.4854
G01 X37.6073 Y-14.5858
G01 X37.5220 Y-14.6620
G01 X37.4393 Y-14.7560
G01 X28.3667 Y-14.7560
G01 X26.2040 Y-12.5933
G01 X26.2040 Y-11.1811
G01 X26.3124 Y-11.0893
G01 X26.3841 Y-11.0118
G01 X26.4549 Y-10.9179
G01 X26.5092 Y-10.8273
G01 X26.5543 Y-10.7319
G01 X26.5931 Y-10.6209
G01 X26.6176 Y-10.5182
G01 X26.6360 Y-10.3320
G01 X26.6311 Y-10.2145
G01 X26.6156 Y-10.1100
G01 X26.5899 Y-10.0076
G01 X26.5543 Y-9.9081
G01 X26.5092 Y-9.8127
G01 X26.4549 Y-9.7221
G01 X26.3920 Y-9.6372
G01 X26.3210 Y-9.5590
G01 X26.2428 Y-9.4880
G01 X26.1579 Y-9.4251
G01 X26.0673 Y-9.3708
G01 X25.9719 Y-9.3257
G01 X25.8724 Y-9.2901
G01 X25.7700 Y-9.2644
G01 X25.6655 Y-9.2489
G01 X25.5600 Y-9.2438
G01 X25.4545 Y-9.2489
G01 X25.3500 Y-9.2644
G01 X25.2476 Y-9.2901
G01 X25.1481 Y-9.3257
G01 X25.0527 Y-9.3708
G01 X24.9621 Y-9.4251
G01 X24.8772 Y-9.4880
G01 X24.7990 Y-9.5590
G01 X24.7280 Y-9.6372
G01 X24.6651 Y-9.7221
G01 X24.6108 Y-9.8127
G01 X24.5657 Y-9.9081
G01 X24.5301 Y-10.0076
G01 X24.5044 Y-10.1100
G01 X24.4889 Y-10.2145
G01 X24.4838 Y-10.3200
G01 X24.4889 Y-10.4255
G01 X24.5044 Y-10.5300
G01 X24.5301 Y-10.6324
G01 X24.5657 Y-10.7319
G01 X24.6108 Y-10.8273
G01 X24.6651 Y-10.9179
G01 X24.7907 Y-11.0724
G00 Z2.0000
G00 X22.2590 Y-11.0810
G01 F60.00
G01 Z-0.0500
G01 F60.00
G01 X22.3760 Y-11.1811
G01 X22.3783 Y-12.9112
G01 X22.3910 Y-12.9973
G01 X22.4251 Y-13.1064
G01 X22.4580 Y-13.1740
G01 X22.5222 Y-13.2685
G01 X29.9960 Y-20.7467
G01 X29.9983 Y-23.0712
G01 X30.0206 Y-23.1954
G01 X30.0499 Y-23.2774
G01 X30.1046 Y-23.3778
G01 X30.1805 Y-23.4711
G01 X35.2647 Y-28.5553
G01 X35.3723 Y-28.6418
G01 X35.4271 Y-28.6733
G01 X35.5217 Y-28.7125
G01 X35.6688 Y-28.7417
G01 X37.4393 Y-28.7440
G01 X37.5220 Y-28.8380
G01 X37.5979 Y-28.9068
G01 X37.6801 Y-28.9678
G01 X37.7680 Y-29.0205
G01 X37.8606 Y-29.0643
G01 X37.9570 Y-29.0988
G01 X38.0564 Y-29.1237
G01 X38.1696 Y-29.1396
G01 X38.3623 Y-29.1387
G01 X38.4636 Y-29.1237
G01 X38.5743 Y-29.0951
G01 X38.7413 Y-29.0259
G01 X38.8298 Y-28.9742
G01 X38.9221 Y-28.9068
G01 X38.9894 Y-28.8463
G01 X39.0668 Y-28.7621
G01 X39.1278 Y-28.6799
G01 X39.1805 Y-28.5920
G01 X39.2243 Y-28.4994
G01 X39.2588 Y-28.4030
G01 X39.2837 Y-28.3036
G01 X39.2987 Y-28.2023
G01 X39.3035 Y-28.0880
G01 X39.2987 Y-27.9977
G01 X39.2811 Y-27.8847
G01 X39.2551 Y-27.7857
G01 X39.1859 Y-27.6187
G01 X39.1278 Y-27.5201
G01 X39.0668 Y-27.4379
G01 X38.9980 Y-27.3620
G01 X38.9221 Y-27.2932
G01 X38.8399 Y-27.2322
G01 X38.7520 Y-27.1795
G01 X38.6594 Y-27.1357
G01 X38.5630 Y-27.1012
G01 X38.4636 Y-27.0763
G01 X38.3623 Y-27.0613
G01 X38.1696 Y-27.0604
G01 X38.0564 Y-27.0763
G01 X37.9570 Y-27.1012
G01 X37.8606 Y-27.1357
G01 X37.7680 Y-27.1795
G01 X37.6801 Y-27.2322
G01 X37.5979 Y-27.2932
G01 X37.5220 Y-27.3620
G01 X37.4393 Y-27.4560
G01 X35.9867 Y-27.4560
G01 X31.2840 Y-22.7533
G01 X31.2817 Y-20.4288
G01 X31.2690 Y-20.3427
G01 X31.2349 Y-20.2336
G01 X31.2020 Y-20.1660
G01 X31.1451 Y-20.0809
G01 X23.6640 Y-12.5933
G01 X23.6640 Y-11.1811
G01 X23.7724 Y-11.0893
G01 X23.8441 Y-11.0118
G01 X23.9149 Y-10.9179
G01 X23.9692 Y-10.8273
G01 X24.0143 Y-10.7319
G01 X24.0531 Y-10.6209
G01 X24.0776 Y-10.5182
G01 X24.0960 Y-10.3320
G01 X24.0911 Y-10.2145
G01 X24.0756 Y-10.1100
G01 X24.0499 Y-10.0076
G01 X24.0143 Y-9.9081
G01 X23.9692 Y-9.8127
G01 X23.9149 Y-9.7221
G01 X23.8520 Y-9.6372
G01 X23.7810 Y-9.5590
G01 X23.7028 Y-9.4880
G01 X23.6179 Y-9.4251
G01 X23.5273 Y-9.3708
G01 X23.4319 Y-9.3257
G01 X23.3324 Y-9.2901
G01 X23.2300 Y-9.2644
G01 X23.1255 Y-9.2489
G01 X23.0200 Y-9.2438
G01 X22.9145 Y-9.2489
G01 X22.8100 Y-9.2644
G01 X22.7076 Y-9.2901
G01 X22.6081 Y-9.3257
G01 X22.5127 Y-9.3708
G01 X22.4221 Y-9.4251
G01 X22.3372 Y-9.4880
G01 X22.2590 Y-9.5590
G01 X22.1880 Y-9.6372
G01 X22.1251 Y-9.7221
G01 X22.0708 Y-9.8127
G01 X22.0257 Y-9.9081
G01 X21.9901 Y-10.0076
G01 X21.9644 Y-10.1100
G01 X21.9489 Y-10.2145
G01 X21.9438 Y-10.3200
G01 X21.9489 Y-10.4255
G01 X21.9644 Y-10.5300
G01 X21.9901 Y-10.6324
G01 X22.0257 Y-10.7319
G01 X22.0708 Y-10.8273
G01 X22.1251 Y-10.9179
G01 X22.1880 Y-11.0028
G01 X22.2590 Y-11.0810
G00 Z2.0000
G00 X19.8392 Y-7.7169
G01 F60.00
G01 Z-0.0500
G01 F60.00
G01 X19.8360 Y-9.4589
G01 X19.7276 Y-9.5507
G01 X19.6480 Y-9.6372
G01 X19.5851 Y-9.7221
G01 X19.5255 Y-9.8233
G01 X19.4814 Y-9.9193
G01 X19.4271 Y-10.0984
G01 X19.4089 Y-10.2145
G01 X19.4038 Y-10.3200
G01 X19.4089 Y-10.4255
G01 X19.4271 Y-10.5416
G01 X19.4814 Y-10.7207
G01 X19.5255 Y-10.8167
G01 X19.5851 Y-10.9179
G01 X19.6480 Y-11.0028
G01 X19.7276 Y-11.0893
G01 X19.8360 Y-11.1811
G01 X19.8361 Y-12.8660
G01 X19.8510 Y-12.9973
G01 X19.8808 Y-13.0953
G01 X19.9067 Y-13.1529
G01 X19.9515 Y-13.2275
G01 X20.0247 Y-13.3153
G01 X27.4560 Y-20.7467
G01 X27.4583 Y-23.0712
G01 X27.4710 Y-23.1573
G01 X27.5051 Y-23.2664
G01 X27.5380 Y-23.3340
G01 X27.6022 Y-23.4285
G01 X35.2647 Y-31.0953
G01 X35.3525 Y-31.1685
G01 X35.4847 Y-31.2392
G01 X35.5827 Y-31.2690
G01 X35.6688 Y-31.2817
G01 X37.2163 Y-31.2840
G01 X37.2165 Y-31.4520
G01 X37.2397 Y-31.5442
G01 X37.2794 Y-31.6037
G01 X37.3148 Y-31.6358
G01 X37.3558 Y-31.6603
G01 X37.4242 Y-31.6811
G01 X39.0720 Y-31.6835
G01 X39.1421 Y-31.6695
G01 X39.2052 Y-31.6358
G01 X39.2406 Y-31.6037
G01 X39.2803 Y-31.5442
G01 X39.2964 Y-31.4992
G01 X39.3037 Y-31.4400
G01 X39.3035 Y-29.8280
G01 X39.2803 Y-29.7358
G01 X39.2237 Y-29.6594
G01 X39.1421 Y-29.6105
G01 X39.0720 Y-29.5965
G01 X37.4242 Y-29.5989
G01 X37.3558 Y-29.6197
G01 X37.3148 Y-29.6442
G01 X37.2794 Y-29.6763
G01 X37.2397 Y-29.7358
G01 X37.2165 Y-29.8280
G01 X37.2163 Y-29.9960
G01 X35.9867 Y-29.9960
G01 X28.7440 Y-22.7533
G01 X28.7417 Y-20.4288
G01 X28.7290 Y-20.3427
G01 X28.6949 Y-20.2336
G01 X28.6620 Y-20.1660
G01 X28.6051 Y-20.0809
G01 X21.1240 Y-12.5933
G01 X21.1240 Y-11.1811
G01 X21.2324 Y-11.0893
G01 X21.3120 Y-11.0028
G01 X21.3749 Y-10.9179
G01 X21.4345 Y-10.8167
G01 X21.4786 Y-10.7207
G01 X21.5329 Y-10.5416
G01 X21.5511 Y-10.4255
G01 X21.5562 Y-10.3200
G01 X21.5511 Y-10.2145
G01 X21.5329 Y-10.0984
G01 X21.4786 Y-9.9193
G01 X21.4345 Y-9.8233
G01 X21.3749 Y-9.7221
G01 X21.3120 Y-9.6372
G01 X21.2324 Y-9.5507
G01 X21.1240 Y-9.4589
G01 X21.1240 Y-8.0467
G01 X21.6307 Y-7.5400
G01 X42.1893 Y-7.5400
G01 X45.2360 Y-10.5867
G01 X45.2360 Y-12.0393
G01 X45.1420 Y-12.1220
G01 X45.0658 Y-12.2073
G01 X44.9654 Y-12.3576
G01 X44.9114 Y-12.4717
G01 X44.8589 Y-12.6447
G01 X44.8413 Y-12.7577
G01 X44.8365 Y-12.8720
G01 X44.8543 Y-13.0518
G01 X44.8849 Y-13.1743
G01 X44.9595 Y-13.3520
G01 X45.0658 Y-13.5127
G01 X45.1506 Y-13.6063
G01 X45.3001 Y-13.7278
G01 X45.4696 Y-13.8195
G01 X45.5885 Y-13.8620
G01 X45.7777 Y-13.8987
G01 X45.8800 Y-13.9037
G01 X45.9823 Y-13.8987
G01 X46.0836 Y-13.8837
G01 X46.1830 Y-13.8588
G01 X46.2794 Y-13.8243
G01 X46.3720 Y-13.7805
G01 X46.5327 Y-13.6742
G01 X46.6180 Y-13.5980
G01 X46.6790 Y-13.5312
G01 X46.7542 Y-13.4298
G01 X46.8443 Y-13.2594
G01 X46.8788 Y-13.1630
G01 X46.9057 Y-13.0518
G01 X46.9235 Y-12.8720
G01 X46.9187 Y-12.7577
G01 X46.9011 Y-12.6447
G01 X46.8486 Y-12.4717
G01 X46.7946 Y-12.3576
G01 X46.6942 Y-12.2073
G01 X46.6180 Y-12.1220
G01 X46.5240 Y-12.0393
G01 X46.5217 Y-10.2688
G01 X46.5090 Y-10.1827
G01 X46.4749 Y-10.0736
G01 X46.4420 Y-10.0060
G01 X46.3778 Y-9.9115
G01 X42.9071 Y-6.4365
G01 X42.8138 Y-6.3606
G01 X42.7134 Y-6.3060
G01 X42.6315 Y-6.2767
G01 X42.5192 Y-6.2552
G01 X21.3127 Y-6.2543
G01 X21.2266 Y-6.2671
G01 X21.1066 Y-6.3060
G01 X21.0062 Y-6.3606
G01 X20.9086 Y-6.4407
G01 X19.9822 Y-7.3715
G01 X19.9382 Y-7.4323
G01 X19.8851 Y-7.5336
G01 X19.8606 Y-7.6046
G01 X19.8392 Y-7.7169
G00 Z2.0000
G00 X17.3006 Y-7.7050
G01 F60.00
G01 Z-0.0500
G01 F60.00
G01 X17.2960 Y-9.4589
G01 X17.1790 Y-9.5590
G01 X17.1007 Y-9.6467
G01 X16.9967 Y-9.8022
G01 X16.9414 Y-9.9193
G01 X16.8871 Y-10.0984
G01 X16.8689 Y-10.2145
G01 X16.8681 Y-10.4136
G01 X16.8844 Y-10.5300
G01 X16.9101 Y-10.6324
G01 X16.9457 Y-10.7319
G01 X17.0387 Y-10.9078
G01 X17.1159 Y-11.0118
G01 X17.1790 Y-11.0810
G01 X17.2667 Y-11.1593
G01 X17.4327 Y-11.2692
G01 X17.5281 Y-11.3143
G01 X17.6276 Y-11.3499
G01 X17.7300 Y-11.3756
G01 X17.8345 Y-11.3911
G01 X18.0336 Y-11.3919
G01 X18.1616 Y-11.3729
G01 X18.3519 Y-11.3143
G01 X18.5278 Y-11.2213
G01 X18.6318 Y-11.1441
G01 X18.7720 Y-11.0028
G01 X18.8833 Y-10.8378
G01 X18.9386 Y-10.7207
G01 X18.9699 Y-10.6324
G01 X18.9976 Y-10.5182
G01 X19.0160 Y-10.3320
G01 X19.0111 Y-10.2145
G01 X18.9731 Y-10.0191
G01 X18.9343 Y-9.9081
G01 X18.8833 Y-9.8022
G01 X18.7793 Y-9.6467
G01 X18.7010 Y-9.5590
G01 X18.5840 Y-9.4589
G01 X18.5840 Y-8.0467
G01 X20.3907 Y-6.2400
G01 X43.4293 Y-6.2400
G01 X48.4030 Y-11.2137
G01 X48.4030 Y-14.5063
G01 X48.1533 Y-14.7560
G01 X46.7007 Y-14.7560
G01 X46.6094 Y-14.6537
G01 X46.4599 Y-14.5322
G01 X46.2904 Y-14.4405
G01 X46.1715 Y-14.3980
G01 X45.9823 Y-14.3613
G01 X45.7896 Y-14.3604
G01 X45.6647 Y-14.3789
G01 X45.4806 Y-14.4357
G01 X45.3880 Y-14.4795
G01 X45.2903 Y-14.5390
G01 X45.2088 Y-14.6010
G01 X45.0810 Y-14.7288
G01 X45.0122 Y-14.8201
G01 X44.9595 Y-14.9080
G01 X44.9157 Y-15.0006
G01 X44.8812 Y-15.0970
G01 X44.8563 Y-15.1964
G01 X44.8404 Y-15.3096
G01 X44.8404 Y-15.4904
G01 X44.8543 Y-15.5918
G01 X44.8812 Y-15.7030
G01 X44.9157 Y-15.7994
G01 X44.9595 Y-15.8920
G01 X45.0190 Y-15.9897
G01 X45.0810 Y-16.0712
G01 X45.2088 Y-16.1990
G01 X45.3001 Y-16.2678
G01 X45.3880 Y-16.3205
G01 X45.4917 Y-16.3686
G01 X45.6647 Y-16.4211
G01 X45.7777 Y-16.4387
G01 X45.8800 Y-16.4437
G01 X45.9823 Y-16.4387
G01 X46.0953 Y-16.4211
G01 X46.2683 Y-16.3686
G01 X46.3613 Y-16.3259
G01 X46.4599 Y-16.2678
G01 X46.5421 Y-16.2068
G01 X46.6180 Y-16.1380
G01 X46.7007 Y-16.0440
G01 X48.4200 Y-16.0440
G01 X48.5573 Y-16.0290
G01 X48.6553 Y-15.9992
G01 X48.7129 Y-15.9733
G01 X48.8285 Y-15.8978
G01 X49.5023 Y-15.2284
G01 X49.5755 Y-15.1406
G01 X49.6149 Y-15.0766
G01 X49.6594 Y-14.9713
G01 X49.6786 Y-14.8987
G01 X49.6909 Y-14.7730
G01 X49.6909 Y-10.9410
G01 X49.6864 Y-10.8720
G01 X49.6664 Y-10.7716
G01 X49.6090 Y-10.6330
G01 X49.5521 Y-10.5479
G01 X49.5023 Y-10.4916
G01 X44.1514 Y-5.1407
G01 X44.0952 Y-5.0909
G01 X43.9996 Y-5.0282
G01 X43.9313 Y-4.9968
G01 X43.8217 Y-4.9645
G01 X43.6961 Y-4.9521
G01 X20.0608 Y-4.9552
G01 X19.9370 Y-4.9798
G01 X19.8311 Y-5.0228
G01 X19.7564 Y-5.0675
G01 X19.6686 Y-5.1407
G01 X17.4764 Y-7.3333
G01 X17.4115 Y-7.4125
G01 X17.3667 Y-7.4871
G01 X17.3238 Y-7.5931
G01 X17.3006 Y-7.7050
G00 Z2.0000
G00 X14.7592 Y-7.7169
G01 F60.00
G01 Z-0.0500
G01 F60.00
G01 X14.7560 Y-9.4589
G01 X14.6390 Y-9.5590
G01 X14.5607 Y-9.6467
G01 X14.4567 Y-9.8022
G01 X14.4014 Y-9.9193
G01 X14.3471 Y-10.0984
G01 X14.3289 Y-10.2145
G01 X14.3281 Y-10.4136
G01 X14.3444 Y-10.5300
G01 X14.3701 Y-10.6324
G01 X14.4057 Y-10.7319
G01 X14.4508 Y-10.8273
G01 X14.5051 Y-10.9179
G01 X14.5680 Y-11.0028
G01 X14.6390 Y-11.0810
G01 X14.7923 Y-11.2080
G01 X14.8927 Y-11.2692
G01 X14.9772 Y-11.3095
G01 X15.0991 Y-11.3531
G01 X15.2945 Y-11.3911
G01 X15.4000 Y-11.3962
G01 X15.5055 Y-11.3911
G01 X15.7009 Y-11.3531
G01 X15.8228 Y-11.3095
G01 X15.9979 Y-11.2149
G01 X16.1524 Y-11.0893
G01 X16.2393 Y-10.9933
G01 X16.3492 Y-10.8273
G01 X16.4262 Y-10.6438
G01 X16.4576 Y-10.5182
G01 X16.4760 Y-10.3320
G01 X16.4711 Y-10.2145
G01 X16.4331 Y-10.0191
G01 X16.3943 Y-9.9081
G01 X16.3433 Y-9.8022
G01 X16.2393 Y-9.6467
G01 X16.1610 Y-9.5590
G01 X16.0440 Y-9.4589
G01 X16.0440 Y-8.0467
G01 X19.1507 Y-4.9400
G01 X47.2093 Y-4.9400
G01 X52.8560 Y-10.5867
G01 X52.8560 Y-25.2933
G01 X50.6933 Y-27.4560
G01 X46.7007 Y-27.4560
G01 X46.6180 Y-27.3620
G01 X46.5327 Y-27.2858
G01 X46.3824 Y-27.1854
G01 X46.2683 Y-27.1314
G01 X46.0953 Y-27.0789
G01 X45.9823 Y-27.0613
G01 X45.8680 Y-27.0565
G01 X45.6882 Y-27.0743
G01 X45.5770 Y-27.1012
G01 X45.4806 Y-27.1357
G01 X45.3880 Y-27.1795
G01 X45.3001 Y-27.2322
G01 X45.2179 Y-27.2932
G01 X45.1420 Y-27.3620
G01 X45.0732 Y-27.4379
G01 X45.0058 Y-27.5302
G01 X44.9541 Y-27.6187
G01 X44.8849 Y-27.7857
G01 X44.8563 Y-27.8964
G01 X44.8427 Y-27.9858
G01 X44.8363 Y-28.1000
G01 X44.8413 Y-28.2023
G01 X44.8563 Y-28.3036
G01 X44.8812 Y-28.4030
G01 X44.9205 Y-28.5104
G01 X45.0122 Y-28.6799
G01 X45.0810 Y-28.7712
G01 X45.2179 Y-28.9068
G01 X45.3776 Y-29.0146
G01 X45.4806 Y-29.0643
G01 X45.6647 Y-29.1211
G01 X45.7896 Y-29.1396
G01 X45.9704 Y-29.1396
G01 X46.0718 Y-29.1257
G01 X46.1830 Y-29.0988
G01 X46.2794 Y-29.0643
G01 X46.3824 Y-29.0146
G01 X46.5327 Y-28.9142
G01 X46.6180 Y-28.8380
G01 X46.7007 Y-28.7440
G01 X50.9600 Y-28.7440
G01 X51.0350 Y-28.7394
G01 X51.1469 Y-28.7162
G01 X51.2740 Y-28.6620
G01 X51.3591 Y-28.6051
G01 X51.4153 Y-28.5553
G01 X53.9553 Y-26.0153
G01 X54.0354 Y-25.9178
G01 X54.0901 Y-25.8174
G01 X54.1316 Y-25.6856
G01 X54.1440 Y-25.5600
G01 X54.1440 Y-10.3200
G01 X54.1394 Y-10.2450
G01 X54.1162 Y-10.1331
G01 X54.0620 Y-10.0060
G01 X54.0051 Y-9.9209
G01 X53.9553 Y-9.8647
G01 X47.9314 Y-3.8407
G01 X47.8338 Y-3.7606
G01 X47.7334 Y-3.7060
G01 X47.6017 Y-3.6645
G01 X47.4761 Y-3.6521
G01 X18.8208 Y-3.6552
G01 X18.6970 Y-3.6798
G01 X18.5911 Y-3.7228
G01 X18.5164 Y-3.7675
G01 X18.4286 Y-3.8407
G01 X14.9405 Y-7.3289
G01 X14.8646 Y-7.4222
G01 X14.8099 Y-7.5226
G01 X14.7806 Y-7.6046
G01 X14.7592 Y-7.7169
G00 Z2.0000
G00 X43.7391 Y-36.2251
G01 F60.00
G01 Z-0.0500
G01 F60.00
G01 X46.3353 Y-33.6353
G01 X46.4154 Y-33.5378
G01 X46.4749 Y-33.4264
G01 X46.5116 Y-33.3056
G01 X46.5239 Y-33.1860
G01 X46.5240 Y-31.4607
G01 X46.6180 Y-31.3780
G01 X46.6942 Y-31.2927
G01 X46.7946 Y-31.1424
G01 X46.8443 Y-31.0394
G01 X46.8788 Y-30.9430
G01 X46.9057 Y-30.8318
G01 X46.9196 Y-30.7304
G01 X46.9196 Y-30.5496
G01 X46.9011 Y-30.4247
G01 X46.8486 Y-30.2517
G01 X46.8005 Y-30.1480
G01 X46.7410 Y-30.0503
G01 X46.6263 Y-29.9106
G01 X46.5421 Y-29.8332
G01 X46.3824 Y-29.7254
G01 X46.2794 Y-29.6757
G01 X46.0953 Y-29.6189
G01 X45.9704 Y-29.6004
G01 X45.7777 Y-29.6013
G01 X45.6764 Y-29.6163
G01 X45.5770 Y-29.6412
G01 X45.4806 Y-29.6757
G01 X45.3880 Y-29.7195
G01 X45.2273 Y-29.8258
G01 X45.1420 Y-29.9020
G01 X45.0810 Y-29.9688
G01 X45.0058 Y-30.0702
G01 X44.9157 Y-30.2406
G01 X44.8589 Y-30.4247
G01 X44.8404 Y-30.5496
G01 X44.8413 Y-30.7423
G01 X44.8563 Y-30.8436
G01 X44.8812 Y-30.9430
G01 X44.9157 Y-31.0394
G01 X44.9595 Y-31.1320
G01 X45.0122 Y-31.2199
G01 X45.0732 Y-31.3021
G01 X45.1420 Y-31.3780
G01 X45.2360 Y-31.4607
G01 X45.2360 Y-32.9133
G01 X42.8805 Y-35.2689
G01 X42.8046 Y-35.3622
G01 X42.7451 Y-35.4736
G01 X42.7110 Y-35.5827
G01 X42.6983 Y-35.6688
G01 X42.6992 Y-35.7831
G01 X42.7206 Y-35.8954
G01 X42.7499 Y-35.9774
G01 X42.8046 Y-36.0778
G01 X42.8764 Y-36.1667
G01 X42.9409 Y-36.2251
G01 X43.0364 Y-36.2879
G01 X43.1417 Y-36.3325
G01 X43.2262 Y-36.3536
G01 X43.3400 Y-36.3640
G01 X43.4538 Y-36.3536
G01 X43.5383 Y-36.3325
G01 X43.6436 Y-36.2879
G01 X43.7391 Y-36.2251
G00 Z2.0000
G00 X52.4723 Y-39.3676
G01 F60.00
G01 Z-0.0500
G01 F60.00
G01 X52.6488 Y-39.5084
G01 X52.8444 Y-39.6213
G01 X53.0546 Y-39.7038
G01 X53.2748 Y-39.7541
G01 X53.3733 Y-39.7622
G01 X53.4943 Y-39.7901
G01 X53.6241 Y-39.7627
G01 X53.7252 Y-39.7541
G01 X53.9454 Y-39.7038
G01 X54.1556 Y-39.6213
G01 X54.3512 Y-39.5084
G01 X54.5277 Y-39.3676
G01 X54.6813 Y-39.2021
G01 X54.8085 Y-39.0155
G01 X54.9065 Y-38.8120
G01 X54.9731 Y-38.5962
G01 X55.0072 Y-38.3714
G01 X55.0391 Y-38.2654
G01 X55.0073 Y-38.1492
G01 X54.9731 Y-37.9238
G01 X54.9065 Y-37.7080
G01 X54.8085 Y-37.5045
G01 X54.6813 Y-37.3179
G01 X54.5277 Y-37.1524
G01 X54.3512 Y-37.0116
G01 X54.1556 Y-36.8987
G01 X53.9454 Y-36.8162
G01 X53.7252 Y-36.7659
G01 X53.5564 Y-36.7533
G01 X53.4436 Y-36.7533
G01 X53.2748 Y-36.7659
G01 X53.0546 Y-36.8162
G01 X52.8444 Y-36.8987
G01 X52.6488 Y-37.0116
G01 X52.4723 Y-37.1524
G01 X52.3187 Y-37.3179
G01 X52.1915 Y-37.5045
G01 X52.0935 Y-37.7080
G01 X52.0269 Y-37.9238
G01 X51.9933 Y-38.1471
G01 X51.9933 Y-38.3729
G01 X52.0269 Y-38.5962
G01 X52.0935 Y-38.8120
G01 X52.1915 Y-39.0155
G01 X52.3187 Y-39.2021
G01 X52.4723 Y-39.3676
G00 Z2.0000
M05
G00 Z2.0000
G00 Z15.00


