(G-code generated by FlatCAM Evo vUnstable - Version Date: 2022/4/31)

(Name: bot_pcb_2-PTH.drl_cnc)
(Type: G-code from Excellon)
(Units: MM)

(Created on Sunday, 15 October 2023 at 18:13)

(This preprocessor is the default preprocessor.)
(It is made to work with MACH3 compatible motion controllers.)


(TOOLS DIAMETER: )
(Tool: 2 -> Dia: 0.8)

(FEEDRATE Z: )
(Tool: 2 -> Feedrate: 150.0)

(FEEDRATE RAPIDS: )
(Tool: 2 -> Feedrate Rapids: 1500)

(Z_CUT: )
(Tool: 2 -> Z_Cut: -2.0)

(Tools Offset: )
(Tool: 2 -> Offset Z: 0.0)

(Z_MOVE: )
(Tool: 2 -> Z_Move: 2)

(Z Start: None mm)
(Z End: 15 mm)
(X,Y End: None mm)
(Steps per circle: 16)
(Preprocessor Excellon: default)

(X range:    7.2800 ...   51.4600  mm)
(Y range:  -35.9200 ...   -9.8700  mm)

(Spindle Speed: 12000 RPM)
G21
G90
G94

G01 F150.00
G00 Z2.0000

M03 S12000
G00 X38.2600 Y-12.8600
G01 Z-2.0000
G01 Z0
G00 Z2.0000
G00 X38.2600 Y-15.4000
G01 Z-2.0000
G01 Z0
G00 Z2.0000
G00 X38.2600 Y-17.9400
G01 Z-2.0000
G01 Z0
G00 Z2.0000
G00 X38.2600 Y-20.4800
G01 Z-2.0000
G01 Z0
G00 Z2.0000
G00 X38.2600 Y-23.0200
G01 Z-2.0000
G01 Z0
G00 Z2.0000
G00 X33.1800 Y-20.4800
G01 Z-2.0000
G01 Z0
G00 Z2.0000
G00 X33.1800 Y-17.9400
G01 Z-2.0000
G01 Z0
G00 Z2.0000
G00 X28.1000 Y-10.3200
G01 Z-2.0000
G01 Z0
G00 Z2.0000
G00 X25.5600 Y-10.3200
G01 Z-2.0000
G01 Z0
G00 Z2.0000
G00 X23.0200 Y-10.3200
G01 Z-2.0000
G01 Z0
G00 Z2.0000
G00 X20.4800 Y-10.3200
G01 Z-2.0000
G01 Z0
G00 Z2.0000
G00 X17.9400 Y-10.3200
G01 Z-2.0000
G01 Z0
G00 Z2.0000
G00 X15.4000 Y-10.3200
G01 Z-2.0000
G01 Z0
G00 Z2.0000
G00 X12.8600 Y-10.3200
G01 Z-2.0000
G01 Z0
G00 Z2.0000
G00 X10.3200 Y-10.3200
G01 Z-2.0000
G01 Z0
G00 Z2.0000
G00 X10.3200 Y-15.4000
G01 Z-2.0000
G01 Z0
G00 Z2.0000
G00 X7.7800 Y-15.4000
G01 Z-2.0000
G01 Z0
G00 Z2.0000
G00 X10.3200 Y-20.4800
G01 Z-2.0000
G01 Z0
G00 Z2.0000
G00 X12.8600 Y-20.4800
G01 Z-2.0000
G01 Z0
G00 Z2.0000
G00 X15.4000 Y-20.4800
G01 Z-2.0000
G01 Z0
G00 Z2.0000
G00 X17.9400 Y-20.4800
G01 Z-2.0000
G01 Z0
G00 Z2.0000
G00 X20.4800 Y-20.4800
G01 Z-2.0000
G01 Z0
G00 Z2.0000
G00 X23.0200 Y-20.4800
G01 Z-2.0000
G01 Z0
G00 Z2.0000
G00 X10.3200 Y-33.1800
G01 Z-2.0000
G01 Z0
G00 Z2.0000
G00 X12.8600 Y-33.1800
G01 Z-2.0000
G01 Z0
G00 Z2.0000
G00 X15.4000 Y-33.1800
G01 Z-2.0000
G01 Z0
G00 Z2.0000
G00 X17.9400 Y-33.1800
G01 Z-2.0000
G01 Z0
G00 Z2.0000
G00 X20.4800 Y-33.1800
G01 Z-2.0000
G01 Z0
G00 Z2.0000
G00 X23.0200 Y-33.1800
G01 Z-2.0000
G01 Z0
G00 Z2.0000
G00 X25.5600 Y-33.1800
G01 Z-2.0000
G01 Z0
G00 Z2.0000
G00 X28.1000 Y-33.1800
G01 Z-2.0000
G01 Z0
G00 Z2.0000
G00 X38.2600 Y-30.6400
G01 Z-2.0000
G01 Z0
G00 Z2.0000
G00 X38.2600 Y-28.1000
G01 Z-2.0000
G01 Z0
G00 Z2.0000
G00 X38.2600 Y-25.5600
G01 Z-2.0000
G01 Z0
G00 Z2.0000
G00 X45.8800 Y-30.6400
G01 Z-2.0000
G01 Z0
G00 Z2.0000
G00 X45.8800 Y-28.1000
G01 Z-2.0000
G01 Z0
G00 Z2.0000
G00 X45.8800 Y-25.5600
G01 Z-2.0000
G01 Z0
G00 Z2.0000
G00 X45.8800 Y-23.0200
G01 Z-2.0000
G01 Z0
G00 Z2.0000
G00 X45.8800 Y-20.4800
G01 Z-2.0000
G01 Z0
G00 Z2.0000
G00 X45.8800 Y-17.9400
G01 Z-2.0000
G01 Z0
G00 Z2.0000
G00 X50.9600 Y-20.4800
G01 Z-2.0000
G01 Z0
G00 Z2.0000
G00 X50.9600 Y-17.9400
G01 Z-2.0000
G01 Z0
G00 Z2.0000
G00 X45.8800 Y-15.4000
G01 Z-2.0000
G01 Z0
G00 Z2.0000
G00 X45.8800 Y-12.8600
G01 Z-2.0000
G01 Z0
G00 Z2.0000
M05
G00 Z15.00


