(G-code generated by FlatCAM Evo vUnstable - Version Date: 2022/4/31)

(Name: bot_pcb_2-F_Cu_cutout_cnc)
(Type: G-code from Geometry)
(Units: MM)

(Created on Sunday, 15 October 2023 at 18:14)

(This preprocessor is the default preprocessor.)
(It is made to work with MACH3 compatible motion controllers.)

(TOOL DIAMETER: 2.4 mm)
(Feedrate_XY: 60.0 mm/min)
(Feedrate_Z: 60.0 mm/min)
(Feedrate rapids 1500.0 mm/min)

(Z_Cut: -1.8 mm)
(DepthPerCut: 0.30000000000000004 mm <=>6 passes)
(Z_Move: 2.0 mm)
(Z Start: None mm)
(Z End: 15.0 mm)
(X,Y End: None mm)
(Steps per circle: 16)
(Preprocessor Geometry: default)

(X range:    1.4000 ...   57.3400  mm)
(Y range:  -42.1000 ...   -1.4000  mm)

(Spindle Speed: 12000.0 RPM)
G21
G90
G94

G01 F60.00
G00 Z2.0000

M03 S12000.0
G01 F60.00
G00 X56.0400 Y-42.1000
G01 F60.00
G01 Z-0.3000
G01 F60.00
G01 X2.7000 Y-42.1000
G01 X2.5726 Y-42.0937
G01 X2.4464 Y-42.0750
G01 X2.3226 Y-42.0440
G01 X2.2025 Y-42.0010
G01 X2.0872 Y-41.9465
G01 X1.9778 Y-41.8809
G01 X1.8753 Y-41.8049
G01 X1.7808 Y-41.7192
G01 X1.6951 Y-41.6247
G01 X1.6191 Y-41.5222
G01 X1.5535 Y-41.4128
G01 X1.4990 Y-41.2975
G01 X1.4560 Y-41.1774
G01 X1.4250 Y-41.0536
G01 X1.4063 Y-40.9274
G01 X1.4000 Y-40.8000
G01 X1.4000 Y-2.7000
G01 X1.4063 Y-2.5726
G01 X1.4250 Y-2.4464
G01 X1.4560 Y-2.3226
G01 X1.4990 Y-2.2025
G01 X1.5535 Y-2.0872
G01 X1.6191 Y-1.9778
G01 X1.6951 Y-1.8753
G01 X1.7808 Y-1.7808
G01 X1.8753 Y-1.6951
G01 X1.9778 Y-1.6191
G01 X2.0872 Y-1.5535
G01 X2.2025 Y-1.4990
G01 X2.3226 Y-1.4560
G01 X2.4464 Y-1.4250
G01 X2.5726 Y-1.4063
G01 X2.7000 Y-1.4000
G01 X56.0400 Y-1.4000
G01 X56.1674 Y-1.4063
G01 X56.2936 Y-1.4250
G01 X56.4174 Y-1.4560
G01 X56.5375 Y-1.4990
G01 X56.6528 Y-1.5535
G01 X56.7622 Y-1.6191
G01 X56.8647 Y-1.6951
G01 X56.9592 Y-1.7808
G01 X57.0449 Y-1.8753
G01 X57.1209 Y-1.9778
G01 X57.1865 Y-2.0872
G01 X57.2410 Y-2.2025
G01 X57.2840 Y-2.3226
G01 X57.3150 Y-2.4464
G01 X57.3337 Y-2.5726
G01 X57.3400 Y-2.7000
G01 X57.3400 Y-40.8000
G01 X57.3337 Y-40.9274
G01 X57.3150 Y-41.0536
G01 X57.2840 Y-41.1774
G01 X57.2410 Y-41.2975
G01 X57.1865 Y-41.4128
G01 X57.1209 Y-41.5222
G01 X57.0449 Y-41.6247
G01 X56.9592 Y-41.7192
G01 X56.8647 Y-41.8049
G01 X56.7622 Y-41.8809
G01 X56.6528 Y-41.9465
G01 X56.5375 Y-42.0010
G01 X56.4174 Y-42.0440
G01 X56.2936 Y-42.0750
G01 X56.1674 Y-42.0937
G01 X56.0400 Y-42.1000
G00 X56.0400 Y-42.1000
G01 F60.00
G01 Z-0.6000
G01 F60.00
G01 X56.1674 Y-42.0937
G01 X56.2936 Y-42.0750
G01 X56.4174 Y-42.0440
G01 X56.5375 Y-42.0010
G01 X56.6528 Y-41.9465
G01 X56.7622 Y-41.8809
G01 X56.8647 Y-41.8049
G01 X56.9592 Y-41.7192
G01 X57.0449 Y-41.6247
G01 X57.1209 Y-41.5222
G01 X57.1865 Y-41.4128
G01 X57.2410 Y-41.2975
G01 X57.2840 Y-41.1774
G01 X57.3150 Y-41.0536
G01 X57.3337 Y-40.9274
G01 X57.3400 Y-40.8000
G01 X57.3400 Y-2.7000
G01 X57.3337 Y-2.5726
G01 X57.3150 Y-2.4464
G01 X57.2840 Y-2.3226
G01 X57.2410 Y-2.2025
G01 X57.1865 Y-2.0872
G01 X57.1209 Y-1.9778
G01 X57.0449 Y-1.8753
G01 X56.9592 Y-1.7808
G01 X56.8647 Y-1.6951
G01 X56.7622 Y-1.6191
G01 X56.6528 Y-1.5535
G01 X56.5375 Y-1.4990
G01 X56.4174 Y-1.4560
G01 X56.2936 Y-1.4250
G01 X56.1674 Y-1.4063
G01 X56.0400 Y-1.4000
G01 X2.7000 Y-1.4000
G01 X2.5726 Y-1.4063
G01 X2.4464 Y-1.4250
G01 X2.3226 Y-1.4560
G01 X2.2025 Y-1.4990
G01 X2.0872 Y-1.5535
G01 X1.9778 Y-1.6191
G01 X1.8753 Y-1.6951
G01 X1.7808 Y-1.7808
G01 X1.6951 Y-1.8753
G01 X1.6191 Y-1.9778
G01 X1.5535 Y-2.0872
G01 X1.4990 Y-2.2025
G01 X1.4560 Y-2.3226
G01 X1.4250 Y-2.4464
G01 X1.4063 Y-2.5726
G01 X1.4000 Y-2.7000
G01 X1.4000 Y-40.8000
G01 X1.4063 Y-40.9274
G01 X1.4250 Y-41.0536
G01 X1.4560 Y-41.1774
G01 X1.4990 Y-41.2975
G01 X1.5535 Y-41.4128
G01 X1.6191 Y-41.5222
G01 X1.6951 Y-41.6247
G01 X1.7808 Y-41.7192
G01 X1.8753 Y-41.8049
G01 X1.9778 Y-41.8809
G01 X2.0872 Y-41.9465
G01 X2.2025 Y-42.0010
G01 X2.3226 Y-42.0440
G01 X2.4464 Y-42.0750
G01 X2.5726 Y-42.0937
G01 X2.7000 Y-42.1000
G01 X56.0400 Y-42.1000
G00 X56.0400 Y-42.1000
G01 F60.00
G01 Z-0.9000
G01 F60.00
G01 X2.7000 Y-42.1000
G01 X2.5726 Y-42.0937
G01 X2.4464 Y-42.0750
G01 X2.3226 Y-42.0440
G01 X2.2025 Y-42.0010
G01 X2.0872 Y-41.9465
G01 X1.9778 Y-41.8809
G01 X1.8753 Y-41.8049
G01 X1.7808 Y-41.7192
G01 X1.6951 Y-41.6247
G01 X1.6191 Y-41.5222
G01 X1.5535 Y-41.4128
G01 X1.4990 Y-41.2975
G01 X1.4560 Y-41.1774
G01 X1.4250 Y-41.0536
G01 X1.4063 Y-40.9274
G01 X1.4000 Y-40.8000
G01 X1.4000 Y-2.7000
G01 X1.4063 Y-2.5726
G01 X1.4250 Y-2.4464
G01 X1.4560 Y-2.3226
G01 X1.4990 Y-2.2025
G01 X1.5535 Y-2.0872
G01 X1.6191 Y-1.9778
G01 X1.6951 Y-1.8753
G01 X1.7808 Y-1.7808
G01 X1.8753 Y-1.6951
G01 X1.9778 Y-1.6191
G01 X2.0872 Y-1.5535
G01 X2.2025 Y-1.4990
G01 X2.3226 Y-1.4560
G01 X2.4464 Y-1.4250
G01 X2.5726 Y-1.4063
G01 X2.7000 Y-1.4000
G01 X56.0400 Y-1.4000
G01 X56.1674 Y-1.4063
G01 X56.2936 Y-1.4250
G01 X56.4174 Y-1.4560
G01 X56.5375 Y-1.4990
G01 X56.6528 Y-1.5535
G01 X56.7622 Y-1.6191
G01 X56.8647 Y-1.6951
G01 X56.9592 Y-1.7808
G01 X57.0449 Y-1.8753
G01 X57.1209 Y-1.9778
G01 X57.1865 Y-2.0872
G01 X57.2410 Y-2.2025
G01 X57.2840 Y-2.3226
G01 X57.3150 Y-2.4464
G01 X57.3337 Y-2.5726
G01 X57.3400 Y-2.7000
G01 X57.3400 Y-40.8000
G01 X57.3337 Y-40.9274
G01 X57.3150 Y-41.0536
G01 X57.2840 Y-41.1774
G01 X57.2410 Y-41.2975
G01 X57.1865 Y-41.4128
G01 X57.1209 Y-41.5222
G01 X57.0449 Y-41.6247
G01 X56.9592 Y-41.7192
G01 X56.8647 Y-41.8049
G01 X56.7622 Y-41.8809
G01 X56.6528 Y-41.9465
G01 X56.5375 Y-42.0010
G01 X56.4174 Y-42.0440
G01 X56.2936 Y-42.0750
G01 X56.1674 Y-42.0937
G01 X56.0400 Y-42.1000
G00 X56.0400 Y-42.1000
G01 F60.00
G01 Z-1.2000
G01 F60.00
G01 X56.1674 Y-42.0937
G01 X56.2936 Y-42.0750
G01 X56.4174 Y-42.0440
G01 X56.5375 Y-42.0010
G01 X56.6528 Y-41.9465
G01 X56.7622 Y-41.8809
G01 X56.8647 Y-41.8049
G01 X56.9592 Y-41.7192
G01 X57.0449 Y-41.6247
G01 X57.1209 Y-41.5222
G01 X57.1865 Y-41.4128
G01 X57.2410 Y-41.2975
G01 X57.2840 Y-41.1774
G01 X57.3150 Y-41.0536
G01 X57.3337 Y-40.9274
G01 X57.3400 Y-40.8000
G01 X57.3400 Y-2.7000
G01 X57.3337 Y-2.5726
G01 X57.3150 Y-2.4464
G01 X57.2840 Y-2.3226
G01 X57.2410 Y-2.2025
G01 X57.1865 Y-2.0872
G01 X57.1209 Y-1.9778
G01 X57.0449 Y-1.8753
G01 X56.9592 Y-1.7808
G01 X56.8647 Y-1.6951
G01 X56.7622 Y-1.6191
G01 X56.6528 Y-1.5535
G01 X56.5375 Y-1.4990
G01 X56.4174 Y-1.4560
G01 X56.2936 Y-1.4250
G01 X56.1674 Y-1.4063
G01 X56.0400 Y-1.4000
G01 X2.7000 Y-1.4000
G01 X2.5726 Y-1.4063
G01 X2.4464 Y-1.4250
G01 X2.3226 Y-1.4560
G01 X2.2025 Y-1.4990
G01 X2.0872 Y-1.5535
G01 X1.9778 Y-1.6191
G01 X1.8753 Y-1.6951
G01 X1.7808 Y-1.7808
G01 X1.6951 Y-1.8753
G01 X1.6191 Y-1.9778
G01 X1.5535 Y-2.0872
G01 X1.4990 Y-2.2025
G01 X1.4560 Y-2.3226
G01 X1.4250 Y-2.4464
G01 X1.4063 Y-2.5726
G01 X1.4000 Y-2.7000
G01 X1.4000 Y-40.8000
G01 X1.4063 Y-40.9274
G01 X1.4250 Y-41.0536
G01 X1.4560 Y-41.1774
G01 X1.4990 Y-41.2975
G01 X1.5535 Y-41.4128
G01 X1.6191 Y-41.5222
G01 X1.6951 Y-41.6247
G01 X1.7808 Y-41.7192
G01 X1.8753 Y-41.8049
G01 X1.9778 Y-41.8809
G01 X2.0872 Y-41.9465
G01 X2.2025 Y-42.0010
G01 X2.3226 Y-42.0440
G01 X2.4464 Y-42.0750
G01 X2.5726 Y-42.0937
G01 X2.7000 Y-42.1000
G01 X56.0400 Y-42.1000
G00 X56.0400 Y-42.1000
G01 F60.00
G01 Z-1.5000
G01 F60.00
G01 X2.7000 Y-42.1000
G01 X2.5726 Y-42.0937
G01 X2.4464 Y-42.0750
G01 X2.3226 Y-42.0440
G01 X2.2025 Y-42.0010
G01 X2.0872 Y-41.9465
G01 X1.9778 Y-41.8809
G01 X1.8753 Y-41.8049
G01 X1.7808 Y-41.7192
G01 X1.6951 Y-41.6247
G01 X1.6191 Y-41.5222
G01 X1.5535 Y-41.4128
G01 X1.4990 Y-41.2975
G01 X1.4560 Y-41.1774
G01 X1.4250 Y-41.0536
G01 X1.4063 Y-40.9274
G01 X1.4000 Y-40.8000
G01 X1.4000 Y-2.7000
G01 X1.4063 Y-2.5726
G01 X1.4250 Y-2.4464
G01 X1.4560 Y-2.3226
G01 X1.4990 Y-2.2025
G01 X1.5535 Y-2.0872
G01 X1.6191 Y-1.9778
G01 X1.6951 Y-1.8753
G01 X1.7808 Y-1.7808
G01 X1.8753 Y-1.6951
G01 X1.9778 Y-1.6191
G01 X2.0872 Y-1.5535
G01 X2.2025 Y-1.4990
G01 X2.3226 Y-1.4560
G01 X2.4464 Y-1.4250
G01 X2.5726 Y-1.4063
G01 X2.7000 Y-1.4000
G01 X56.0400 Y-1.4000
G01 X56.1674 Y-1.4063
G01 X56.2936 Y-1.4250
G01 X56.4174 Y-1.4560
G01 X56.5375 Y-1.4990
G01 X56.6528 Y-1.5535
G01 X56.7622 Y-1.6191
G01 X56.8647 Y-1.6951
G01 X56.9592 Y-1.7808
G01 X57.0449 Y-1.8753
G01 X57.1209 Y-1.9778
G01 X57.1865 Y-2.0872
G01 X57.2410 Y-2.2025
G01 X57.2840 Y-2.3226
G01 X57.3150 Y-2.4464
G01 X57.3337 Y-2.5726
G01 X57.3400 Y-2.7000
G01 X57.3400 Y-40.8000
G01 X57.3337 Y-40.9274
G01 X57.3150 Y-41.0536
G01 X57.2840 Y-41.1774
G01 X57.2410 Y-41.2975
G01 X57.1865 Y-41.4128
G01 X57.1209 Y-41.5222
G01 X57.0449 Y-41.6247
G01 X56.9592 Y-41.7192
G01 X56.8647 Y-41.8049
G01 X56.7622 Y-41.8809
G01 X56.6528 Y-41.9465
G01 X56.5375 Y-42.0010
G01 X56.4174 Y-42.0440
G01 X56.2936 Y-42.0750
G01 X56.1674 Y-42.0937
G01 X56.0400 Y-42.1000
G00 X56.0400 Y-42.1000
G01 F60.00
G01 Z-1.8000
G01 F60.00
G01 X56.1674 Y-42.0937
G01 X56.2936 Y-42.0750
G01 X56.4174 Y-42.0440
G01 X56.5375 Y-42.0010
G01 X56.6528 Y-41.9465
G01 X56.7622 Y-41.8809
G01 X56.8647 Y-41.8049
G01 X56.9592 Y-41.7192
G01 X57.0449 Y-41.6247
G01 X57.1209 Y-41.5222
G01 X57.1865 Y-41.4128
G01 X57.2410 Y-41.2975
G01 X57.2840 Y-41.1774
G01 X57.3150 Y-41.0536
G01 X57.3337 Y-40.9274
G01 X57.3400 Y-40.8000
G01 X57.3400 Y-2.7000
G01 X57.3337 Y-2.5726
G01 X57.3150 Y-2.4464
G01 X57.2840 Y-2.3226
G01 X57.2410 Y-2.2025
G01 X57.1865 Y-2.0872
G01 X57.1209 Y-1.9778
G01 X57.0449 Y-1.8753
G01 X56.9592 Y-1.7808
G01 X56.8647 Y-1.6951
G01 X56.7622 Y-1.6191
G01 X56.6528 Y-1.5535
G01 X56.5375 Y-1.4990
G01 X56.4174 Y-1.4560
G01 X56.2936 Y-1.4250
G01 X56.1674 Y-1.4063
G01 X56.0400 Y-1.4000
G01 X2.7000 Y-1.4000
G01 X2.5726 Y-1.4063
G01 X2.4464 Y-1.4250
G01 X2.3226 Y-1.4560
G01 X2.2025 Y-1.4990
G01 X2.0872 Y-1.5535
G01 X1.9778 Y-1.6191
G01 X1.8753 Y-1.6951
G01 X1.7808 Y-1.7808
G01 X1.6951 Y-1.8753
G01 X1.6191 Y-1.9778
G01 X1.5535 Y-2.0872
G01 X1.4990 Y-2.2025
G01 X1.4560 Y-2.3226
G01 X1.4250 Y-2.4464
G01 X1.4063 Y-2.5726
G01 X1.4000 Y-2.7000
G01 X1.4000 Y-40.8000
G01 X1.4063 Y-40.9274
G01 X1.4250 Y-41.0536
G01 X1.4560 Y-41.1774
G01 X1.4990 Y-41.2975
G01 X1.5535 Y-41.4128
G01 X1.6191 Y-41.5222
G01 X1.6951 Y-41.6247
G01 X1.7808 Y-41.7192
G01 X1.8753 Y-41.8049
G01 X1.9778 Y-41.8809
G01 X2.0872 Y-41.9465
G01 X2.2025 Y-42.0010
G01 X2.3226 Y-42.0440
G01 X2.4464 Y-42.0750
G01 X2.5726 Y-42.0937
G01 X2.7000 Y-42.1000
G01 X56.0400 Y-42.1000
G00 Z2.0000
M05
G00 Z2.0000
G00 Z15.00


