(G-code generated by FlatCAM Evo vUnstable - Version Date: 2023/6/31)

(Name: chessbot-B_Cu.gbr_iso_combined_cnc)
(Type: G-code from Geometry)
(Units: MM)

(Created on Monday, 30 October 2023 at 13:45)

(This preprocessor is the default preprocessor.)
(It is made to work with MACH3 compatible motion controllers.)

(TOOL DIAMETER: 0.4875 mm)
(Feedrate_XY: 120.0 mm/min)
(Feedrate_Z: 60.0 mm/min)
(Feedrate rapids 1500.0 mm/min)

(Z_Cut: -0.07 mm)
(Z_Move: 2.0 mm)
(Z Start: None mm)
(Z End: 15.0 mm)
(X,Y End: None mm)
(Steps per circle: 16)
(Preprocessor Geometry: default)

(X range:    2.4562 ...   33.4238  mm)
(Y range:    2.2562 ...   53.5438  mm)

(Spindle Speed: 12000.0 RPM)
G21
G90
G94

G01 F120.00
G00 Z2.0000

M03 S12000.0
G01 F120.00
G00 X6.9259 Y11.7322
G01 F60.00
G01 Z-0.0700
G01 F120.00
G01 X6.7848 Y11.8854
G01 X6.6709 Y12.0598
G01 X6.5873 Y12.2505
G01 X6.5361 Y12.4524
G01 X6.5189 Y12.6600
G01 X6.5361 Y12.8676
G01 X6.5873 Y13.0695
G01 X6.6709 Y13.2602
G01 X6.7848 Y13.4346
G01 X6.9259 Y13.5878
G01 X7.0903 Y13.7157
G01 X7.2734 Y13.8148
G01 X7.4704 Y13.8825
G01 X7.6759 Y13.9167
G01 X7.8841 Y13.9167
G01 X8.0896 Y13.8825
G01 X8.2866 Y13.8148
G01 X8.4697 Y13.7157
G01 X8.6546 Y13.5749
G01 X8.7636 Y13.5297
G01 X8.8295 Y13.5175
G01 X15.4408 Y13.5167
G01 X15.5629 Y13.5051
G01 X15.7199 Y13.4590
G01 X15.8653 Y13.3840
G01 X15.9939 Y13.2829
G01 X16.1011 Y13.1592
G01 X16.1829 Y13.0175
G01 X16.2364 Y12.8629
G01 X16.2597 Y12.7010
G01 X16.2519 Y12.5375
G01 X16.2133 Y12.3785
G01 X16.1453 Y12.2297
G01 X16.0504 Y12.0964
G01 X15.9320 Y11.9835
G01 X15.8069 Y11.8978
G01 X15.7377 Y11.8193
G01 X15.7076 Y11.7699
G01 X15.6900 Y11.7148
G01 X15.6759 Y11.6111
G01 X15.6801 Y11.5533
G01 X15.6953 Y11.5035
G01 X15.7426 Y11.4053
G01 X15.7942 Y11.3472
G01 X15.8772 Y11.2904
G01 X16.0897 Y11.1757
G01 X16.2541 Y11.0478
G01 X16.4248 Y10.8661
G01 X16.5232 Y10.8043
G01 X16.5770 Y10.7832
G01 X16.6344 Y10.7753
G01 X16.7268 Y10.7780
G01 X16.8114 Y10.8001
G01 X16.9181 Y10.8684
G01 X17.0859 Y11.0478
G01 X17.2503 Y11.1757
G01 X17.4334 Y11.2748
G01 X17.6304 Y11.3425
G01 X17.8359 Y11.3767
G01 X18.0441 Y11.3767
G01 X18.2496 Y11.3425
G01 X18.4466 Y11.2748
G01 X18.6297 Y11.1757
G01 X18.7941 Y11.0478
G01 X18.9434 Y10.8857
G01 X18.9834 Y10.8523
G01 X19.0949 Y10.7901
G01 X19.1802 Y10.7753
G01 X19.2994 Y10.7827
G01 X19.3803 Y10.8160
G01 X19.4659 Y10.8752
G01 X19.6259 Y11.0478
G01 X19.7903 Y11.1757
G01 X19.9734 Y11.2748
G01 X20.1704 Y11.3425
G01 X20.3759 Y11.3767
G01 X20.5841 Y11.3767
G01 X20.7896 Y11.3425
G01 X20.9866 Y11.2748
G01 X21.1697 Y11.1757
G01 X21.3341 Y11.0478
G01 X21.4834 Y10.8857
G01 X21.5234 Y10.8523
G01 X21.6349 Y10.7901
G01 X21.7202 Y10.7753
G01 X21.8394 Y10.7827
G01 X21.9203 Y10.8160
G01 X22.0059 Y10.8752
G01 X22.1659 Y11.0478
G01 X22.3303 Y11.1757
G01 X22.5134 Y11.2748
G01 X22.7104 Y11.3425
G01 X22.9159 Y11.3767
G01 X23.1241 Y11.3767
G01 X23.3296 Y11.3425
G01 X23.5266 Y11.2748
G01 X23.7097 Y11.1757
G01 X23.8741 Y11.0478
G01 X24.0234 Y10.8857
G01 X24.0732 Y10.8461
G01 X24.1432 Y10.8043
G01 X24.1970 Y10.7832
G01 X24.2544 Y10.7753
G01 X24.3468 Y10.7780
G01 X24.4314 Y10.8001
G01 X24.5216 Y10.8557
G01 X24.7059 Y11.0478
G01 X24.8703 Y11.1757
G01 X25.0534 Y11.2748
G01 X25.2504 Y11.3425
G01 X25.4559 Y11.3767
G01 X25.6641 Y11.3767
G01 X25.8696 Y11.3425
G01 X26.0666 Y11.2748
G01 X26.2497 Y11.1757
G01 X26.4141 Y11.0478
G01 X26.5634 Y10.8857
G01 X26.6132 Y10.8461
G01 X26.6832 Y10.8043
G01 X26.7370 Y10.7832
G01 X26.7944 Y10.7753
G01 X26.8813 Y10.7777
G01 X26.9614 Y10.7957
G01 X27.0616 Y10.8557
G01 X27.2459 Y11.0478
G01 X27.4103 Y11.1757
G01 X27.5934 Y11.2748
G01 X27.7904 Y11.3425
G01 X27.9959 Y11.3767
G01 X28.2041 Y11.3767
G01 X28.4096 Y11.3425
G01 X28.6066 Y11.2748
G01 X28.7897 Y11.1757
G01 X28.9541 Y11.0478
G01 X29.0952 Y10.8946
G01 X29.2091 Y10.7202
G01 X29.2927 Y10.5295
G01 X29.3439 Y10.3276
G01 X29.3611 Y10.1200
G01 X29.3439 Y9.9124
G01 X29.2927 Y9.7105
G01 X29.2091 Y9.5198
G01 X29.0952 Y9.3454
G01 X28.9541 Y9.1922
G01 X28.7897 Y9.0643
G01 X28.6066 Y8.9652
G01 X28.4096 Y8.8975
G01 X28.2041 Y8.8633
G01 X27.9959 Y8.8633
G01 X27.7904 Y8.8975
G01 X27.5934 Y8.9652
G01 X27.4103 Y9.0643
G01 X27.2459 Y9.1922
G01 X27.0966 Y9.3543
G01 X27.0566 Y9.3877
G01 X26.9451 Y9.4499
G01 X26.8598 Y9.4647
G01 X26.7406 Y9.4573
G01 X26.6597 Y9.4240
G01 X26.5741 Y9.3648
G01 X26.4141 Y9.1922
G01 X26.2497 Y9.0643
G01 X26.0666 Y8.9652
G01 X25.8696 Y8.8975
G01 X25.6641 Y8.8633
G01 X25.4559 Y8.8633
G01 X25.2504 Y8.8975
G01 X25.0534 Y8.9652
G01 X24.8703 Y9.0643
G01 X24.7059 Y9.1922
G01 X24.5566 Y9.3543
G01 X24.5166 Y9.3877
G01 X24.4051 Y9.4499
G01 X24.3198 Y9.4647
G01 X24.2006 Y9.4573
G01 X24.1197 Y9.4240
G01 X24.0341 Y9.3648
G01 X23.8741 Y9.1922
G01 X23.7097 Y9.0643
G01 X23.5266 Y8.9652
G01 X23.3296 Y8.8975
G01 X23.1241 Y8.8633
G01 X22.9159 Y8.8633
G01 X22.7104 Y8.8975
G01 X22.5134 Y8.9652
G01 X22.3303 Y9.0643
G01 X22.1659 Y9.1922
G01 X22.0166 Y9.3543
G01 X21.9766 Y9.3877
G01 X21.8651 Y9.4499
G01 X21.7798 Y9.4647
G01 X21.6606 Y9.4573
G01 X21.5797 Y9.4240
G01 X21.4941 Y9.3648
G01 X21.3341 Y9.1922
G01 X21.1697 Y9.0643
G01 X20.9866 Y8.9652
G01 X20.7896 Y8.8975
G01 X20.5841 Y8.8633
G01 X20.3759 Y8.8633
G01 X20.1704 Y8.8975
G01 X19.9734 Y8.9652
G01 X19.7903 Y9.0643
G01 X19.6259 Y9.1922
G01 X19.4766 Y9.3543
G01 X19.4366 Y9.3877
G01 X19.3251 Y9.4499
G01 X19.2398 Y9.4647
G01 X19.1206 Y9.4573
G01 X19.0397 Y9.4240
G01 X18.9541 Y9.3648
G01 X18.7941 Y9.1922
G01 X18.6297 Y9.0643
G01 X18.4466 Y8.9652
G01 X18.2496 Y8.8975
G01 X18.0441 Y8.8633
G01 X17.8359 Y8.8633
G01 X17.6304 Y8.8975
G01 X17.4334 Y8.9652
G01 X17.2503 Y9.0643
G01 X17.0859 Y9.1922
G01 X16.9366 Y9.3543
G01 X16.8966 Y9.3877
G01 X16.7851 Y9.4499
G01 X16.6998 Y9.4647
G01 X16.5806 Y9.4573
G01 X16.4997 Y9.4240
G01 X16.4141 Y9.3648
G01 X16.2541 Y9.1922
G01 X16.0897 Y9.0643
G01 X15.9066 Y8.9652
G01 X15.7096 Y8.8975
G01 X15.5041 Y8.8633
G01 X15.2959 Y8.8633
G01 X15.0904 Y8.8975
G01 X14.8934 Y8.9652
G01 X14.7103 Y9.0643
G01 X14.5459 Y9.1922
G01 X14.4048 Y9.3454
G01 X14.2909 Y9.5198
G01 X14.2073 Y9.7105
G01 X14.1561 Y9.9124
G01 X14.1389 Y10.1200
G01 X14.1561 Y10.3276
G01 X14.2073 Y10.5295
G01 X14.2909 Y10.7202
G01 X14.4048 Y10.8946
G01 X14.5459 Y11.0478
G01 X14.7049 Y11.1771
G01 X14.7667 Y11.2615
G01 X14.7958 Y11.3245
G01 X14.8096 Y11.4571
G01 X14.8002 Y11.5316
G01 X14.7370 Y11.6556
G01 X14.6737 Y11.7227
G01 X14.5500 Y11.7872
G01 X14.4513 Y11.8032
G01 X11.2631 Y11.8030
G01 X11.2116 Y11.7949
G01 X11.1064 Y11.7615
G01 X11.0663 Y11.7384
G01 X11.0234 Y11.6994
G01 X10.9633 Y11.6284
G01 X10.9356 Y11.5776
G01 X10.9107 Y11.4525
G01 X10.9093 Y11.3947
G01 X10.9279 Y11.3219
G01 X10.9896 Y11.2033
G01 X11.0396 Y11.1528
G01 X11.1741 Y11.0478
G01 X11.3152 Y10.8946
G01 X11.4291 Y10.7202
G01 X11.5127 Y10.5295
G01 X11.5639 Y10.3276
G01 X11.5811 Y10.1200
G01 X11.5639 Y9.9124
G01 X11.5127 Y9.7105
G01 X11.4291 Y9.5198
G01 X11.3152 Y9.3454
G01 X11.1741 Y9.1922
G01 X11.0097 Y9.0643
G01 X10.8266 Y8.9652
G01 X10.6296 Y8.8975
G01 X10.4241 Y8.8633
G01 X10.2159 Y8.8633
G01 X10.0104 Y8.8975
G01 X9.8134 Y8.9652
G01 X9.6303 Y9.0643
G01 X9.4659 Y9.1922
G01 X9.3248 Y9.3454
G01 X9.2109 Y9.5198
G01 X9.1273 Y9.7105
G01 X9.0761 Y9.9124
G01 X9.0589 Y10.1200
G01 X9.0761 Y10.3276
G01 X9.1273 Y10.5295
G01 X9.2109 Y10.7202
G01 X9.3248 Y10.8946
G01 X9.4659 Y11.0478
G01 X9.6249 Y11.1771
G01 X9.6867 Y11.2615
G01 X9.7158 Y11.3245
G01 X9.7296 Y11.4571
G01 X9.7202 Y11.5316
G01 X9.6601 Y11.6506
G01 X9.6119 Y11.7082
G01 X9.4917 Y11.7784
G01 X9.4190 Y11.7991
G01 X8.8169 Y11.8008
G01 X8.6664 Y11.7530
G01 X8.4697 Y11.6043
G01 X8.2866 Y11.5052
G01 X8.0896 Y11.4375
G01 X7.8841 Y11.4033
G01 X7.6759 Y11.4033
G01 X7.4704 Y11.4375
G01 X7.2734 Y11.5052
G01 X7.0903 Y11.6043
G01 X6.9259 Y11.7322
G00 Z2.0000
G00 X11.5372 Y9.8657
G01 F60.00
G01 Z-0.0700
G01 F120.00
G01 X11.5578 Y9.9981
G01 X11.5637 Y10.1200
G01 X11.5578 Y10.2419
G01 X11.5399 Y10.3626
G01 X11.5102 Y10.4810
G01 X11.4691 Y10.5960
G01 X11.4169 Y10.7063
G01 X11.3541 Y10.8110
G01 X11.2814 Y10.9090
G01 X11.1995 Y10.9995
G01 X11.1090 Y11.0814
G01 X11.0110 Y11.1541
G01 X10.9063 Y11.2169
G01 X10.7960 Y11.2691
G01 X10.6810 Y11.3102
G01 X10.5626 Y11.3399
G01 X10.4419 Y11.3578
G01 X10.3200 Y11.3637
G01 X10.1981 Y11.3578
G01 X10.0774 Y11.3399
G01 X9.9590 Y11.3102
G01 X9.8440 Y11.2691
G01 X9.7337 Y11.2169
G01 X9.6290 Y11.1541
G01 X9.5310 Y11.0814
G01 X9.4405 Y10.9995
G01 X9.3586 Y10.9090
G01 X9.2859 Y10.8110
G01 X9.2231 Y10.7063
G01 X9.1709 Y10.5960
G01 X9.1298 Y10.4810
G01 X9.1001 Y10.3626
G01 X9.0822 Y10.2419
G01 X9.0763 Y10.1200
G01 X9.0822 Y9.9981
G01 X9.1001 Y9.8774
G01 X9.1298 Y9.7590
G01 X9.1709 Y9.6440
G01 X9.2231 Y9.5337
G01 X9.2859 Y9.4290
G01 X9.3586 Y9.3310
G01 X9.4405 Y9.2405
G01 X9.5310 Y9.1586
G01 X9.6290 Y9.0859
G01 X9.7337 Y9.0231
G01 X9.8440 Y8.9709
G01 X9.9590 Y8.9298
G01 X10.0774 Y8.9001
G01 X10.1981 Y8.8822
G01 X10.3200 Y8.8763
G01 X10.4419 Y8.8822
G01 X10.5626 Y8.9001
G01 X10.6810 Y8.9298
G01 X10.7960 Y8.9709
G01 X10.9063 Y9.0231
G01 X11.0110 Y9.0859
G01 X11.1090 Y9.1586
G01 X11.1995 Y9.2405
G01 X11.2814 Y9.3310
G01 X11.3541 Y9.4290
G01 X11.4169 Y9.5337
G01 X11.4691 Y9.6440
G01 X11.5102 Y9.7590
G01 X11.5372 Y9.8657
G00 Z2.0000
G00 X16.6199 Y9.8774
G01 F60.00
G01 Z-0.0700
G01 F120.00
G01 X16.6378 Y9.9981
G01 X16.6437 Y10.1200
G01 X16.6378 Y10.2419
G01 X16.6199 Y10.3626
G01 X16.5902 Y10.4810
G01 X16.5491 Y10.5960
G01 X16.4969 Y10.7063
G01 X16.4341 Y10.8110
G01 X16.3614 Y10.9090
G01 X16.2795 Y10.9995
G01 X16.1890 Y11.0814
G01 X16.0910 Y11.1541
G01 X15.9863 Y11.2169
G01 X15.8760 Y11.2691
G01 X15.7610 Y11.3102
G01 X15.6426 Y11.3399
G01 X15.5219 Y11.3578
G01 X15.4000 Y11.3637
G01 X15.2781 Y11.3578
G01 X15.1574 Y11.3399
G01 X15.0390 Y11.3102
G01 X14.9240 Y11.2691
G01 X14.8137 Y11.2169
G01 X14.7090 Y11.1541
G01 X14.6110 Y11.0814
G01 X14.5205 Y10.9995
G01 X14.4386 Y10.9090
G01 X14.3659 Y10.8110
G01 X14.3031 Y10.7063
G01 X14.2509 Y10.5960
G01 X14.2098 Y10.4810
G01 X14.1801 Y10.3626
G01 X14.1622 Y10.2419
G01 X14.1563 Y10.1200
G01 X14.1622 Y9.9981
G01 X14.1801 Y9.8774
G01 X14.2098 Y9.7590
G01 X14.2509 Y9.6440
G01 X14.3031 Y9.5337
G01 X14.3659 Y9.4290
G01 X14.4386 Y9.3310
G01 X14.5205 Y9.2405
G01 X14.6110 Y9.1586
G01 X14.7090 Y9.0859
G01 X14.8137 Y9.0231
G01 X14.9240 Y8.9709
G01 X15.0390 Y8.9298
G01 X15.1574 Y8.9001
G01 X15.2781 Y8.8822
G01 X15.4000 Y8.8763
G01 X15.5219 Y8.8822
G01 X15.6426 Y8.9001
G01 X15.7610 Y8.9298
G01 X15.8760 Y8.9709
G01 X15.9863 Y9.0231
G01 X16.0910 Y9.0859
G01 X16.1890 Y9.1586
G01 X16.2795 Y9.2405
G01 X16.3614 Y9.3310
G01 X16.4341 Y9.4290
G01 X16.4969 Y9.5337
G01 X16.5491 Y9.6440
G01 X16.5902 Y9.7590
G01 X16.6199 Y9.8774
G00 Z2.0000
G00 X19.1572 Y9.8657
G01 F60.00
G01 Z-0.0700
G01 F120.00
G01 X19.1778 Y9.9981
G01 X19.1837 Y10.1200
G01 X19.1778 Y10.2419
G01 X19.1599 Y10.3626
G01 X19.1302 Y10.4810
G01 X19.0891 Y10.5960
G01 X19.0369 Y10.7063
G01 X18.9741 Y10.8110
G01 X18.9014 Y10.9090
G01 X18.8195 Y10.9995
G01 X18.7290 Y11.0814
G01 X18.6310 Y11.1541
G01 X18.5263 Y11.2169
G01 X18.4160 Y11.2691
G01 X18.3010 Y11.3102
G01 X18.1826 Y11.3399
G01 X18.0619 Y11.3578
G01 X17.9400 Y11.3637
G01 X17.8181 Y11.3578
G01 X17.6974 Y11.3399
G01 X17.5790 Y11.3102
G01 X17.4640 Y11.2691
G01 X17.3537 Y11.2169
G01 X17.2490 Y11.1541
G01 X17.1510 Y11.0814
G01 X17.0605 Y10.9995
G01 X16.9786 Y10.9090
G01 X16.9059 Y10.8110
G01 X16.8431 Y10.7063
G01 X16.7909 Y10.5960
G01 X16.7498 Y10.4810
G01 X16.7201 Y10.3626
G01 X16.7022 Y10.2419
G01 X16.6963 Y10.1200
G01 X16.7022 Y9.9981
G01 X16.7201 Y9.8774
G01 X16.7498 Y9.7590
G01 X16.7909 Y9.6440
G01 X16.8431 Y9.5337
G01 X16.9059 Y9.4290
G01 X16.9786 Y9.3310
G01 X17.0605 Y9.2405
G01 X17.1510 Y9.1586
G01 X17.2490 Y9.0859
G01 X17.3537 Y9.0231
G01 X17.4640 Y8.9709
G01 X17.5790 Y8.9298
G01 X17.6974 Y8.9001
G01 X17.8181 Y8.8822
G01 X17.9400 Y8.8763
G01 X18.0619 Y8.8822
G01 X18.1826 Y8.9001
G01 X18.3010 Y8.9298
G01 X18.4160 Y8.9709
G01 X18.5263 Y9.0231
G01 X18.6310 Y9.0859
G01 X18.7290 Y9.1586
G01 X18.8195 Y9.2405
G01 X18.9014 Y9.3310
G01 X18.9741 Y9.4290
G01 X19.0369 Y9.5337
G01 X19.0891 Y9.6440
G01 X19.1302 Y9.7590
G01 X19.1572 Y9.8657
G00 Z2.0000
G00 X21.6972 Y9.8657
G01 F60.00
G01 Z-0.0700
G01 F120.00
G01 X21.7178 Y9.9981
G01 X21.7237 Y10.1200
G01 X21.7178 Y10.2419
G01 X21.6999 Y10.3626
G01 X21.6702 Y10.4810
G01 X21.6291 Y10.5960
G01 X21.5769 Y10.7063
G01 X21.5141 Y10.8110
G01 X21.4414 Y10.9090
G01 X21.3595 Y10.9995
G01 X21.2690 Y11.0814
G01 X21.1710 Y11.1541
G01 X21.0663 Y11.2169
G01 X20.9560 Y11.2691
G01 X20.8410 Y11.3102
G01 X20.7226 Y11.3399
G01 X20.6019 Y11.3578
G01 X20.4800 Y11.3637
G01 X20.3581 Y11.3578
G01 X20.2374 Y11.3399
G01 X20.1190 Y11.3102
G01 X20.0040 Y11.2691
G01 X19.8937 Y11.2169
G01 X19.7890 Y11.1541
G01 X19.6910 Y11.0814
G01 X19.6005 Y10.9995
G01 X19.5186 Y10.9090
G01 X19.4459 Y10.8110
G01 X19.3831 Y10.7063
G01 X19.3309 Y10.5960
G01 X19.2898 Y10.4810
G01 X19.2601 Y10.3626
G01 X19.2422 Y10.2419
G01 X19.2363 Y10.1200
G01 X19.2422 Y9.9981
G01 X19.2601 Y9.8774
G01 X19.2898 Y9.7590
G01 X19.3309 Y9.6440
G01 X19.3831 Y9.5337
G01 X19.4459 Y9.4290
G01 X19.5186 Y9.3310
G01 X19.6005 Y9.2405
G01 X19.6910 Y9.1586
G01 X19.7890 Y9.0859
G01 X19.8937 Y9.0231
G01 X20.0040 Y8.9709
G01 X20.1190 Y8.9298
G01 X20.2374 Y8.9001
G01 X20.3581 Y8.8822
G01 X20.4800 Y8.8763
G01 X20.6019 Y8.8822
G01 X20.7226 Y8.9001
G01 X20.8410 Y8.9298
G01 X20.9560 Y8.9709
G01 X21.0663 Y9.0231
G01 X21.1710 Y9.0859
G01 X21.2690 Y9.1586
G01 X21.3595 Y9.2405
G01 X21.4414 Y9.3310
G01 X21.5141 Y9.4290
G01 X21.5769 Y9.5337
G01 X21.6291 Y9.6440
G01 X21.6702 Y9.7590
G01 X21.6972 Y9.8657
G00 Z2.0000
G00 X24.2399 Y9.8774
G01 F60.00
G01 Z-0.0700
G01 F120.00
G01 X24.2578 Y9.9981
G01 X24.2637 Y10.1200
G01 X24.2578 Y10.2419
G01 X24.2399 Y10.3626
G01 X24.2102 Y10.4810
G01 X24.1691 Y10.5960
G01 X24.1169 Y10.7063
G01 X24.0541 Y10.8110
G01 X23.9814 Y10.9090
G01 X23.8995 Y10.9995
G01 X23.8090 Y11.0814
G01 X23.7110 Y11.1541
G01 X23.6063 Y11.2169
G01 X23.4960 Y11.2691
G01 X23.3810 Y11.3102
G01 X23.2626 Y11.3399
G01 X23.1419 Y11.3578
G01 X23.0200 Y11.3637
G01 X22.8981 Y11.3578
G01 X22.7774 Y11.3399
G01 X22.6590 Y11.3102
G01 X22.5440 Y11.2691
G01 X22.4337 Y11.2169
G01 X22.3290 Y11.1541
G01 X22.2310 Y11.0814
G01 X22.1405 Y10.9995
G01 X22.0586 Y10.9090
G01 X21.9859 Y10.8110
G01 X21.9231 Y10.7063
G01 X21.8709 Y10.5960
G01 X21.8298 Y10.4810
G01 X21.8001 Y10.3626
G01 X21.7822 Y10.2419
G01 X21.7763 Y10.1200
G01 X21.7822 Y9.9981
G01 X21.8001 Y9.8774
G01 X21.8298 Y9.7590
G01 X21.8709 Y9.6440
G01 X21.9231 Y9.5337
G01 X21.9859 Y9.4290
G01 X22.0586 Y9.3310
G01 X22.1405 Y9.2405
G01 X22.2310 Y9.1586
G01 X22.3290 Y9.0859
G01 X22.4337 Y9.0231
G01 X22.5440 Y8.9709
G01 X22.6590 Y8.9298
G01 X22.7774 Y8.9001
G01 X22.8981 Y8.8822
G01 X23.0200 Y8.8763
G01 X23.1419 Y8.8822
G01 X23.2626 Y8.9001
G01 X23.3810 Y8.9298
G01 X23.4960 Y8.9709
G01 X23.6063 Y9.0231
G01 X23.7110 Y9.0859
G01 X23.8090 Y9.1586
G01 X23.8995 Y9.2405
G01 X23.9814 Y9.3310
G01 X24.0541 Y9.4290
G01 X24.1169 Y9.5337
G01 X24.1691 Y9.6440
G01 X24.2102 Y9.7590
G01 X24.2399 Y9.8774
G00 Z2.0000
G00 X26.7772 Y9.8657
G01 F60.00
G01 Z-0.0700
G01 F120.00
G01 X26.7978 Y9.9981
G01 X26.8037 Y10.1200
G01 X26.7978 Y10.2419
G01 X26.7799 Y10.3626
G01 X26.7502 Y10.4810
G01 X26.7091 Y10.5960
G01 X26.6569 Y10.7063
G01 X26.5941 Y10.8110
G01 X26.5214 Y10.9090
G01 X26.4395 Y10.9995
G01 X26.3490 Y11.0814
G01 X26.2510 Y11.1541
G01 X26.1463 Y11.2169
G01 X26.0360 Y11.2691
G01 X25.9210 Y11.3102
G01 X25.8026 Y11.3399
G01 X25.6819 Y11.3578
G01 X25.5600 Y11.3637
G01 X25.4381 Y11.3578
G01 X25.3174 Y11.3399
G01 X25.1990 Y11.3102
G01 X25.0840 Y11.2691
G01 X24.9737 Y11.2169
G01 X24.8690 Y11.1541
G01 X24.7710 Y11.0814
G01 X24.6805 Y10.9995
G01 X24.5986 Y10.9090
G01 X24.5259 Y10.8110
G01 X24.4631 Y10.7063
G01 X24.4109 Y10.5960
G01 X24.3698 Y10.4810
G01 X24.3401 Y10.3626
G01 X24.3222 Y10.2419
G01 X24.3163 Y10.1200
G01 X24.3222 Y9.9981
G01 X24.3401 Y9.8774
G01 X24.3698 Y9.7590
G01 X24.4109 Y9.6440
G01 X24.4631 Y9.5337
G01 X24.5259 Y9.4290
G01 X24.5986 Y9.3310
G01 X24.6805 Y9.2405
G01 X24.7710 Y9.1586
G01 X24.8690 Y9.0859
G01 X24.9737 Y9.0231
G01 X25.0840 Y8.9709
G01 X25.1990 Y8.9298
G01 X25.3174 Y8.9001
G01 X25.4381 Y8.8822
G01 X25.5600 Y8.8763
G01 X25.6819 Y8.8822
G01 X25.8026 Y8.9001
G01 X25.9210 Y8.9298
G01 X26.0360 Y8.9709
G01 X26.1463 Y9.0231
G01 X26.2510 Y9.0859
G01 X26.3490 Y9.1586
G01 X26.4395 Y9.2405
G01 X26.5214 Y9.3310
G01 X26.5941 Y9.4290
G01 X26.6569 Y9.5337
G01 X26.7091 Y9.6440
G01 X26.7502 Y9.7590
G01 X26.7772 Y9.8657
G00 Z2.0000
G00 X29.3172 Y9.8657
G01 F60.00
G01 Z-0.0700
G01 F120.00
G01 X29.3378 Y9.9981
G01 X29.3437 Y10.1200
G01 X29.3378 Y10.2419
G01 X29.3199 Y10.3626
G01 X29.2902 Y10.4810
G01 X29.2491 Y10.5960
G01 X29.1969 Y10.7063
G01 X29.1341 Y10.8110
G01 X29.0614 Y10.9090
G01 X28.9795 Y10.9995
G01 X28.8890 Y11.0814
G01 X28.7910 Y11.1541
G01 X28.6863 Y11.2169
G01 X28.5760 Y11.2691
G01 X28.4610 Y11.3102
G01 X28.3426 Y11.3399
G01 X28.2219 Y11.3578
G01 X28.1000 Y11.3637
G01 X27.9781 Y11.3578
G01 X27.8574 Y11.3399
G01 X27.7390 Y11.3102
G01 X27.6240 Y11.2691
G01 X27.5137 Y11.2169
G01 X27.4090 Y11.1541
G01 X27.3110 Y11.0814
G01 X27.2205 Y10.9995
G01 X27.1386 Y10.9090
G01 X27.0659 Y10.8110
G01 X27.0031 Y10.7063
G01 X26.9509 Y10.5960
G01 X26.9098 Y10.4810
G01 X26.8801 Y10.3626
G01 X26.8622 Y10.2419
G01 X26.8563 Y10.1200
G01 X26.8622 Y9.9981
G01 X26.8801 Y9.8774
G01 X26.9098 Y9.7590
G01 X26.9509 Y9.6440
G01 X27.0031 Y9.5337
G01 X27.0659 Y9.4290
G01 X27.1386 Y9.3310
G01 X27.2205 Y9.2405
G01 X27.3110 Y9.1586
G01 X27.4090 Y9.0859
G01 X27.5137 Y9.0231
G01 X27.6240 Y8.9709
G01 X27.7390 Y8.9298
G01 X27.8574 Y8.9001
G01 X27.9781 Y8.8822
G01 X28.1000 Y8.8763
G01 X28.2219 Y8.8822
G01 X28.3426 Y8.9001
G01 X28.4610 Y8.9298
G01 X28.5760 Y8.9709
G01 X28.6863 Y9.0231
G01 X28.7910 Y9.0859
G01 X28.8890 Y9.1586
G01 X28.9795 Y9.2405
G01 X29.0614 Y9.3310
G01 X29.1341 Y9.4290
G01 X29.1969 Y9.5337
G01 X29.2491 Y9.6440
G01 X29.2902 Y9.7590
G01 X29.3172 Y9.8657
G00 Z2.0000
G00 X31.8599 Y12.4474
G01 F60.00
G01 Z-0.0700
G01 F120.00
G01 X31.8778 Y12.5681
G01 X31.8837 Y12.6900
G01 X31.8778 Y12.8119
G01 X31.8599 Y12.9326
G01 X31.8302 Y13.0510
G01 X31.7891 Y13.1660
G01 X31.7369 Y13.2763
G01 X31.6741 Y13.3810
G01 X31.6014 Y13.4790
G01 X31.5195 Y13.5695
G01 X31.4290 Y13.6514
G01 X31.3310 Y13.7241
G01 X31.2263 Y13.7869
G01 X31.1160 Y13.8391
G01 X31.0010 Y13.8802
G01 X30.8826 Y13.9099
G01 X30.7619 Y13.9278
G01 X30.6400 Y13.9337
G01 X30.5181 Y13.9278
G01 X30.3974 Y13.9099
G01 X30.2790 Y13.8802
G01 X30.1640 Y13.8391
G01 X30.0537 Y13.7869
G01 X29.9490 Y13.7241
G01 X29.8510 Y13.6514
G01 X29.7605 Y13.5695
G01 X29.6786 Y13.4790
G01 X29.6059 Y13.3810
G01 X29.5431 Y13.2763
G01 X29.4909 Y13.1660
G01 X29.4498 Y13.0510
G01 X29.4201 Y12.9326
G01 X29.4022 Y12.8119
G01 X29.3963 Y12.6900
G01 X29.4022 Y12.5681
G01 X29.4201 Y12.4474
G01 X29.4498 Y12.3290
G01 X29.4909 Y12.2140
G01 X29.5431 Y12.1037
G01 X29.6059 Y11.9990
G01 X29.6786 Y11.9010
G01 X29.7605 Y11.8105
G01 X29.8510 Y11.7286
G01 X29.9490 Y11.6559
G01 X30.0537 Y11.5931
G01 X30.1640 Y11.5409
G01 X30.2790 Y11.4998
G01 X30.3974 Y11.4701
G01 X30.5181 Y11.4522
G01 X30.6400 Y11.4463
G01 X30.7619 Y11.4522
G01 X30.8826 Y11.4701
G01 X31.0010 Y11.4998
G01 X31.1160 Y11.5409
G01 X31.2263 Y11.5931
G01 X31.3310 Y11.6559
G01 X31.4290 Y11.7286
G01 X31.5195 Y11.8105
G01 X31.6014 Y11.9010
G01 X31.6741 Y11.9990
G01 X31.7369 Y12.1037
G01 X31.7891 Y12.2140
G01 X31.8302 Y12.3290
G01 X31.8599 Y12.4474
G00 Z2.0000
G00 X31.8572 Y14.9757
G01 F60.00
G01 Z-0.0700
G01 F120.00
G01 X31.8778 Y15.1081
G01 X31.8837 Y15.2300
G01 X31.8778 Y15.3519
G01 X31.8599 Y15.4726
G01 X31.8302 Y15.5910
G01 X31.7891 Y15.7060
G01 X31.7369 Y15.8163
G01 X31.6741 Y15.9210
G01 X31.6014 Y16.0190
G01 X31.5195 Y16.1095
G01 X31.4290 Y16.1914
G01 X31.3310 Y16.2641
G01 X31.2263 Y16.3269
G01 X31.1160 Y16.3791
G01 X31.0010 Y16.4202
G01 X30.8826 Y16.4499
G01 X30.7619 Y16.4678
G01 X30.6400 Y16.4737
G01 X30.5181 Y16.4678
G01 X30.3974 Y16.4499
G01 X30.2790 Y16.4202
G01 X30.1640 Y16.3791
G01 X30.0537 Y16.3269
G01 X29.9490 Y16.2641
G01 X29.8510 Y16.1914
G01 X29.7605 Y16.1095
G01 X29.6786 Y16.0190
G01 X29.6059 Y15.9210
G01 X29.5431 Y15.8163
G01 X29.4909 Y15.7060
G01 X29.4498 Y15.5910
G01 X29.4201 Y15.4726
G01 X29.4022 Y15.3519
G01 X29.3963 Y15.2300
G01 X29.4022 Y15.1081
G01 X29.4201 Y14.9874
G01 X29.4498 Y14.8690
G01 X29.4909 Y14.7540
G01 X29.5431 Y14.6437
G01 X29.6059 Y14.5390
G01 X29.6786 Y14.4410
G01 X29.7605 Y14.3505
G01 X29.8510 Y14.2686
G01 X29.9490 Y14.1959
G01 X30.0537 Y14.1331
G01 X30.1640 Y14.0809
G01 X30.2790 Y14.0398
G01 X30.3974 Y14.0101
G01 X30.5181 Y13.9922
G01 X30.6400 Y13.9863
G01 X30.7619 Y13.9922
G01 X30.8826 Y14.0101
G01 X31.0010 Y14.0398
G01 X31.1160 Y14.0809
G01 X31.2263 Y14.1331
G01 X31.3310 Y14.1959
G01 X31.4290 Y14.2686
G01 X31.5195 Y14.3505
G01 X31.6014 Y14.4410
G01 X31.6741 Y14.5390
G01 X31.7369 Y14.6437
G01 X31.7891 Y14.7540
G01 X31.8302 Y14.8690
G01 X31.8572 Y14.9757
G00 Z2.0000
G00 X29.8510 Y18.7314
G01 F60.00
G01 Z-0.0700
G01 F120.00
G01 X29.7182 Y18.6032
G01 X28.0193 Y18.5800
G01 X27.8455 Y18.5448
G01 X27.6934 Y18.4796
G01 X27.5569 Y18.3861
G01 X27.4413 Y18.2677
G01 X27.3510 Y18.1291
G01 X27.2895 Y17.9755
G01 X27.2591 Y17.8128
G01 X27.2610 Y17.6474
G01 X27.2952 Y17.4855
G01 X27.3604 Y17.3334
G01 X27.4539 Y17.1969
G01 X27.5723 Y17.0813
G01 X27.7109 Y16.9910
G01 X27.8761 Y16.9264
G01 X28.0153 Y16.9004
G01 X28.1040 Y16.8960
G01 X29.7378 Y16.9152
G01 X29.8604 Y16.8012
G01 X29.9490 Y16.7359
G01 X30.0644 Y16.6677
G01 X30.1640 Y16.6209
G01 X30.2790 Y16.5798
G01 X30.3974 Y16.5501
G01 X30.5062 Y16.5337
G01 X30.6400 Y16.5263
G01 X30.7619 Y16.5322
G01 X30.8826 Y16.5501
G01 X31.0010 Y16.5798
G01 X31.1160 Y16.6209
G01 X31.2263 Y16.6731
G01 X31.3310 Y16.7359
G01 X31.4290 Y16.8086
G01 X31.5195 Y16.8905
G01 X31.6014 Y16.9810
G01 X31.6741 Y17.0790
G01 X31.7369 Y17.1837
G01 X31.7891 Y17.2940
G01 X31.8302 Y17.4090
G01 X31.8599 Y17.5274
G01 X31.8778 Y17.6481
G01 X31.8837 Y17.7700
G01 X31.8778 Y17.8919
G01 X31.8599 Y18.0126
G01 X31.8302 Y18.1310
G01 X31.7891 Y18.2460
G01 X31.7369 Y18.3563
G01 X31.6741 Y18.4610
G01 X31.6014 Y18.5590
G01 X31.5195 Y18.6495
G01 X31.4290 Y18.7314
G01 X31.3310 Y18.8041
G01 X31.2263 Y18.8669
G01 X31.1160 Y18.9191
G01 X31.0010 Y18.9602
G01 X30.8826 Y18.9899
G01 X30.7619 Y19.0078
G01 X30.6400 Y19.0137
G01 X30.5181 Y19.0078
G01 X30.3974 Y18.9899
G01 X30.2790 Y18.9602
G01 X30.1640 Y18.9191
G01 X30.0537 Y18.8669
G01 X29.9490 Y18.8041
G01 X29.8510 Y18.7314
G00 Z2.0000
G00 X29.8419 Y21.2636
G01 F60.00
G01 Z-0.0700
G01 F120.00
G01 X29.7182 Y21.1432
G01 X28.0193 Y21.1200
G01 X27.8455 Y21.0848
G01 X27.6934 Y21.0196
G01 X27.5569 Y20.9261
G01 X27.4413 Y20.8077
G01 X27.3510 Y20.6691
G01 X27.2895 Y20.5155
G01 X27.2591 Y20.3528
G01 X27.2610 Y20.1874
G01 X27.2952 Y20.0255
G01 X27.3604 Y19.8734
G01 X27.4539 Y19.7369
G01 X27.5723 Y19.6213
G01 X27.7109 Y19.5310
G01 X27.8761 Y19.4664
G01 X28.0153 Y19.4404
G01 X28.1040 Y19.4360
G01 X29.7378 Y19.4552
G01 X29.8604 Y19.3412
G01 X29.9490 Y19.2759
G01 X30.0644 Y19.2077
G01 X30.1640 Y19.1609
G01 X30.2790 Y19.1198
G01 X30.3974 Y19.0901
G01 X30.5062 Y19.0737
G01 X30.6400 Y19.0663
G01 X30.7619 Y19.0722
G01 X30.8826 Y19.0901
G01 X31.0010 Y19.1198
G01 X31.1160 Y19.1609
G01 X31.2263 Y19.2131
G01 X31.3310 Y19.2759
G01 X31.4290 Y19.3486
G01 X31.5195 Y19.4305
G01 X31.6014 Y19.5210
G01 X31.6741 Y19.6190
G01 X31.7369 Y19.7237
G01 X31.7891 Y19.8340
G01 X31.8302 Y19.9490
G01 X31.8599 Y20.0674
G01 X31.8778 Y20.1881
G01 X31.8837 Y20.3100
G01 X31.8778 Y20.4319
G01 X31.8599 Y20.5526
G01 X31.8302 Y20.6710
G01 X31.7891 Y20.7860
G01 X31.7369 Y20.8963
G01 X31.6741 Y21.0010
G01 X31.6014 Y21.0990
G01 X31.5195 Y21.1895
G01 X31.4290 Y21.2714
G01 X31.3310 Y21.3441
G01 X31.2263 Y21.4069
G01 X31.1160 Y21.4591
G01 X31.0010 Y21.5002
G01 X30.8826 Y21.5299
G01 X30.7619 Y21.5478
G01 X30.6400 Y21.5537
G01 X30.5181 Y21.5478
G01 X30.3974 Y21.5299
G01 X30.2790 Y21.5002
G01 X30.1640 Y21.4591
G01 X30.0537 Y21.4069
G01 X29.9490 Y21.3441
G01 X29.8419 Y21.2636
G00 Z2.0000
G00 X31.8572 Y22.5957
G01 F60.00
G01 Z-0.0700
G01 F120.00
G01 X31.8778 Y22.7281
G01 X31.8837 Y22.8500
G01 X31.8778 Y22.9719
G01 X31.8599 Y23.0926
G01 X31.8302 Y23.2110
G01 X31.7891 Y23.3260
G01 X31.7369 Y23.4363
G01 X31.6741 Y23.5410
G01 X31.6014 Y23.6390
G01 X31.5195 Y23.7295
G01 X31.4290 Y23.8114
G01 X31.3310 Y23.8841
G01 X31.2263 Y23.9469
G01 X31.1160 Y23.9991
G01 X31.0010 Y24.0402
G01 X30.8826 Y24.0699
G01 X30.7619 Y24.0878
G01 X30.6400 Y24.0937
G01 X30.5181 Y24.0878
G01 X30.3974 Y24.0699
G01 X30.2790 Y24.0402
G01 X30.1640 Y23.9991
G01 X30.0537 Y23.9469
G01 X29.9490 Y23.8841
G01 X29.8510 Y23.8114
G01 X29.7605 Y23.7295
G01 X29.6786 Y23.6390
G01 X29.6059 Y23.5410
G01 X29.5431 Y23.4363
G01 X29.4909 Y23.3260
G01 X29.4498 Y23.2110
G01 X29.4201 Y23.0926
G01 X29.4022 Y22.9719
G01 X29.3963 Y22.8500
G01 X29.4022 Y22.7281
G01 X29.4201 Y22.6074
G01 X29.4498 Y22.4890
G01 X29.4909 Y22.3740
G01 X29.5431 Y22.2637
G01 X29.6059 Y22.1590
G01 X29.6786 Y22.0610
G01 X29.7605 Y21.9705
G01 X29.8510 Y21.8886
G01 X29.9490 Y21.8159
G01 X30.0537 Y21.7531
G01 X30.1640 Y21.7009
G01 X30.2790 Y21.6598
G01 X30.3974 Y21.6301
G01 X30.5181 Y21.6122
G01 X30.6400 Y21.6063
G01 X30.7619 Y21.6122
G01 X30.8826 Y21.6301
G01 X31.0010 Y21.6598
G01 X31.1160 Y21.7009
G01 X31.2263 Y21.7531
G01 X31.3310 Y21.8159
G01 X31.4290 Y21.8886
G01 X31.5195 Y21.9705
G01 X31.6014 Y22.0610
G01 X31.6741 Y22.1590
G01 X31.7369 Y22.2637
G01 X31.7891 Y22.3740
G01 X31.8302 Y22.4890
G01 X31.8572 Y22.5957
G00 Z2.0000
G00 X29.8510 Y26.3514
G01 F60.00
G01 Z-0.0700
G01 F120.00
G01 X29.7182 Y26.2232
G01 X28.0193 Y26.2000
G01 X27.8455 Y26.1648
G01 X27.6934 Y26.0996
G01 X27.5569 Y26.0061
G01 X27.4413 Y25.8877
G01 X27.3510 Y25.7491
G01 X27.2895 Y25.5955
G01 X27.2591 Y25.4328
G01 X27.2610 Y25.2674
G01 X27.2952 Y25.1055
G01 X27.3604 Y24.9534
G01 X27.4539 Y24.8169
G01 X27.5723 Y24.7013
G01 X27.7109 Y24.6110
G01 X27.8761 Y24.5464
G01 X28.0153 Y24.5204
G01 X28.1040 Y24.5160
G01 X29.7378 Y24.5352
G01 X29.8604 Y24.4212
G01 X29.9490 Y24.3559
G01 X30.0644 Y24.2877
G01 X30.1640 Y24.2409
G01 X30.2790 Y24.1998
G01 X30.3974 Y24.1701
G01 X30.5062 Y24.1537
G01 X30.6400 Y24.1463
G01 X30.7619 Y24.1522
G01 X30.8826 Y24.1701
G01 X31.0010 Y24.1998
G01 X31.1160 Y24.2409
G01 X31.2263 Y24.2931
G01 X31.3310 Y24.3559
G01 X31.4290 Y24.4286
G01 X31.5195 Y24.5105
G01 X31.6014 Y24.6010
G01 X31.6741 Y24.6990
G01 X31.7369 Y24.8037
G01 X31.7891 Y24.9140
G01 X31.8302 Y25.0290
G01 X31.8599 Y25.1474
G01 X31.8778 Y25.2681
G01 X31.8837 Y25.3900
G01 X31.8778 Y25.5119
G01 X31.8599 Y25.6326
G01 X31.8302 Y25.7510
G01 X31.7891 Y25.8660
G01 X31.7369 Y25.9763
G01 X31.6741 Y26.0810
G01 X31.6014 Y26.1790
G01 X31.5195 Y26.2695
G01 X31.4290 Y26.3514
G01 X31.3310 Y26.4241
G01 X31.2263 Y26.4869
G01 X31.1160 Y26.5391
G01 X31.0010 Y26.5802
G01 X30.8826 Y26.6099
G01 X30.7619 Y26.6278
G01 X30.6400 Y26.6337
G01 X30.5181 Y26.6278
G01 X30.3974 Y26.6099
G01 X30.2790 Y26.5802
G01 X30.1640 Y26.5391
G01 X30.0537 Y26.4869
G01 X29.9490 Y26.4241
G01 X29.8510 Y26.3514
G00 Z2.0000
G00 X27.5945 Y28.5825
G01 F60.00
G01 Z-0.0700
G01 F120.00
G01 X27.4402 Y28.4260
G01 X27.3615 Y28.3083
G01 X27.3159 Y28.2118
G01 X27.2748 Y28.0763
G01 X27.2600 Y27.9827
G01 X27.2591 Y27.8292
G01 X27.2748 Y27.7237
G01 X27.3159 Y27.5882
G01 X27.3556 Y27.5021
G01 X27.4402 Y27.3740
G01 X27.5032 Y27.3032
G01 X27.5740 Y27.2402
G01 X27.7021 Y27.1556
G01 X27.7882 Y27.1159
G01 X27.9353 Y27.0722
G01 X28.1000 Y27.0559
G01 X28.1946 Y27.0615
G01 X28.3209 Y27.0859
G01 X29.7280 Y27.0859
G01 X29.8510 Y26.9686
G01 X29.9490 Y26.8959
G01 X30.0644 Y26.8277
G01 X30.1640 Y26.7809
G01 X30.2676 Y26.7436
G01 X30.3974 Y26.7101
G01 X30.5300 Y26.6914
G01 X30.6400 Y26.6863
G01 X30.7500 Y26.6914
G01 X30.8709 Y26.7081
G01 X31.0124 Y26.7436
G01 X31.1160 Y26.7809
G01 X31.2263 Y26.8331
G01 X31.3310 Y26.8959
G01 X31.4196 Y26.9612
G01 X31.5195 Y27.0505
G01 X31.6088 Y27.1504
G01 X31.6741 Y27.2390
G01 X31.7369 Y27.3437
G01 X31.7934 Y27.4652
G01 X31.8302 Y27.5690
G01 X31.8599 Y27.6874
G01 X31.8778 Y27.8081
G01 X31.8837 Y27.9300
G01 X31.8778 Y28.0519
G01 X31.8599 Y28.1726
G01 X31.8302 Y28.2910
G01 X31.7891 Y28.4060
G01 X31.7369 Y28.5163
G01 X31.6741 Y28.6210
G01 X31.6014 Y28.7190
G01 X31.5195 Y28.8095
G01 X31.4290 Y28.8914
G01 X31.3310 Y28.9641
G01 X31.2263 Y29.0269
G01 X31.1160 Y29.0791
G01 X31.0010 Y29.1202
G01 X30.8826 Y29.1499
G01 X30.7619 Y29.1678
G01 X30.6280 Y29.1735
G01 X30.5181 Y29.1678
G01 X30.4091 Y29.1519
G01 X30.2790 Y29.1202
G01 X30.1531 Y29.0742
G01 X30.0537 Y29.0269
G01 X29.9591 Y28.9705
G01 X29.8510 Y28.8914
G01 X29.7280 Y28.7741
G01 X28.0473 Y28.7700
G01 X27.8965 Y28.7409
G01 X27.8070 Y28.7098
G01 X27.7217 Y28.6685
G01 X27.5945 Y28.5825
G00 Z2.0000
G00 X27.5945 Y31.1225
G01 F60.00
G01 Z-0.0700
G01 F120.00
G01 X27.4402 Y30.9660
G01 X27.3615 Y30.8483
G01 X27.3159 Y30.7518
G01 X27.2748 Y30.6163
G01 X27.2600 Y30.5227
G01 X27.2591 Y30.3692
G01 X27.2748 Y30.2637
G01 X27.3159 Y30.1282
G01 X27.3556 Y30.0421
G01 X27.4402 Y29.9140
G01 X27.5032 Y29.8432
G01 X27.5740 Y29.7802
G01 X27.7021 Y29.6956
G01 X27.7882 Y29.6559
G01 X27.9353 Y29.6122
G01 X28.1000 Y29.5959
G01 X28.1946 Y29.6015
G01 X28.3209 Y29.6259
G01 X29.7280 Y29.6259
G01 X29.8510 Y29.5086
G01 X29.9490 Y29.4359
G01 X30.0644 Y29.3677
G01 X30.1640 Y29.3209
G01 X30.2676 Y29.2836
G01 X30.3974 Y29.2501
G01 X30.5300 Y29.2314
G01 X30.6400 Y29.2263
G01 X30.7500 Y29.2314
G01 X30.8709 Y29.2481
G01 X31.0124 Y29.2836
G01 X31.1160 Y29.3209
G01 X31.2263 Y29.3731
G01 X31.3310 Y29.4359
G01 X31.4196 Y29.5012
G01 X31.5195 Y29.5905
G01 X31.6088 Y29.6904
G01 X31.6741 Y29.7790
G01 X31.7369 Y29.8837
G01 X31.7934 Y30.0052
G01 X31.8302 Y30.1090
G01 X31.8599 Y30.2274
G01 X31.8778 Y30.3481
G01 X31.8837 Y30.4700
G01 X31.8778 Y30.5919
G01 X31.8599 Y30.7126
G01 X31.8302 Y30.8310
G01 X31.7891 Y30.9460
G01 X31.7369 Y31.0563
G01 X31.6741 Y31.1610
G01 X31.6014 Y31.2590
G01 X31.5195 Y31.3495
G01 X31.4290 Y31.4314
G01 X31.3310 Y31.5041
G01 X31.2263 Y31.5669
G01 X31.1160 Y31.6191
G01 X31.0010 Y31.6602
G01 X30.8826 Y31.6899
G01 X30.7619 Y31.7078
G01 X30.6280 Y31.7135
G01 X30.5181 Y31.7078
G01 X30.4091 Y31.6919
G01 X30.2790 Y31.6602
G01 X30.1531 Y31.6142
G01 X30.0537 Y31.5669
G01 X29.9591 Y31.5105
G01 X29.8510 Y31.4314
G01 X29.7280 Y31.3141
G01 X28.0473 Y31.3100
G01 X27.8965 Y31.2809
G01 X27.8070 Y31.2498
G01 X27.6712 Y31.1782
G01 X27.5945 Y31.1225
G00 Z2.0000
G00 X28.2782 Y31.9461
G01 F60.00
G01 Z-0.0700
G01 F120.00
G01 X28.2058 Y31.8274
G01 X28.1847 Y31.7613
G01 X28.1880 Y31.6222
G01 X28.2060 Y31.5552
G01 X28.2839 Y31.4400
G01 X28.3353 Y31.3934
G01 X28.4522 Y31.3424
G01 X28.5156 Y31.3280
G01 X29.5684 Y31.3268
G01 X29.6371 Y31.3366
G01 X29.7169 Y31.3604
G01 X29.7651 Y31.3838
G01 X29.9503 Y31.5257
G01 X30.1738 Y31.6495
G01 X30.2578 Y31.7298
G01 X30.3061 Y31.8084
G01 X30.3334 Y31.9213
G01 X30.3369 Y31.9675
G01 X30.3256 Y32.0360
G01 X30.2845 Y32.1420
G01 X30.2612 Y32.1782
G01 X30.2120 Y32.2293
G01 X30.0764 Y32.3296
G01 X29.9635 Y32.4480
G01 X29.8750 Y32.5856
G01 X29.8142 Y32.7375
G01 X29.7832 Y32.8982
G01 X29.7808 Y34.4863
G01 X29.7419 Y34.6192
G01 X29.6996 Y34.6846
G01 X29.6152 Y34.7739
G01 X29.4959 Y34.8457
G01 X29.4288 Y34.8632
G01 X29.3132 Y34.8620
G01 X29.2699 Y34.8547
G01 X29.2091 Y34.8297
G01 X29.1219 Y34.7716
G01 X29.0539 Y34.7007
G01 X29.0201 Y34.6537
G01 X28.9790 Y34.5705
G01 X28.9648 Y34.5275
G01 X28.9568 Y34.4516
G01 X28.9568 Y32.9391
G01 X28.9451 Y32.8171
G01 X28.9198 Y32.7179
G01 X28.8554 Y32.5675
G01 X28.7637 Y32.4320
G01 X28.2782 Y31.9461
G00 Z2.0000
G00 X27.1386 Y34.7310
G01 F60.00
G01 Z-0.0700
G01 F120.00
G01 X27.2559 Y34.6080
G01 X27.2559 Y33.3296
G01 X12.5104 Y18.5841
G01 X8.6920 Y18.5841
G01 X8.5690 Y18.7014
G01 X8.4609 Y18.7805
G01 X8.3663 Y18.8369
G01 X8.2669 Y18.8842
G01 X8.1295 Y18.9334
G01 X8.0226 Y18.9599
G01 X7.9138 Y18.9763
G01 X7.7800 Y18.9837
G01 X7.6462 Y18.9763
G01 X7.5374 Y18.9599
G01 X7.4190 Y18.9302
G01 X7.3040 Y18.8891
G01 X7.1833 Y18.8310
G01 X7.0890 Y18.7741
G01 X7.0004 Y18.7088
G01 X6.9005 Y18.6195
G01 X6.8112 Y18.5196
G01 X6.7459 Y18.4310
G01 X6.6890 Y18.3367
G01 X6.6309 Y18.2160
G01 X6.5898 Y18.1010
G01 X6.5581 Y17.9709
G01 X6.5422 Y17.8619
G01 X6.5365 Y17.7520
G01 X6.5422 Y17.6181
G01 X6.5601 Y17.4974
G01 X6.5936 Y17.3676
G01 X6.6309 Y17.2640
G01 X6.6777 Y17.1644
G01 X6.7459 Y17.0490
G01 X6.8264 Y16.9419
G01 X6.9005 Y16.8605
G01 X6.9819 Y16.7864
G01 X7.0792 Y16.7127
G01 X7.1937 Y16.6431
G01 X7.2931 Y16.5958
G01 X7.4190 Y16.5498
G01 X7.5374 Y16.5201
G01 X7.6581 Y16.5022
G01 X7.7800 Y16.4963
G01 X7.9019 Y16.5022
G01 X8.0226 Y16.5201
G01 X8.1410 Y16.5498
G01 X8.2560 Y16.5909
G01 X8.3663 Y16.6431
G01 X8.4710 Y16.7059
G01 X8.5690 Y16.7786
G01 X8.6920 Y16.8959
G01 X12.8720 Y16.8962
G01 X13.0247 Y16.9122
G01 X13.1718 Y16.9559
G01 X13.2683 Y17.0015
G01 X13.4045 Y17.0954
G01 X28.7525 Y32.4445
G01 X28.8385 Y32.5717
G01 X28.8798 Y32.6570
G01 X28.9109 Y32.7465
G01 X28.9400 Y32.8973
G01 X28.9441 Y34.6080
G01 X29.0688 Y34.7404
G01 X29.1341 Y34.8290
G01 X29.2023 Y34.9444
G01 X29.2491 Y35.0440
G01 X29.2902 Y35.1590
G01 X29.3199 Y35.2774
G01 X29.3386 Y35.4100
G01 X29.3437 Y35.5200
G01 X29.3363 Y35.6538
G01 X29.3172 Y35.7743
G01 X29.2902 Y35.8810
G01 X29.2534 Y35.9848
G01 X29.1969 Y36.1063
G01 X29.1341 Y36.2110
G01 X29.0614 Y36.3090
G01 X28.9795 Y36.3995
G01 X28.8890 Y36.4814
G01 X28.7910 Y36.5541
G01 X28.6863 Y36.6169
G01 X28.5760 Y36.6691
G01 X28.4610 Y36.7102
G01 X28.3426 Y36.7399
G01 X28.2219 Y36.7578
G01 X28.1000 Y36.7637
G01 X27.9781 Y36.7578
G01 X27.8574 Y36.7399
G01 X27.7390 Y36.7102
G01 X27.6240 Y36.6691
G01 X27.5137 Y36.6169
G01 X27.4090 Y36.5541
G01 X27.3110 Y36.4814
G01 X27.2205 Y36.3995
G01 X27.1386 Y36.3090
G01 X27.0659 Y36.2110
G01 X27.0031 Y36.1063
G01 X26.9509 Y35.9960
G01 X26.9098 Y35.8810
G01 X26.8801 Y35.7626
G01 X26.8622 Y35.6419
G01 X26.8563 Y35.5200
G01 X26.8622 Y35.3981
G01 X26.8801 Y35.2774
G01 X26.9098 Y35.1590
G01 X26.9509 Y35.0440
G01 X27.0031 Y34.9337
G01 X27.0659 Y34.8290
G01 X27.1386 Y34.7310
G00 Z2.0000
G00 X26.4195 Y34.4940
G01 F60.00
G01 Z-0.0700
G01 F120.00
G01 X26.4168 Y33.3962
G01 X26.4236 Y33.3387
G01 X26.4463 Y33.2605
G01 X26.4691 Y33.2073
G01 X26.4960 Y33.1695
G01 X26.5823 Y33.0918
G01 X26.6213 Y33.0668
G01 X26.6869 Y33.0441
G01 X26.7790 Y33.0308
G01 X26.8708 Y33.0396
G01 X26.9787 Y33.0865
G01 X27.0445 Y33.1362
G01 X27.1583 Y33.2535
G01 X27.2161 Y33.3547
G01 X27.2326 Y33.3995
G01 X27.2432 Y33.4872
G01 X27.2432 Y34.4516
G01 X27.2364 Y34.5091
G01 X27.2137 Y34.5873
G01 X27.1916 Y34.6394
G01 X27.1530 Y34.6928
G01 X27.0925 Y34.7584
G01 X27.0468 Y34.7939
G01 X26.9768 Y34.8357
G01 X26.9117 Y34.8595
G01 X26.7732 Y34.8620
G01 X26.6886 Y34.8399
G01 X26.5666 Y34.7576
G01 X26.4801 Y34.6537
G01 X26.4309 Y34.5494
G01 X26.4195 Y34.4940
G00 Z2.0000
G00 X24.5912 Y34.7404
G01 F60.00
G01 Z-0.0700
G01 F120.00
G01 X24.7159 Y34.6080
G01 X24.7191 Y32.9092
G01 X24.7523 Y32.7350
G01 X24.8156 Y32.5821
G01 X24.9075 Y32.4445
G01 X25.0245 Y32.3275
G01 X25.1621 Y32.2356
G01 X25.3150 Y32.1723
G01 X25.4773 Y32.1400
G01 X25.6427 Y32.1400
G01 X25.8050 Y32.1723
G01 X25.9579 Y32.2356
G01 X26.0955 Y32.3275
G01 X26.2125 Y32.4445
G01 X26.3044 Y32.5821
G01 X26.3709 Y32.7465
G01 X26.3985 Y32.8854
G01 X26.4040 Y32.9740
G01 X26.4041 Y34.6080
G01 X26.5288 Y34.7404
G01 X26.5941 Y34.8290
G01 X26.6569 Y34.9337
G01 X26.7091 Y35.0440
G01 X26.7502 Y35.1590
G01 X26.7799 Y35.2774
G01 X26.7963 Y35.3862
G01 X26.8037 Y35.5200
G01 X26.7978 Y35.6419
G01 X26.7799 Y35.7626
G01 X26.7502 Y35.8810
G01 X26.7091 Y35.9960
G01 X26.6569 Y36.1063
G01 X26.5941 Y36.2110
G01 X26.5214 Y36.3090
G01 X26.4395 Y36.3995
G01 X26.3490 Y36.4814
G01 X26.2510 Y36.5541
G01 X26.1463 Y36.6169
G01 X26.0360 Y36.6691
G01 X25.9210 Y36.7102
G01 X25.8026 Y36.7399
G01 X25.6819 Y36.7578
G01 X25.5600 Y36.7637
G01 X25.4381 Y36.7578
G01 X25.3174 Y36.7399
G01 X25.1990 Y36.7102
G01 X25.0840 Y36.6691
G01 X24.9737 Y36.6169
G01 X24.8690 Y36.5541
G01 X24.7710 Y36.4814
G01 X24.6805 Y36.3995
G01 X24.5986 Y36.3090
G01 X24.5259 Y36.2110
G01 X24.4631 Y36.1063
G01 X24.4109 Y35.9960
G01 X24.3698 Y35.8810
G01 X24.3401 Y35.7626
G01 X24.3222 Y35.6419
G01 X24.3163 Y35.5200
G01 X24.3222 Y35.3981
G01 X24.3401 Y35.2774
G01 X24.3698 Y35.1590
G01 X24.4109 Y35.0440
G01 X24.4631 Y34.9337
G01 X24.5259 Y34.8290
G01 X24.5912 Y34.7404
G00 Z2.0000
G00 X29.6712 Y34.7404
G01 F60.00
G01 Z-0.0700
G01 F120.00
G01 X29.7959 Y34.6080
G01 X29.7991 Y32.9092
G01 X29.8323 Y32.7350
G01 X29.8956 Y32.5821
G01 X29.9875 Y32.4445
G01 X30.1045 Y32.3275
G01 X30.2421 Y32.2356
G01 X30.3950 Y32.1723
G01 X30.5573 Y32.1400
G01 X30.7227 Y32.1400
G01 X30.8850 Y32.1723
G01 X31.0379 Y32.2356
G01 X31.1755 Y32.3275
G01 X31.2925 Y32.4445
G01 X31.3844 Y32.5821
G01 X31.4509 Y32.7465
G01 X31.4785 Y32.8854
G01 X31.4840 Y32.9740
G01 X31.4841 Y34.6080
G01 X31.6088 Y34.7404
G01 X31.6741 Y34.8290
G01 X31.7369 Y34.9337
G01 X31.7891 Y35.0440
G01 X31.8302 Y35.1590
G01 X31.8599 Y35.2774
G01 X31.8763 Y35.3862
G01 X31.8837 Y35.5200
G01 X31.8778 Y35.6419
G01 X31.8599 Y35.7626
G01 X31.8302 Y35.8810
G01 X31.7891 Y35.9960
G01 X31.7369 Y36.1063
G01 X31.6741 Y36.2110
G01 X31.6014 Y36.3090
G01 X31.5195 Y36.3995
G01 X31.4290 Y36.4814
G01 X31.3310 Y36.5541
G01 X31.2263 Y36.6169
G01 X31.1160 Y36.6691
G01 X31.0010 Y36.7102
G01 X30.8826 Y36.7399
G01 X30.7619 Y36.7578
G01 X30.6400 Y36.7637
G01 X30.5181 Y36.7578
G01 X30.3974 Y36.7399
G01 X30.2790 Y36.7102
G01 X30.1640 Y36.6691
G01 X30.0537 Y36.6169
G01 X29.9490 Y36.5541
G01 X29.8510 Y36.4814
G01 X29.7605 Y36.3995
G01 X29.6786 Y36.3090
G01 X29.6059 Y36.2110
G01 X29.5431 Y36.1063
G01 X29.4909 Y35.9960
G01 X29.4498 Y35.8810
G01 X29.4201 Y35.7626
G01 X29.4022 Y35.6419
G01 X29.3963 Y35.5200
G01 X29.4022 Y35.3981
G01 X29.4201 Y35.2774
G01 X29.4498 Y35.1590
G01 X29.4909 Y35.0440
G01 X29.5431 Y34.9337
G01 X29.6059 Y34.8290
G01 X29.6712 Y34.7404
G00 Z2.0000
G00 X21.6972 Y30.1857
G01 F60.00
G01 Z-0.0700
G01 F120.00
G01 X21.7178 Y30.3181
G01 X21.7237 Y30.4400
G01 X21.7178 Y30.5619
G01 X21.6999 Y30.6826
G01 X21.6702 Y30.8010
G01 X21.6291 Y30.9160
G01 X21.5769 Y31.0263
G01 X21.5141 Y31.1310
G01 X21.4414 Y31.2290
G01 X21.3595 Y31.3195
G01 X21.2690 Y31.4014
G01 X21.1710 Y31.4741
G01 X21.0663 Y31.5369
G01 X20.9560 Y31.5891
G01 X20.8410 Y31.6302
G01 X20.7226 Y31.6599
G01 X20.6019 Y31.6778
G01 X20.4800 Y31.6837
G01 X20.3581 Y31.6778
G01 X20.2374 Y31.6599
G01 X20.1190 Y31.6302
G01 X20.0040 Y31.5891
G01 X19.8937 Y31.5369
G01 X19.7890 Y31.4741
G01 X19.6910 Y31.4014
G01 X19.6005 Y31.3195
G01 X19.5186 Y31.2290
G01 X19.4459 Y31.1310
G01 X19.3831 Y31.0263
G01 X19.3309 Y30.9160
G01 X19.2898 Y30.8010
G01 X19.2601 Y30.6826
G01 X19.2422 Y30.5619
G01 X19.2363 Y30.4400
G01 X19.2422 Y30.3181
G01 X19.2601 Y30.1974
G01 X19.2898 Y30.0790
G01 X19.3309 Y29.9640
G01 X19.3831 Y29.8537
G01 X19.4459 Y29.7490
G01 X19.5186 Y29.6510
G01 X19.6005 Y29.5605
G01 X19.6910 Y29.4786
G01 X19.7890 Y29.4059
G01 X19.8937 Y29.3431
G01 X20.0040 Y29.2909
G01 X20.1190 Y29.2498
G01 X20.2374 Y29.2201
G01 X20.3581 Y29.2022
G01 X20.4800 Y29.1963
G01 X20.6019 Y29.2022
G01 X20.7226 Y29.2201
G01 X20.8410 Y29.2498
G01 X20.9560 Y29.2909
G01 X21.0663 Y29.3431
G01 X21.1710 Y29.4059
G01 X21.2690 Y29.4786
G01 X21.3595 Y29.5605
G01 X21.4414 Y29.6510
G01 X21.5141 Y29.7490
G01 X21.5769 Y29.8537
G01 X21.6291 Y29.9640
G01 X21.6702 Y30.0790
G01 X21.6972 Y30.1857
G00 Z2.0000
G00 X19.1572 Y30.1857
G01 F60.00
G01 Z-0.0700
G01 F120.00
G01 X19.1778 Y30.3181
G01 X19.1837 Y30.4400
G01 X19.1778 Y30.5619
G01 X19.1599 Y30.6826
G01 X19.1302 Y30.8010
G01 X19.0891 Y30.9160
G01 X19.0369 Y31.0263
G01 X18.9741 Y31.1310
G01 X18.9014 Y31.2290
G01 X18.8195 Y31.3195
G01 X18.7290 Y31.4014
G01 X18.6310 Y31.4741
G01 X18.5263 Y31.5369
G01 X18.4160 Y31.5891
G01 X18.3010 Y31.6302
G01 X18.1826 Y31.6599
G01 X18.0619 Y31.6778
G01 X17.9400 Y31.6837
G01 X17.8181 Y31.6778
G01 X17.6974 Y31.6599
G01 X17.5790 Y31.6302
G01 X17.4640 Y31.5891
G01 X17.3537 Y31.5369
G01 X17.2490 Y31.4741
G01 X17.1510 Y31.4014
G01 X17.0605 Y31.3195
G01 X16.9786 Y31.2290
G01 X16.9059 Y31.1310
G01 X16.8431 Y31.0263
G01 X16.7909 Y30.9160
G01 X16.7498 Y30.8010
G01 X16.7201 Y30.6826
G01 X16.7022 Y30.5619
G01 X16.6963 Y30.4400
G01 X16.7022 Y30.3181
G01 X16.7201 Y30.1974
G01 X16.7498 Y30.0790
G01 X16.7909 Y29.9640
G01 X16.8431 Y29.8537
G01 X16.9059 Y29.7490
G01 X16.9786 Y29.6510
G01 X17.0605 Y29.5605
G01 X17.1510 Y29.4786
G01 X17.2490 Y29.4059
G01 X17.3537 Y29.3431
G01 X17.4640 Y29.2909
G01 X17.5790 Y29.2498
G01 X17.6974 Y29.2201
G01 X17.8181 Y29.2022
G01 X17.9400 Y29.1963
G01 X18.0619 Y29.2022
G01 X18.1826 Y29.2201
G01 X18.3010 Y29.2498
G01 X18.4160 Y29.2909
G01 X18.5263 Y29.3431
G01 X18.6310 Y29.4059
G01 X18.7290 Y29.4786
G01 X18.8195 Y29.5605
G01 X18.9014 Y29.6510
G01 X18.9741 Y29.7490
G01 X19.0369 Y29.8537
G01 X19.0891 Y29.9640
G01 X19.1302 Y30.0790
G01 X19.1572 Y30.1857
G00 Z2.0000
G00 X16.9712 Y34.7404
G01 F60.00
G01 Z-0.0700
G01 F120.00
G01 X17.0959 Y34.6080
G01 X17.0991 Y32.9092
G01 X17.1323 Y32.7350
G01 X17.1956 Y32.5821
G01 X17.2875 Y32.4445
G01 X17.4045 Y32.3275
G01 X17.5421 Y32.2356
G01 X17.6950 Y32.1723
G01 X17.8573 Y32.1400
G01 X18.0227 Y32.1400
G01 X18.1850 Y32.1723
G01 X18.3379 Y32.2356
G01 X18.4755 Y32.3275
G01 X18.5925 Y32.4445
G01 X18.6844 Y32.5821
G01 X18.7509 Y32.7465
G01 X18.7785 Y32.8854
G01 X18.7840 Y32.9740
G01 X18.7841 Y34.6080
G01 X18.9088 Y34.7404
G01 X18.9741 Y34.8290
G01 X19.0369 Y34.9337
G01 X19.0891 Y35.0440
G01 X19.1302 Y35.1590
G01 X19.1599 Y35.2774
G01 X19.1763 Y35.3862
G01 X19.1837 Y35.5200
G01 X19.1778 Y35.6419
G01 X19.1599 Y35.7626
G01 X19.1302 Y35.8810
G01 X19.0891 Y35.9960
G01 X19.0369 Y36.1063
G01 X18.9741 Y36.2110
G01 X18.9014 Y36.3090
G01 X18.8195 Y36.3995
G01 X18.7290 Y36.4814
G01 X18.6310 Y36.5541
G01 X18.5263 Y36.6169
G01 X18.4160 Y36.6691
G01 X18.3010 Y36.7102
G01 X18.1826 Y36.7399
G01 X18.0619 Y36.7578
G01 X17.9400 Y36.7637
G01 X17.8181 Y36.7578
G01 X17.6974 Y36.7399
G01 X17.5790 Y36.7102
G01 X17.4640 Y36.6691
G01 X17.3537 Y36.6169
G01 X17.2490 Y36.5541
G01 X17.1510 Y36.4814
G01 X17.0605 Y36.3995
G01 X16.9786 Y36.3090
G01 X16.9059 Y36.2110
G01 X16.8431 Y36.1063
G01 X16.7909 Y35.9960
G01 X16.7498 Y35.8810
G01 X16.7201 Y35.7626
G01 X16.7022 Y35.6419
G01 X16.6963 Y35.5200
G01 X16.7022 Y35.3981
G01 X16.7201 Y35.2774
G01 X16.7498 Y35.1590
G01 X16.7909 Y35.0440
G01 X16.8431 Y34.9337
G01 X16.9059 Y34.8290
G01 X16.9712 Y34.7404
G00 Z2.0000
G00 X16.2577 Y34.4726
G01 F60.00
G01 Z-0.0700
G01 F120.00
G01 X16.2592 Y31.3619
G01 X16.2898 Y31.2498
G01 X16.3091 Y31.2077
G01 X16.3520 Y31.1531
G01 X16.4223 Y31.0922
G01 X16.5043 Y31.0499
G01 X16.6190 Y31.0312
G01 X16.6653 Y31.0312
G01 X16.7327 Y31.0476
G01 X16.8408 Y31.1000
G01 X16.8893 Y31.1426
G01 X16.9448 Y31.2146
G01 X17.0859 Y31.3678
G01 X17.2503 Y31.4957
G01 X17.4668 Y31.6128
G01 X17.5600 Y31.6824
G01 X17.6030 Y31.7368
G01 X17.6485 Y31.8437
G01 X17.6595 Y31.8887
G01 X17.6597 Y31.9581
G01 X17.6347 Y32.0752
G01 X17.5978 Y32.1422
G01 X17.5199 Y32.2269
G01 X17.3764 Y32.3296
G01 X17.2635 Y32.4480
G01 X17.1750 Y32.5856
G01 X17.1142 Y32.7375
G01 X17.0832 Y32.8982
G01 X17.0830 Y34.4632
G01 X17.0734 Y34.5203
G01 X17.0316 Y34.6394
G01 X16.9930 Y34.6928
G01 X16.9152 Y34.7739
G01 X16.7959 Y34.8457
G01 X16.7056 Y34.8647
G01 X16.5699 Y34.8547
G01 X16.5091 Y34.8297
G01 X16.4384 Y34.7843
G01 X16.3463 Y34.6920
G01 X16.2790 Y34.5705
G01 X16.2577 Y34.4726
G00 Z2.0000
G00 X13.7177 Y34.4726
G01 F60.00
G01 Z-0.0700
G01 F120.00
G01 X13.7170 Y25.4818
G01 X13.7236 Y25.4359
G01 X13.7585 Y25.3251
G01 X13.8120 Y25.2499
G01 X13.8823 Y25.1890
G01 X13.9424 Y25.1543
G01 X13.9869 Y25.1412
G01 X14.1021 Y25.1269
G01 X14.1708 Y25.1367
G01 X14.2787 Y25.1837
G01 X14.3318 Y25.2213
G01 X14.4355 Y25.3243
G01 X14.4713 Y25.3698
G01 X14.5161 Y25.4518
G01 X14.5326 Y25.4967
G01 X14.5429 Y25.5713
G01 X14.5430 Y34.4632
G01 X14.5364 Y34.5091
G01 X14.5019 Y34.6192
G01 X14.4596 Y34.6846
G01 X14.4006 Y34.7501
G01 X14.3566 Y34.7877
G01 X14.2768 Y34.8357
G01 X14.2341 Y34.8536
G01 X14.1656 Y34.8647
G01 X14.0732 Y34.8620
G01 X14.0089 Y34.8482
G01 X13.8819 Y34.7716
G01 X13.8063 Y34.6920
G01 X13.7801 Y34.6537
G01 X13.7309 Y34.5494
G01 X13.7177 Y34.4726
G00 Z2.0000
G00 X9.4791 Y36.0843
G01 F60.00
G01 Z-0.0700
G01 F120.00
G01 X9.4759 Y26.4933
G01 X9.1867 Y26.2041
G01 X8.6920 Y26.2041
G01 X8.5690 Y26.3214
G01 X8.4710 Y26.3941
G01 X8.3663 Y26.4569
G01 X8.2448 Y26.5134
G01 X8.1410 Y26.5502
G01 X8.0343 Y26.5772
G01 X7.9138 Y26.5963
G01 X7.7800 Y26.6037
G01 X7.6462 Y26.5963
G01 X7.5374 Y26.5799
G01 X7.4190 Y26.5502
G01 X7.3040 Y26.5091
G01 X7.1937 Y26.4569
G01 X7.0890 Y26.3941
G01 X6.9910 Y26.3214
G01 X6.9005 Y26.2395
G01 X6.8186 Y26.1490
G01 X6.7395 Y26.0409
G01 X6.6831 Y25.9463
G01 X6.6358 Y25.8469
G01 X6.5898 Y25.7210
G01 X6.5581 Y25.5909
G01 X6.5422 Y25.4819
G01 X6.5365 Y25.3720
G01 X6.5422 Y25.2381
G01 X6.5628 Y25.1057
G01 X6.5898 Y24.9990
G01 X6.6266 Y24.8952
G01 X6.6831 Y24.7737
G01 X6.7527 Y24.6592
G01 X6.8186 Y24.5710
G01 X6.8923 Y24.4892
G01 X6.9910 Y24.3986
G01 X7.0991 Y24.3195
G01 X7.1937 Y24.2631
G01 X7.2931 Y24.2158
G01 X7.4190 Y24.1698
G01 X7.5491 Y24.1381
G01 X7.6700 Y24.1214
G01 X7.7800 Y24.1163
G01 X7.8900 Y24.1214
G01 X8.0226 Y24.1401
G01 X8.1524 Y24.1736
G01 X8.2560 Y24.2109
G01 X8.3556 Y24.2577
G01 X8.4710 Y24.3259
G01 X8.5690 Y24.3986
G01 X8.6920 Y24.5159
G01 X9.6191 Y24.5200
G01 X9.7814 Y24.5523
G01 X9.9236 Y24.6102
G01 X10.0151 Y24.6651
G01 X10.1289 Y24.7590
G01 X10.9210 Y25.5511
G01 X11.0218 Y25.6747
G01 X11.0998 Y25.8206
G01 X11.1478 Y25.9790
G01 X11.1641 Y26.1436
G01 X11.1641 Y35.6639
G01 X15.9968 Y40.4967
G01 X16.0598 Y40.5675
G01 X16.1385 Y40.6852
G01 X16.2077 Y40.8485
G01 X16.2409 Y41.0227
G01 X16.2441 Y42.2280
G01 X16.3614 Y42.3510
G01 X16.4341 Y42.4490
G01 X16.4969 Y42.5537
G01 X16.5491 Y42.6640
G01 X16.5902 Y42.7790
G01 X16.6199 Y42.8974
G01 X16.6378 Y43.0181
G01 X16.6437 Y43.1400
G01 X16.6378 Y43.2619
G01 X16.6172 Y43.3943
G01 X16.5902 Y43.5010
G01 X16.5534 Y43.6048
G01 X16.5023 Y43.7156
G01 X16.4341 Y43.8310
G01 X16.3614 Y43.9290
G01 X16.2795 Y44.0195
G01 X16.1890 Y44.1014
G01 X16.0910 Y44.1741
G01 X15.9863 Y44.2369
G01 X15.8760 Y44.2891
G01 X15.7610 Y44.3302
G01 X15.6426 Y44.3599
G01 X15.5219 Y44.3778
G01 X15.4000 Y44.3837
G01 X15.2781 Y44.3778
G01 X15.1574 Y44.3599
G01 X15.0390 Y44.3302
G01 X14.9240 Y44.2891
G01 X14.8137 Y44.2369
G01 X14.7090 Y44.1741
G01 X14.6110 Y44.1014
G01 X14.5205 Y44.0195
G01 X14.4386 Y43.9290
G01 X14.3659 Y43.8310
G01 X14.3031 Y43.7263
G01 X14.2509 Y43.6160
G01 X14.2136 Y43.5124
G01 X14.1801 Y43.3826
G01 X14.1637 Y43.2738
G01 X14.1565 Y43.1280
G01 X14.1622 Y43.0181
G01 X14.1801 Y42.8974
G01 X14.2098 Y42.7790
G01 X14.2558 Y42.6531
G01 X14.3031 Y42.5537
G01 X14.3727 Y42.4392
G01 X14.4464 Y42.3419
G01 X14.5559 Y42.2280
G01 X14.5559 Y41.4431
G01 X9.7190 Y36.6060
G01 X9.6182 Y36.4824
G01 X9.5450 Y36.3474
G01 X9.5091 Y36.2470
G01 X9.4791 Y36.0843
G00 Z2.0000
G00 X8.4427 Y29.2810
G01 F60.00
G01 Z-0.0700
G01 F120.00
G01 X8.4291 Y29.1542
G01 X8.4329 Y29.0964
G01 X8.4553 Y29.0308
G01 X8.5026 Y28.9481
G01 X8.5475 Y28.8965
G01 X8.6341 Y28.8278
G01 X8.7752 Y28.6746
G01 X8.8087 Y28.6278
G01 X8.8956 Y28.5507
G01 X8.9348 Y28.5259
G01 X9.0005 Y28.5037
G01 X9.0927 Y28.4912
G01 X9.1620 Y28.4950
G01 X9.2064 Y28.5084
G01 X9.3107 Y28.5594
G01 X9.3770 Y28.6236
G01 X9.4388 Y28.7266
G01 X9.4627 Y28.8397
G01 X9.4630 Y29.4950
G01 X9.4534 Y29.5521
G01 X9.4109 Y29.6723
G01 X9.3680 Y29.7269
G01 X9.2788 Y29.8013
G01 X9.1931 Y29.8355
G01 X9.0547 Y29.8488
G01 X8.9873 Y29.8324
G01 X8.8792 Y29.7800
G01 X8.8307 Y29.7374
G01 X8.7752 Y29.6654
G01 X8.6341 Y29.5122
G01 X8.5261 Y29.4195
G01 X8.4718 Y29.3439
G01 X8.4427 Y29.2810
G00 Z2.0000
G00 X8.9972 Y27.6457
G01 F60.00
G01 Z-0.0700
G01 F120.00
G01 X9.0178 Y27.7781
G01 X9.0237 Y27.9000
G01 X9.0178 Y28.0219
G01 X8.9999 Y28.1426
G01 X8.9702 Y28.2610
G01 X8.9291 Y28.3760
G01 X8.8769 Y28.4863
G01 X8.8141 Y28.5910
G01 X8.7414 Y28.6890
G01 X8.6595 Y28.7795
G01 X8.5690 Y28.8614
G01 X8.4710 Y28.9341
G01 X8.3663 Y28.9969
G01 X8.2560 Y29.0491
G01 X8.1410 Y29.0902
G01 X8.0226 Y29.1199
G01 X7.9019 Y29.1378
G01 X7.7800 Y29.1437
G01 X7.6581 Y29.1378
G01 X7.5374 Y29.1199
G01 X7.4190 Y29.0902
G01 X7.3040 Y29.0491
G01 X7.1937 Y28.9969
G01 X7.0890 Y28.9341
G01 X6.9910 Y28.8614
G01 X6.9005 Y28.7795
G01 X6.8186 Y28.6890
G01 X6.7459 Y28.5910
G01 X6.6831 Y28.4863
G01 X6.6309 Y28.3760
G01 X6.5898 Y28.2610
G01 X6.5601 Y28.1426
G01 X6.5422 Y28.0219
G01 X6.5363 Y27.9000
G01 X6.5422 Y27.7781
G01 X6.5601 Y27.6574
G01 X6.5898 Y27.5390
G01 X6.6309 Y27.4240
G01 X6.6831 Y27.3137
G01 X6.7459 Y27.2090
G01 X6.8186 Y27.1110
G01 X6.9005 Y27.0205
G01 X6.9910 Y26.9386
G01 X7.0890 Y26.8659
G01 X7.1937 Y26.8031
G01 X7.3040 Y26.7509
G01 X7.4190 Y26.7098
G01 X7.5374 Y26.6801
G01 X7.6581 Y26.6622
G01 X7.7800 Y26.6563
G01 X7.9019 Y26.6622
G01 X8.0226 Y26.6801
G01 X8.1410 Y26.7098
G01 X8.2560 Y26.7509
G01 X8.3663 Y26.8031
G01 X8.4710 Y26.8659
G01 X8.5690 Y26.9386
G01 X8.6595 Y27.0205
G01 X8.7414 Y27.1110
G01 X8.8141 Y27.2090
G01 X8.8769 Y27.3137
G01 X8.9291 Y27.4240
G01 X8.9702 Y27.5390
G01 X8.9972 Y27.6457
G00 Z2.0000
G00 X8.4371 Y26.7185
G01 F60.00
G01 Z-0.0700
G01 F120.00
G01 X8.4297 Y26.5794
G01 X8.4553 Y26.4908
G01 X8.5026 Y26.4081
G01 X8.5374 Y26.3658
G01 X8.6546 Y26.2749
G01 X8.7636 Y26.2297
G01 X8.8295 Y26.2175
G01 X9.0407 Y26.2170
G01 X9.1763 Y26.2500
G01 X9.2491 Y26.2904
G01 X9.3635 Y26.3992
G01 X9.4306 Y26.5077
G01 X9.4526 Y26.5632
G01 X9.4632 Y26.6508
G01 X9.4630 Y26.9550
G01 X9.4302 Y27.0902
G01 X9.4109 Y27.1323
G01 X9.3680 Y27.1869
G01 X9.2977 Y27.2478
G01 X9.2376 Y27.2825
G01 X9.1931 Y27.2955
G01 X9.0779 Y27.3099
G01 X8.9873 Y27.2924
G01 X8.9014 Y27.2532
G01 X8.8584 Y27.2245
G01 X8.6341 Y26.9722
G01 X8.5414 Y26.8969
G01 X8.4718 Y26.8039
G01 X8.4371 Y26.7185
G00 Z2.0000
G00 X6.0839 Y27.0418
G01 F60.00
G01 Z-0.0700
G01 F120.00
G01 X6.0768 Y26.9740
G01 X6.0770 Y26.2744
G01 X6.0866 Y26.2173
G01 X6.1291 Y26.0971
G01 X6.1720 Y26.0425
G01 X6.2423 Y25.9816
G01 X6.2813 Y25.9565
G01 X6.3469 Y25.9338
G01 X6.4390 Y25.9206
G01 X6.5083 Y25.9239
G01 X6.6386 Y25.9762
G01 X6.7006 Y26.0224
G01 X6.7848 Y26.1346
G01 X6.9259 Y26.2878
G01 X7.0186 Y26.3631
G01 X7.0882 Y26.4560
G01 X7.1229 Y26.5415
G01 X7.1309 Y26.6458
G01 X7.1271 Y26.7036
G01 X7.1047 Y26.7692
G01 X7.0412 Y26.8740
G01 X6.9259 Y26.9722
G01 X6.7848 Y27.1254
G01 X6.7152 Y27.2195
G01 X6.6254 Y27.2932
G01 X6.5621 Y27.3216
G01 X6.4473 Y27.3394
G01 X6.4009 Y27.3391
G01 X6.3336 Y27.3222
G01 X6.2493 Y27.2829
G01 X6.2105 Y27.2576
G01 X6.1630 Y27.2070
G01 X6.1012 Y27.1040
G01 X6.0839 Y27.0418
G00 Z2.0000
G00 X6.0791 Y29.5478
G01 F60.00
G01 Z-0.0700
G01 F120.00
G01 X6.0770 Y28.8144
G01 X6.0866 Y28.7573
G01 X6.1291 Y28.6371
G01 X6.1720 Y28.5825
G01 X6.2423 Y28.5216
G01 X6.2813 Y28.4965
G01 X6.3469 Y28.4738
G01 X6.4390 Y28.4606
G01 X6.5083 Y28.4639
G01 X6.6386 Y28.5162
G01 X6.7006 Y28.5624
G01 X6.7848 Y28.6746
G01 X6.9259 Y28.8278
G01 X7.0186 Y28.9031
G01 X7.0999 Y29.0161
G01 X7.1229 Y29.0815
G01 X7.1312 Y29.1974
G01 X7.1217 Y29.2661
G01 X7.0992 Y29.3194
G01 X7.0412 Y29.4140
G01 X6.9259 Y29.5122
G01 X6.7848 Y29.6654
G01 X6.7152 Y29.7595
G01 X6.6254 Y29.8332
G01 X6.5395 Y29.8669
G01 X6.4473 Y29.8794
G01 X6.3780 Y29.8756
G01 X6.3336 Y29.8622
G01 X6.2293 Y29.8112
G01 X6.1772 Y29.7653
G01 X6.1126 Y29.6672
G01 X6.0923 Y29.6197
G01 X6.0791 Y29.5478
G00 Z2.0000
G00 X6.0839 Y24.5018
G01 F60.00
G01 Z-0.0700
G01 F120.00
G01 X6.0768 Y24.4340
G01 X6.0768 Y24.0445
G01 X6.0836 Y23.9870
G01 X6.1098 Y23.8977
G01 X6.1416 Y23.8361
G01 X6.2334 Y23.7475
G01 X6.2839 Y23.7137
G01 X6.3293 Y23.6964
G01 X6.4314 Y23.6771
G01 X6.7200 Y23.6770
G01 X6.7771 Y23.6866
G01 X6.8816 Y23.7208
G01 X6.9343 Y23.7543
G01 X7.0186 Y23.8231
G01 X7.0999 Y23.9361
G01 X7.1263 Y24.0245
G01 X7.1303 Y24.1406
G01 X7.1142 Y24.2081
G01 X7.0646 Y24.3001
G01 X7.0226 Y24.3543
G01 X6.9259 Y24.4322
G01 X6.7848 Y24.5854
G01 X6.7152 Y24.6795
G01 X6.6052 Y24.7647
G01 X6.5395 Y24.7869
G01 X6.4009 Y24.7991
G01 X6.3336 Y24.7822
G01 X6.2493 Y24.7429
G01 X6.2105 Y24.7176
G01 X6.1630 Y24.6670
G01 X6.1012 Y24.5640
G01 X6.0839 Y24.5018
G00 Z2.0000
G00 X8.4427 Y24.2010
G01 F60.00
G01 Z-0.0700
G01 F120.00
G01 X8.4291 Y24.0742
G01 X8.4329 Y24.0164
G01 X8.4553 Y23.9508
G01 X8.5026 Y23.8681
G01 X8.5475 Y23.8165
G01 X8.6351 Y23.7474
G01 X8.6860 Y23.7199
G01 X8.7895 Y23.6826
G01 X8.8516 Y23.6768
G01 X10.2315 Y23.6768
G01 X10.2889 Y23.6836
G01 X10.3786 Y23.7100
G01 X10.4420 Y23.7431
G01 X10.4915 Y23.7845
G01 X11.8955 Y25.1885
G01 X11.9371 Y25.2440
G01 X11.9926 Y25.3608
G01 X12.0032 Y25.4485
G01 X12.0030 Y34.4632
G01 X11.9702 Y34.5981
G01 X11.9327 Y34.6676
G01 X11.8152 Y34.8089
G01 X11.7254 Y34.8826
G01 X11.6621 Y34.9110
G01 X11.5473 Y34.9288
G01 X11.4780 Y34.9250
G01 X11.4336 Y34.9116
G01 X11.3293 Y34.8606
G01 X11.2772 Y34.8147
G01 X11.2126 Y34.7166
G01 X11.1923 Y34.6691
G01 X11.1773 Y34.5803
G01 X11.1786 Y26.2131
G01 X11.1746 Y26.0415
G01 X11.1398 Y25.8816
G01 X11.0754 Y25.7312
G01 X10.9837 Y25.5957
G01 X10.9429 Y25.5497
G01 X10.1926 Y24.8019
G01 X10.0684 Y24.6835
G01 X10.0188 Y24.6473
G01 X9.8751 Y24.5688
G01 X9.7193 Y24.5190
G01 X9.6182 Y24.5032
G01 X8.8516 Y24.5032
G01 X8.7829 Y24.4934
G01 X8.6784 Y24.4592
G01 X8.5583 Y24.3729
G01 X8.4718 Y24.2640
G01 X8.4427 Y24.2010
G00 Z2.0000
G00 X8.4371 Y21.6385
G01 F60.00
G01 Z-0.0700
G01 F120.00
G01 X8.4288 Y21.5226
G01 X8.4383 Y21.4539
G01 X8.4608 Y21.4006
G01 X8.5188 Y21.3060
G01 X8.5623 Y21.2638
G01 X8.6546 Y21.1949
G01 X8.7636 Y21.1497
G01 X8.8406 Y21.1370
G01 X10.0956 Y21.1368
G01 X10.1531 Y21.1436
G01 X10.2861 Y21.1900
G01 X10.3462 Y21.2355
G01 X10.4467 Y21.3355
G01 X10.4825 Y21.3810
G01 X10.5271 Y21.4626
G01 X10.5509 Y21.5518
G01 X10.5448 Y21.6678
G01 X10.5350 Y21.7131
G01 X10.5047 Y21.7755
G01 X10.4489 Y21.8500
G01 X10.4161 Y21.8827
G01 X10.3569 Y21.9188
G01 X10.2683 Y21.9518
G01 X10.2042 Y21.9628
G01 X8.8169 Y21.9608
G01 X8.6784 Y21.9192
G01 X8.5583 Y21.8329
G01 X8.4718 Y21.7240
G01 X8.4371 Y21.6385
G00 Z2.0000
G00 X8.5596 Y19.3112
G01 F60.00
G01 Z-0.0700
G01 F120.00
G01 X8.6920 Y19.4359
G01 X10.6736 Y19.4391
G01 X10.7792 Y19.4548
G01 X10.9147 Y19.4959
G01 X11.0007 Y19.5356
G01 X11.0816 Y19.5851
G01 X11.1997 Y19.6832
G01 X15.9968 Y24.4803
G01 X16.1018 Y24.6082
G01 X16.1798 Y24.7542
G01 X16.2278 Y24.9125
G01 X16.2441 Y25.0772
G01 X16.2441 Y34.6080
G01 X16.3614 Y34.7310
G01 X16.4341 Y34.8290
G01 X16.4969 Y34.9337
G01 X16.5491 Y35.0440
G01 X16.5902 Y35.1590
G01 X16.6199 Y35.2774
G01 X16.6378 Y35.3981
G01 X16.6435 Y35.5320
G01 X16.6378 Y35.6419
G01 X16.6219 Y35.7509
G01 X16.5902 Y35.8810
G01 X16.5491 Y35.9960
G01 X16.5023 Y36.0956
G01 X16.4341 Y36.2110
G01 X16.3614 Y36.3090
G01 X16.2877 Y36.3908
G01 X16.1890 Y36.4814
G01 X16.0910 Y36.5541
G01 X15.9967 Y36.6110
G01 X15.8760 Y36.6691
G01 X15.7610 Y36.7102
G01 X15.6309 Y36.7419
G01 X15.5100 Y36.7586
G01 X15.4000 Y36.7637
G01 X15.2900 Y36.7586
G01 X15.1574 Y36.7399
G01 X15.0390 Y36.7102
G01 X14.9240 Y36.6691
G01 X14.8033 Y36.6110
G01 X14.6992 Y36.5473
G01 X14.6110 Y36.4814
G01 X14.5292 Y36.4077
G01 X14.4386 Y36.3090
G01 X14.3659 Y36.2110
G01 X14.3031 Y36.1063
G01 X14.2466 Y35.9848
G01 X14.2098 Y35.8810
G01 X14.1828 Y35.7743
G01 X14.1622 Y35.6419
G01 X14.1563 Y35.5200
G01 X14.1637 Y35.3862
G01 X14.1828 Y35.2657
G01 X14.2098 Y35.1590
G01 X14.2466 Y35.0552
G01 X14.3031 Y34.9337
G01 X14.3659 Y34.8290
G01 X14.4386 Y34.7310
G01 X14.5559 Y34.6080
G01 X14.5559 Y25.4268
G01 X10.2532 Y21.1241
G01 X8.6920 Y21.1241
G01 X8.5690 Y21.2414
G01 X8.4710 Y21.3141
G01 X8.3663 Y21.3769
G01 X8.2560 Y21.4291
G01 X8.1410 Y21.4702
G01 X8.0226 Y21.4999
G01 X7.9019 Y21.5178
G01 X7.7800 Y21.5237
G01 X7.6581 Y21.5178
G01 X7.5374 Y21.4999
G01 X7.4190 Y21.4702
G01 X7.3040 Y21.4291
G01 X7.1937 Y21.3769
G01 X7.0890 Y21.3141
G01 X6.9910 Y21.2414
G01 X6.9005 Y21.1595
G01 X6.8186 Y21.0690
G01 X6.7459 Y20.9710
G01 X6.6831 Y20.8663
G01 X6.6309 Y20.7560
G01 X6.5898 Y20.6410
G01 X6.5601 Y20.5226
G01 X6.5422 Y20.4019
G01 X6.5365 Y20.2920
G01 X6.5437 Y20.1462
G01 X6.5601 Y20.0374
G01 X6.5936 Y19.9076
G01 X6.6309 Y19.8040
G01 X6.6831 Y19.6937
G01 X6.7459 Y19.5890
G01 X6.8264 Y19.4819
G01 X6.9005 Y19.4005
G01 X6.9910 Y19.3186
G01 X7.0890 Y19.2459
G01 X7.1937 Y19.1831
G01 X7.3040 Y19.1309
G01 X7.4190 Y19.0898
G01 X7.5374 Y19.0601
G01 X7.6581 Y19.0422
G01 X7.7800 Y19.0363
G01 X7.9019 Y19.0422
G01 X8.0226 Y19.0601
G01 X8.1410 Y19.0898
G01 X8.2560 Y19.1309
G01 X8.3663 Y19.1831
G01 X8.4710 Y19.2459
G01 X8.5596 Y19.3112
G00 Z2.0000
G00 X15.4946 Y13.4985
G01 F60.00
G01 Z-0.0700
G01 F120.00
G01 X15.4000 Y13.5041
G01 X8.6920 Y13.5041
G01 X8.5690 Y13.6214
G01 X8.4710 Y13.6941
G01 X8.3663 Y13.7569
G01 X8.2448 Y13.8134
G01 X8.1410 Y13.8502
G01 X8.0343 Y13.8772
G01 X7.9138 Y13.8963
G01 X7.7800 Y13.9037
G01 X7.6581 Y13.8978
G01 X7.5374 Y13.8799
G01 X7.4190 Y13.8502
G01 X7.3040 Y13.8091
G01 X7.1937 Y13.7569
G01 X7.0890 Y13.6941
G01 X6.9910 Y13.6214
G01 X6.9005 Y13.5395
G01 X6.8186 Y13.4490
G01 X6.7459 Y13.3510
G01 X6.6831 Y13.2463
G01 X6.6309 Y13.1360
G01 X6.5898 Y13.0210
G01 X6.5601 Y12.9026
G01 X6.5422 Y12.7819
G01 X6.5363 Y12.6600
G01 X6.5422 Y12.5381
G01 X6.5601 Y12.4174
G01 X6.5898 Y12.2990
G01 X6.6309 Y12.1840
G01 X6.6777 Y12.0844
G01 X6.7527 Y11.9592
G01 X6.8186 Y11.8710
G01 X6.9005 Y11.7805
G01 X6.9910 Y11.6986
G01 X7.0792 Y11.6327
G01 X7.2044 Y11.5577
G01 X7.3040 Y11.5109
G01 X7.4190 Y11.4698
G01 X7.5374 Y11.4401
G01 X7.6581 Y11.4222
G01 X7.7800 Y11.4163
G01 X7.9138 Y11.4237
G01 X8.0343 Y11.4428
G01 X8.1410 Y11.4698
G01 X8.2448 Y11.5066
G01 X8.3663 Y11.5631
G01 X8.4710 Y11.6259
G01 X8.5690 Y11.6986
G01 X8.6920 Y11.8159
G01 X15.4827 Y11.8200
G01 X15.6450 Y11.8523
G01 X15.7872 Y11.9102
G01 X15.9260 Y12.0002
G01 X16.0051 Y12.0718
G01 X16.1018 Y12.1911
G01 X16.1798 Y12.3370
G01 X16.2278 Y12.4953
G01 X16.2441 Y12.6600
G01 X16.2278 Y12.8247
G01 X16.1841 Y12.9718
G01 X16.1082 Y13.1188
G01 X16.0446 Y13.2045
G01 X15.9355 Y13.3125
G01 X15.7979 Y13.4044
G01 X15.6450 Y13.4677
G01 X15.4946 Y13.4985
G00 Z2.0000
G00 X12.0710 Y44.1014
G01 F60.00
G01 Z-0.0700
G01 F120.00
G01 X11.9480 Y43.9841
G01 X10.2492 Y43.9809
G01 X10.0750 Y43.9477
G01 X9.9221 Y43.8844
G01 X9.7845 Y43.7925
G01 X9.6675 Y43.6755
G01 X9.5756 Y43.5379
G01 X9.5123 Y43.3850
G01 X9.4800 Y43.2227
G01 X9.4800 Y43.0573
G01 X9.5123 Y42.8950
G01 X9.5756 Y42.7421
G01 X9.6675 Y42.6045
G01 X9.7845 Y42.4875
G01 X9.9221 Y42.3956
G01 X10.0865 Y42.3291
G01 X10.2254 Y42.3015
G01 X10.3140 Y42.2960
G01 X11.9480 Y42.2959
G01 X12.0804 Y42.1712
G01 X12.1690 Y42.1059
G01 X12.2737 Y42.0431
G01 X12.3840 Y41.9909
G01 X12.4990 Y41.9498
G01 X12.6174 Y41.9201
G01 X12.7262 Y41.9037
G01 X12.8600 Y41.8963
G01 X12.9819 Y41.9022
G01 X13.1026 Y41.9201
G01 X13.2210 Y41.9498
G01 X13.3360 Y41.9909
G01 X13.4463 Y42.0431
G01 X13.5510 Y42.1059
G01 X13.6490 Y42.1786
G01 X13.7395 Y42.2605
G01 X13.8214 Y42.3510
G01 X13.8941 Y42.4490
G01 X13.9569 Y42.5537
G01 X14.0091 Y42.6640
G01 X14.0502 Y42.7790
G01 X14.0799 Y42.8974
G01 X14.0978 Y43.0181
G01 X14.1037 Y43.1400
G01 X14.0978 Y43.2619
G01 X14.0799 Y43.3826
G01 X14.0502 Y43.5010
G01 X14.0091 Y43.6160
G01 X13.9569 Y43.7263
G01 X13.8941 Y43.8310
G01 X13.8214 Y43.9290
G01 X13.7395 Y44.0195
G01 X13.6490 Y44.1014
G01 X13.5510 Y44.1741
G01 X13.4463 Y44.2369
G01 X13.3360 Y44.2891
G01 X13.2210 Y44.3302
G01 X13.1026 Y44.3599
G01 X12.9819 Y44.3778
G01 X12.8600 Y44.3837
G01 X12.7381 Y44.3778
G01 X12.6174 Y44.3599
G01 X12.4990 Y44.3302
G01 X12.3840 Y44.2891
G01 X12.2737 Y44.2369
G01 X12.1690 Y44.1741
G01 X12.0710 Y44.1014
G00 Z2.0000
G00 X8.6381 Y45.3347
G01 F60.00
G01 Z-0.0700
G01 F120.00
G01 X8.6370 Y31.4968
G01 X8.6466 Y31.4397
G01 X8.6884 Y31.3206
G01 X8.8248 Y31.1511
G01 X8.8956 Y31.0907
G01 X8.9559 Y31.0565
G01 X9.0005 Y31.0437
G01 X9.1159 Y31.0302
G01 X9.2064 Y31.0484
G01 X9.2907 Y31.0877
G01 X9.3469 Y31.1284
G01 X9.3834 Y31.1733
G01 X9.4388 Y31.2666
G01 X9.4627 Y31.3797
G01 X9.4632 Y36.0544
G01 X9.4749 Y36.1764
G01 X9.5002 Y36.2755
G01 X9.5646 Y36.4260
G01 X9.5960 Y36.4788
G01 X9.6971 Y36.6074
G01 X14.4355 Y41.3407
G01 X14.4713 Y41.3862
G01 X14.5161 Y41.4682
G01 X14.5326 Y41.5130
G01 X14.5429 Y41.5876
G01 X14.5430 Y42.0832
G01 X14.5102 Y42.2181
G01 X14.4727 Y42.2876
G01 X14.3752 Y42.3939
G01 X14.2768 Y42.4557
G01 X14.2117 Y42.4795
G01 X14.1656 Y42.4847
G01 X14.0514 Y42.4793
G01 X13.9691 Y42.4497
G01 X13.8819 Y42.3916
G01 X13.7141 Y42.2122
G01 X13.5497 Y42.0843
G01 X13.3666 Y41.9852
G01 X13.1696 Y41.9175
G01 X12.9641 Y41.8832
G01 X12.7559 Y41.8832
G01 X12.5504 Y41.9175
G01 X12.3534 Y41.9852
G01 X12.1703 Y42.0843
G01 X11.9854 Y42.2251
G01 X11.8764 Y42.2703
G01 X11.8239 Y42.2815
G01 X10.2792 Y42.2832
G01 X10.1571 Y42.2949
G01 X10.0001 Y42.3410
G01 X9.8547 Y42.4160
G01 X9.7261 Y42.5171
G01 X9.6189 Y42.6408
G01 X9.5371 Y42.7825
G01 X9.4836 Y42.9371
G01 X9.4603 Y43.0991
G01 X9.4681 Y43.2625
G01 X9.5067 Y43.4215
G01 X9.5747 Y43.5703
G01 X9.6696 Y43.7036
G01 X9.7880 Y43.8165
G01 X9.9256 Y43.9050
G01 X10.0775 Y43.9658
G01 X10.2382 Y43.9968
G01 X11.8231 Y43.9992
G01 X11.9369 Y44.0304
G01 X11.9851 Y44.0538
G01 X12.1703 Y44.1957
G01 X12.3534 Y44.2948
G01 X12.5504 Y44.3625
G01 X12.7559 Y44.3968
G01 X12.9641 Y44.3968
G01 X13.1696 Y44.3625
G01 X13.3666 Y44.2948
G01 X13.5497 Y44.1957
G01 X13.7141 Y44.0678
G01 X13.8675 Y43.9016
G01 X13.9034 Y43.8723
G01 X14.0041 Y43.8143
G01 X14.0712 Y43.7968
G01 X14.2086 Y43.8007
G01 X14.2909 Y43.8303
G01 X14.3781 Y43.8884
G01 X14.5459 Y44.0678
G01 X14.7103 Y44.1957
G01 X14.8934 Y44.2948
G01 X15.0904 Y44.3625
G01 X15.2959 Y44.3968
G01 X15.5041 Y44.3968
G01 X15.7096 Y44.3625
G01 X15.9066 Y44.2948
G01 X16.0897 Y44.1957
G01 X16.2541 Y44.0678
G01 X16.4248 Y43.8861
G01 X16.5232 Y43.8243
G01 X16.5659 Y43.8064
G01 X16.6344 Y43.7953
G01 X16.7701 Y43.8053
G01 X16.8309 Y43.8303
G01 X16.9181 Y43.8884
G01 X16.9937 Y43.9680
G01 X17.0199 Y44.0063
G01 X17.0691 Y44.1106
G01 X17.0805 Y44.1660
G01 X17.0832 Y45.7208
G01 X17.0949 Y45.8429
G01 X17.1410 Y45.9999
G01 X17.2160 Y46.1453
G01 X17.3171 Y46.2739
G01 X17.4408 Y46.3811
G01 X17.5277 Y46.4392
G01 X17.6063 Y46.5248
G01 X17.6446 Y46.6087
G01 X17.6644 Y46.7232
G01 X17.6622 Y46.7695
G01 X17.6473 Y46.8254
G01 X17.6061 Y46.9215
G01 X17.5632 Y46.9761
G01 X17.4638 Y47.0490
G01 X17.2503 Y47.1643
G01 X17.0859 Y47.2922
G01 X16.9448 Y47.4454
G01 X16.8309 Y47.6198
G01 X16.7473 Y47.8105
G01 X16.6961 Y48.0124
G01 X16.6789 Y48.2200
G01 X16.6961 Y48.4276
G01 X16.7473 Y48.6295
G01 X16.8309 Y48.8202
G01 X16.9448 Y48.9946
G01 X17.0859 Y49.1478
G01 X17.2370 Y49.2686
G01 X17.3184 Y49.3816
G01 X17.3414 Y49.4470
G01 X17.3497 Y49.5629
G01 X17.3455 Y49.6091
G01 X17.3232 Y49.6747
G01 X17.2637 Y49.7745
G01 X17.2137 Y49.8227
G01 X17.0900 Y49.8872
G01 X16.9972 Y49.9030
G01 X13.2314 Y49.9032
G01 X13.1739 Y49.8964
G01 X13.0621 Y49.8611
G01 X12.9713 Y49.7955
G01 X8.7445 Y45.5687
G01 X8.7087 Y45.5232
G01 X8.6639 Y45.4412
G01 X8.6474 Y45.3963
G01 X8.6381 Y45.3347
G00 Z2.0000
G00 X6.9415 Y45.9104
G01 F60.00
G01 Z-0.0700
G01 F120.00
G01 X6.9359 Y45.8158
G01 X6.9359 Y31.3520
G01 X6.8186 Y31.2290
G01 X6.7459 Y31.1310
G01 X6.6831 Y31.0263
G01 X6.6309 Y30.9160
G01 X6.5898 Y30.8010
G01 X6.5601 Y30.6826
G01 X6.5422 Y30.5619
G01 X6.5365 Y30.4280
G01 X6.5422 Y30.3181
G01 X6.5601 Y30.1974
G01 X6.5898 Y30.0790
G01 X6.6309 Y29.9640
G01 X6.6831 Y29.8537
G01 X6.7459 Y29.7490
G01 X6.8186 Y29.6510
G01 X6.8923 Y29.5692
G01 X7.0004 Y29.4712
G01 X7.0890 Y29.4059
G01 X7.2044 Y29.3377
G01 X7.3040 Y29.2909
G01 X7.4190 Y29.2498
G01 X7.5374 Y29.2201
G01 X7.6462 Y29.2037
G01 X7.7800 Y29.1963
G01 X7.9019 Y29.2022
G01 X8.0226 Y29.2201
G01 X8.1410 Y29.2498
G01 X8.2560 Y29.2909
G01 X8.3663 Y29.3431
G01 X8.4710 Y29.4059
G01 X8.5690 Y29.4786
G01 X8.6595 Y29.5605
G01 X8.7414 Y29.6510
G01 X8.8141 Y29.7490
G01 X8.8769 Y29.8537
G01 X8.9291 Y29.9640
G01 X8.9702 Y30.0790
G01 X8.9999 Y30.1974
G01 X9.0186 Y30.3300
G01 X9.0237 Y30.4400
G01 X9.0186 Y30.5500
G01 X9.0019 Y30.6709
G01 X8.9702 Y30.8010
G01 X8.9291 Y30.9160
G01 X8.8769 Y31.0263
G01 X8.8141 Y31.1310
G01 X8.7414 Y31.2290
G01 X8.6241 Y31.3520
G01 X8.6241 Y45.4662
G01 X13.0738 Y49.9159
G01 X22.6704 Y49.9159
G01 X27.2559 Y45.3304
G01 X27.2559 Y44.0520
G01 X27.1386 Y43.9290
G01 X27.0659 Y43.8310
G01 X27.0031 Y43.7263
G01 X26.9509 Y43.6160
G01 X26.9098 Y43.5010
G01 X26.8801 Y43.3826
G01 X26.8622 Y43.2619
G01 X26.8563 Y43.1400
G01 X26.8622 Y43.0181
G01 X26.8801 Y42.8974
G01 X26.9098 Y42.7790
G01 X26.9509 Y42.6640
G01 X27.0031 Y42.5537
G01 X27.0659 Y42.4490
G01 X27.1386 Y42.3510
G01 X27.2205 Y42.2605
G01 X27.3204 Y42.1712
G01 X27.4090 Y42.1059
G01 X27.5137 Y42.0431
G01 X27.6352 Y41.9866
G01 X27.7390 Y41.9498
G01 X27.8457 Y41.9228
G01 X27.9900 Y41.9014
G01 X28.1000 Y41.8963
G01 X28.2100 Y41.9014
G01 X28.3426 Y41.9201
G01 X28.4724 Y41.9536
G01 X28.5760 Y41.9909
G01 X28.6756 Y42.0377
G01 X28.7910 Y42.1059
G01 X28.8981 Y42.1864
G01 X28.9795 Y42.2605
G01 X29.0614 Y42.3510
G01 X29.1341 Y42.4490
G01 X29.1910 Y42.5433
G01 X29.2491 Y42.6640
G01 X29.2934 Y42.7905
G01 X29.3199 Y42.8974
G01 X29.3363 Y43.0062
G01 X29.3437 Y43.1400
G01 X29.3363 Y43.2738
G01 X29.3172 Y43.3943
G01 X29.2902 Y43.5010
G01 X29.2534 Y43.6048
G01 X29.1969 Y43.7263
G01 X29.1341 Y43.8310
G01 X29.0614 Y43.9290
G01 X28.9441 Y44.0520
G01 X28.9409 Y45.7508
G01 X28.9252 Y45.8563
G01 X28.8841 Y45.9918
G01 X28.8444 Y46.0779
G01 X28.7949 Y46.1587
G01 X28.6968 Y46.2768
G01 X23.6126 Y51.3610
G01 X23.4987 Y51.4549
G01 X23.4072 Y51.5098
G01 X23.2650 Y51.5677
G01 X23.1146 Y51.5985
G01 X23.0200 Y51.6041
G01 X12.7242 Y51.6041
G01 X12.5713 Y51.5899
G01 X12.4678 Y51.5640
G01 X12.3370 Y51.5098
G01 X12.2653 Y51.4682
G01 X12.1316 Y51.3610
G01 X7.1832 Y46.4127
G01 X7.0851 Y46.2945
G01 X7.0302 Y46.2030
G01 X6.9723 Y46.0609
G01 X6.9415 Y45.9104
G00 Z2.0000
G00 X6.0810 Y45.2052
G01 F60.00
G01 Z-0.0700
G01 F120.00
G01 X6.0770 Y31.3544
G01 X6.0836 Y31.3085
G01 X6.1185 Y31.1977
G01 X6.1720 Y31.1225
G01 X6.2423 Y31.0616
G01 X6.3024 Y31.0269
G01 X6.3469 Y31.0138
G01 X6.4621 Y30.9995
G01 X6.5083 Y31.0039
G01 X6.5634 Y31.0215
G01 X6.6386 Y31.0562
G01 X6.7006 Y31.1024
G01 X6.8599 Y31.3063
G01 X6.9091 Y31.4106
G01 X6.9230 Y31.4979
G01 X6.9208 Y45.2985
G01 X6.8902 Y45.4106
G01 X6.8709 Y45.4527
G01 X6.8280 Y45.5072
G01 X6.7577 Y45.5682
G01 X6.6757 Y45.6105
G01 X6.5610 Y45.6292
G01 X6.5147 Y45.6292
G01 X6.4473 Y45.6128
G01 X6.3730 Y45.5792
G01 X6.2986 Y45.5269
G01 X6.1765 Y45.4044
G01 X6.1487 Y45.3673
G01 X6.0946 Y45.2633
G01 X6.0810 Y45.2052
G00 Z2.0000
G00 X4.3762 Y45.6720
G01 F60.00
G01 Z-0.0700
G01 F120.00
G01 X4.3759 Y23.5027
G01 X4.3815 Y23.4081
G01 X4.4091 Y23.2692
G01 X4.4402 Y23.1797
G01 X4.4815 Y23.0944
G01 X4.5675 Y22.9673
G01 X5.3102 Y22.2190
G01 X5.4240 Y22.1251
G01 X5.5048 Y22.0756
G01 X5.6577 Y22.0123
G01 X5.8319 Y21.9791
G01 X6.8680 Y21.9759
G01 X7.0004 Y21.8512
G01 X7.0890 Y21.7859
G01 X7.2044 Y21.7177
G01 X7.3040 Y21.6709
G01 X7.4190 Y21.6298
G01 X7.5374 Y21.6001
G01 X7.6581 Y21.5822
G01 X7.7800 Y21.5763
G01 X7.9138 Y21.5837
G01 X8.0343 Y21.6028
G01 X8.1410 Y21.6298
G01 X8.2448 Y21.6666
G01 X8.3663 Y21.7231
G01 X8.4710 Y21.7859
G01 X8.5690 Y21.8586
G01 X8.6920 Y21.9759
G01 X10.7506 Y21.9762
G01 X10.8333 Y21.9815
G01 X10.9722 Y22.0091
G01 X11.1366 Y22.0756
G01 X11.2174 Y22.1251
G01 X11.3355 Y22.2232
G01 X13.4610 Y24.3488
G01 X13.5549 Y24.4626
G01 X13.6044 Y24.5434
G01 X13.6640 Y24.6849
G01 X13.6899 Y24.7884
G01 X13.7041 Y24.9413
G01 X13.7041 Y34.6080
G01 X13.8214 Y34.7310
G01 X13.8941 Y34.8290
G01 X13.9569 Y34.9337
G01 X14.0134 Y35.0552
G01 X14.0534 Y35.1705
G01 X14.0799 Y35.2774
G01 X14.0963 Y35.3862
G01 X14.1037 Y35.5200
G01 X14.0978 Y35.6419
G01 X14.0799 Y35.7626
G01 X14.0502 Y35.8810
G01 X14.0091 Y35.9960
G01 X13.9569 Y36.1063
G01 X13.8941 Y36.2110
G01 X13.8214 Y36.3090
G01 X13.7395 Y36.3995
G01 X13.6490 Y36.4814
G01 X13.5510 Y36.5541
G01 X13.4463 Y36.6169
G01 X13.3360 Y36.6691
G01 X13.2210 Y36.7102
G01 X13.1026 Y36.7399
G01 X12.9819 Y36.7578
G01 X12.8600 Y36.7637
G01 X12.7381 Y36.7578
G01 X12.6174 Y36.7399
G01 X12.4990 Y36.7102
G01 X12.3840 Y36.6691
G01 X12.2844 Y36.6223
G01 X12.1592 Y36.5473
G01 X12.0710 Y36.4814
G01 X11.9805 Y36.3995
G01 X11.8986 Y36.3090
G01 X11.8259 Y36.2110
G01 X11.7631 Y36.1063
G01 X11.7158 Y36.0069
G01 X11.6666 Y35.8695
G01 X11.6401 Y35.7626
G01 X11.6214 Y35.6300
G01 X11.6165 Y35.5080
G01 X11.6222 Y35.3981
G01 X11.6381 Y35.2891
G01 X11.6698 Y35.1590
G01 X11.7109 Y35.0440
G01 X11.7631 Y34.9337
G01 X11.8259 Y34.8290
G01 X11.8986 Y34.7310
G01 X12.0159 Y34.6080
G01 X12.0159 Y25.2909
G01 X10.3891 Y23.6641
G01 X8.6920 Y23.6641
G01 X8.5781 Y23.7736
G01 X8.4808 Y23.8473
G01 X8.3663 Y23.9169
G01 X8.2669 Y23.9642
G01 X8.1410 Y24.0102
G01 X8.0226 Y24.0399
G01 X7.9019 Y24.0578
G01 X7.7920 Y24.0635
G01 X7.6581 Y24.0578
G01 X7.5374 Y24.0399
G01 X7.4190 Y24.0102
G01 X7.3040 Y23.9691
G01 X7.1937 Y23.9169
G01 X7.0890 Y23.8541
G01 X6.9910 Y23.7814
G01 X6.8680 Y23.6641
G01 X6.2523 Y23.6641
G01 X6.0641 Y23.8523
G01 X6.0641 Y45.3104
G01 X12.3696 Y51.6159
G01 X23.3745 Y51.6159
G01 X29.7959 Y45.1945
G01 X29.7959 Y44.0520
G01 X29.6786 Y43.9290
G01 X29.6059 Y43.8310
G01 X29.5431 Y43.7263
G01 X29.4909 Y43.6160
G01 X29.4498 Y43.5010
G01 X29.4201 Y43.3826
G01 X29.4022 Y43.2619
G01 X29.3963 Y43.1400
G01 X29.4022 Y43.0181
G01 X29.4201 Y42.8974
G01 X29.4498 Y42.7790
G01 X29.4909 Y42.6640
G01 X29.5431 Y42.5537
G01 X29.6059 Y42.4490
G01 X29.6786 Y42.3510
G01 X29.7605 Y42.2605
G01 X29.8604 Y42.1712
G01 X29.9490 Y42.1059
G01 X30.0537 Y42.0431
G01 X30.1752 Y41.9866
G01 X30.2790 Y41.9498
G01 X30.3857 Y41.9228
G01 X30.5300 Y41.9014
G01 X30.6400 Y41.8963
G01 X30.7500 Y41.9014
G01 X30.8826 Y41.9201
G01 X31.0124 Y41.9536
G01 X31.1160 Y41.9909
G01 X31.2156 Y42.0377
G01 X31.3310 Y42.1059
G01 X31.4381 Y42.1864
G01 X31.5195 Y42.2605
G01 X31.6014 Y42.3510
G01 X31.6741 Y42.4490
G01 X31.7310 Y42.5433
G01 X31.7891 Y42.6640
G01 X31.8334 Y42.7905
G01 X31.8599 Y42.8974
G01 X31.8778 Y43.0181
G01 X31.8837 Y43.1400
G01 X31.8763 Y43.2738
G01 X31.8572 Y43.3943
G01 X31.8302 Y43.5010
G01 X31.7934 Y43.6048
G01 X31.7369 Y43.7263
G01 X31.6741 Y43.8310
G01 X31.6014 Y43.9290
G01 X31.4841 Y44.0520
G01 X31.4800 Y45.6269
G01 X31.4509 Y45.7776
G01 X31.4198 Y45.8672
G01 X31.3785 Y45.9525
G01 X31.2925 Y46.0796
G01 X24.3167 Y53.0610
G01 X24.1931 Y53.1618
G01 X24.0581 Y53.2350
G01 X23.9576 Y53.2709
G01 X23.8069 Y53.3000
G01 X12.0199 Y53.3041
G01 X11.8553 Y53.2878
G01 X11.6970 Y53.2398
G01 X11.5511 Y53.1618
G01 X11.4232 Y53.0569
G01 X4.6190 Y46.2526
G01 X4.5182 Y46.1289
G01 X4.4402 Y45.9830
G01 X4.3922 Y45.8247
G01 X4.3762 Y45.6720
G00 Z2.0000
G00 X2.4594 Y53.2150
G01 F60.00
G01 Z-0.0700
G01 F120.00
G01 X2.4562 Y2.6240
G01 X2.4646 Y2.5609
G01 X2.5086 Y2.4351
G01 X2.5515 Y2.3806
G01 X2.6526 Y2.2990
G01 X2.7147 Y2.2744
G01 X2.8240 Y2.2562
G01 X33.0560 Y2.2562
G01 X33.1191 Y2.2646
G01 X33.2449 Y2.3086
G01 X33.2994 Y2.3515
G01 X33.3810 Y2.4526
G01 X33.4056 Y2.5147
G01 X33.4238 Y2.6240
G01 X33.4238 Y53.1760
G01 X33.4154 Y53.2391
G01 X33.3714 Y53.3649
G01 X33.3285 Y53.4194
G01 X33.2274 Y53.5010
G01 X33.1712 Y53.5241
G01 X33.0625 Y53.5437
G01 X24.7399 Y53.5438
G01 X24.6824 Y53.5369
G01 X24.5986 Y53.5125
G01 X24.5222 Y53.4719
G01 X24.4285 Y53.3689
G01 X24.4008 Y53.3181
G01 X24.3877 Y53.2736
G01 X24.3737 Y53.1700
G01 X24.3803 Y53.1009
G01 X24.4302 Y52.9818
G01 X24.4768 Y52.9191
G01 X31.1981 Y46.2004
G01 X31.3165 Y46.0762
G01 X31.3527 Y46.0266
G01 X31.4050 Y45.9385
G01 X31.4658 Y45.7866
G01 X31.4967 Y45.6260
G01 X31.5012 Y44.1623
G01 X31.5484 Y44.0206
G01 X31.6352 Y43.9146
G01 X31.7491 Y43.7402
G01 X31.8327 Y43.5495
G01 X31.8839 Y43.3476
G01 X31.9011 Y43.1400
G01 X31.8839 Y42.9324
G01 X31.8327 Y42.7305
G01 X31.7491 Y42.5398
G01 X31.6352 Y42.3654
G01 X31.4941 Y42.2122
G01 X31.3297 Y42.0843
G01 X31.1466 Y41.9852
G01 X30.9496 Y41.9175
G01 X30.7441 Y41.8833
G01 X30.5359 Y41.8833
G01 X30.3304 Y41.9175
G01 X30.1334 Y41.9852
G01 X29.9503 Y42.0843
G01 X29.7859 Y42.2122
G01 X29.6061 Y42.4011
G01 X29.4959 Y42.4657
G01 X29.4056 Y42.4847
G01 X29.2914 Y42.4793
G01 X29.2044 Y42.4469
G01 X29.1219 Y42.3916
G01 X28.9541 Y42.2122
G01 X28.7897 Y42.0843
G01 X28.6066 Y41.9852
G01 X28.4096 Y41.9175
G01 X28.2041 Y41.8833
G01 X27.9959 Y41.8833
G01 X27.7904 Y41.9175
G01 X27.5934 Y41.9852
G01 X27.4103 Y42.0843
G01 X27.2459 Y42.2122
G01 X27.0661 Y42.4011
G01 X26.9665 Y42.4609
G01 X26.8888 Y42.4832
G01 X26.7514 Y42.4793
G01 X26.6644 Y42.4469
G01 X26.5819 Y42.3916
G01 X26.4141 Y42.2122
G01 X26.2497 Y42.0843
G01 X26.0666 Y41.9852
G01 X25.8696 Y41.9175
G01 X25.6641 Y41.8833
G01 X25.4559 Y41.8833
G01 X25.2504 Y41.9175
G01 X25.0534 Y41.9852
G01 X24.8703 Y42.0843
G01 X24.7059 Y42.2122
G01 X24.5648 Y42.3654
G01 X24.4509 Y42.5398
G01 X24.3673 Y42.7305
G01 X24.3161 Y42.9324
G01 X24.2989 Y43.1400
G01 X24.3161 Y43.3476
G01 X24.3673 Y43.5495
G01 X24.4509 Y43.7402
G01 X24.5648 Y43.9146
G01 X24.6399 Y44.0063
G01 X24.6853 Y44.1000
G01 X24.6993 Y44.1548
G01 X24.7033 Y45.7208
G01 X24.7149 Y45.8429
G01 X24.7610 Y45.9999
G01 X24.8360 Y46.1453
G01 X24.9371 Y46.2739
G01 X25.0608 Y46.3811
G01 X25.2025 Y46.4629
G01 X25.3603 Y46.5222
G01 X25.4460 Y46.5822
G01 X25.4939 Y46.6324
G01 X25.5216 Y46.6832
G01 X25.5626 Y46.8040
G01 X25.5639 Y46.8618
G01 X25.5445 Y46.9665
G01 X25.5195 Y47.0285
G01 X25.4612 Y47.1071
G01 X22.7728 Y49.7955
G01 X22.7273 Y49.8313
G01 X22.6233 Y49.8854
G01 X22.5128 Y49.9033
G01 X21.4000 Y49.9008
G01 X21.2879 Y49.8702
G01 X21.2263 Y49.8384
G01 X21.1377 Y49.7466
G01 X21.1052 Y49.6987
G01 X21.0826 Y49.6331
G01 X21.0685 Y49.5295
G01 X21.0726 Y49.4717
G01 X21.0879 Y49.4219
G01 X21.1244 Y49.3425
G01 X21.1571 Y49.2943
G01 X21.3341 Y49.1478
G01 X21.4752 Y48.9946
G01 X21.5891 Y48.8202
G01 X21.6727 Y48.6295
G01 X21.7239 Y48.4276
G01 X21.7411 Y48.2200
G01 X21.7239 Y48.0124
G01 X21.6727 Y47.8105
G01 X21.5891 Y47.6198
G01 X21.4752 Y47.4454
G01 X21.3341 Y47.2922
G01 X21.1697 Y47.1643
G01 X20.9866 Y47.0652
G01 X20.7896 Y46.9975
G01 X20.5841 Y46.9633
G01 X20.3759 Y46.9633
G01 X20.1704 Y46.9975
G01 X19.9734 Y47.0652
G01 X19.7903 Y47.1643
G01 X19.6259 Y47.2922
G01 X19.4641 Y47.4664
G01 X19.3619 Y47.5329
G01 X19.2803 Y47.5616
G01 X19.1532 Y47.5620
G01 X19.0686 Y47.5399
G01 X18.9784 Y47.4843
G01 X18.7941 Y47.2922
G01 X18.6297 Y47.1643
G01 X18.4006 Y47.0390
G01 X18.3286 Y46.9854
G01 X18.2896 Y46.9426
G01 X18.2335 Y46.8217
G01 X18.2191 Y46.7597
G01 X18.2212 Y46.6961
G01 X18.2500 Y46.5729
G01 X18.2822 Y46.5178
G01 X18.3386 Y46.4527
G01 X18.5036 Y46.3304
G01 X18.6165 Y46.2120
G01 X18.7050 Y46.0744
G01 X18.7658 Y45.9225
G01 X18.7967 Y45.7618
G01 X18.7992 Y44.1737
G01 X18.8430 Y44.0306
G01 X18.8836 Y43.9713
G01 X18.9352 Y43.9146
G01 X19.0491 Y43.7402
G01 X19.1327 Y43.5495
G01 X19.1839 Y43.3476
G01 X19.2011 Y43.1400
G01 X19.1839 Y42.9324
G01 X19.1327 Y42.7305
G01 X19.0491 Y42.5398
G01 X18.9352 Y42.3654
G01 X18.7941 Y42.2122
G01 X18.6297 Y42.0843
G01 X18.4466 Y41.9852
G01 X18.2496 Y41.9175
G01 X18.0441 Y41.8833
G01 X17.8359 Y41.8833
G01 X17.6304 Y41.9175
G01 X17.4334 Y41.9852
G01 X17.2503 Y42.0843
G01 X17.0859 Y42.2122
G01 X16.9152 Y42.3939
G01 X16.8219 Y42.4529
G01 X16.7741 Y42.4736
G01 X16.6998 Y42.4847
G01 X16.5699 Y42.4747
G01 X16.5091 Y42.4497
G01 X16.4141 Y42.3848
G01 X16.3259 Y42.2837
G01 X16.2790 Y42.1905
G01 X16.2625 Y42.1364
G01 X16.2567 Y42.0716
G01 X16.2546 Y40.9913
G01 X16.2198 Y40.8314
G01 X16.1990 Y40.7736
G01 X16.1240 Y40.6282
G01 X16.0229 Y40.4996
G01 X12.8878 Y37.3692
G01 X12.8542 Y37.3221
G01 X12.7992 Y37.2070
G01 X12.7910 Y37.1382
G01 X12.8015 Y37.0225
G01 X12.8378 Y36.9376
G01 X12.8943 Y36.8622
G01 X12.9411 Y36.8191
G01 X13.0531 Y36.7658
G01 X13.1696 Y36.7425
G01 X13.3666 Y36.6748
G01 X13.5497 Y36.5757
G01 X13.7141 Y36.4478
G01 X13.8939 Y36.2589
G01 X13.9935 Y36.1991
G01 X14.0712 Y36.1768
G01 X14.2086 Y36.1807
G01 X14.2956 Y36.2131
G01 X14.3781 Y36.2684
G01 X14.5459 Y36.4478
G01 X14.7103 Y36.5757
G01 X14.8934 Y36.6748
G01 X15.0904 Y36.7425
G01 X15.2959 Y36.7767
G01 X15.5041 Y36.7767
G01 X15.7096 Y36.7425
G01 X15.9066 Y36.6748
G01 X16.0897 Y36.5757
G01 X16.2541 Y36.4478
G01 X16.4339 Y36.2589
G01 X16.5335 Y36.1991
G01 X16.6112 Y36.1768
G01 X16.7486 Y36.1807
G01 X16.8356 Y36.2131
G01 X16.9181 Y36.2684
G01 X17.0859 Y36.4478
G01 X17.2503 Y36.5757
G01 X17.4334 Y36.6748
G01 X17.6304 Y36.7425
G01 X17.8359 Y36.7767
G01 X18.0441 Y36.7767
G01 X18.2496 Y36.7425
G01 X18.4466 Y36.6748
G01 X18.6297 Y36.5757
G01 X18.7941 Y36.4478
G01 X18.9352 Y36.2946
G01 X19.0491 Y36.1202
G01 X19.1327 Y35.9295
G01 X19.1839 Y35.7276
G01 X19.2011 Y35.5200
G01 X19.1839 Y35.3124
G01 X19.1327 Y35.1105
G01 X19.0491 Y34.9198
G01 X18.9352 Y34.7454
G01 X18.8659 Y34.6637
G01 X18.8190 Y34.5705
G01 X18.8025 Y34.5164
G01 X18.7967 Y34.4516
G01 X18.7967 Y32.9392
G01 X18.7851 Y32.8171
G01 X18.7390 Y32.6601
G01 X18.6640 Y32.5147
G01 X18.5629 Y32.3861
G01 X18.4392 Y32.2789
G01 X18.3523 Y32.2208
G01 X18.2880 Y32.1534
G01 X18.2556 Y32.1055
G01 X18.2341 Y32.0456
G01 X18.2153 Y31.9252
G01 X18.2252 Y31.8565
G01 X18.2633 Y31.7591
G01 X18.2934 Y31.7097
G01 X18.3389 Y31.6652
G01 X18.4196 Y31.6090
G01 X18.6297 Y31.4957
G01 X18.7941 Y31.3678
G01 X18.9739 Y31.1789
G01 X19.0841 Y31.1143
G01 X19.1628 Y31.0958
G01 X19.2886 Y31.1007
G01 X19.3709 Y31.1303
G01 X19.4581 Y31.1884
G01 X19.6259 Y31.3678
G01 X19.7903 Y31.4957
G01 X19.9734 Y31.5948
G01 X20.1704 Y31.6625
G01 X20.3759 Y31.6967
G01 X20.5841 Y31.6967
G01 X20.7896 Y31.6625
G01 X20.9866 Y31.5948
G01 X21.1697 Y31.4957
G01 X21.3341 Y31.3678
G01 X21.4752 Y31.2146
G01 X21.5891 Y31.0402
G01 X21.6727 Y30.8495
G01 X21.7239 Y30.6476
G01 X21.7411 Y30.4400
G01 X21.7239 Y30.2324
G01 X21.6727 Y30.0305
G01 X21.5891 Y29.8398
G01 X21.4752 Y29.6654
G01 X21.3341 Y29.5122
G01 X21.1697 Y29.3843
G01 X20.9866 Y29.2852
G01 X20.7896 Y29.2175
G01 X20.5841 Y29.1833
G01 X20.3759 Y29.1833
G01 X20.1704 Y29.2175
G01 X19.9734 Y29.2852
G01 X19.7903 Y29.3843
G01 X19.6259 Y29.5122
G01 X19.4461 Y29.7011
G01 X19.3465 Y29.7609
G01 X19.2803 Y29.7816
G01 X19.1423 Y29.7809
G01 X19.0491 Y29.7497
G01 X18.9619 Y29.6916
G01 X18.7941 Y29.5122
G01 X18.6297 Y29.3843
G01 X18.4466 Y29.2852
G01 X18.2496 Y29.2175
G01 X18.0441 Y29.1833
G01 X17.8359 Y29.1833
G01 X17.6304 Y29.2175
G01 X17.4334 Y29.2852
G01 X17.2503 Y29.3843
G01 X17.0859 Y29.5122
G01 X16.8952 Y29.7289
G01 X16.8151 Y29.7962
G01 X16.7532 Y29.8275
G01 X16.6331 Y29.8482
G01 X16.5694 Y29.8470
G01 X16.5083 Y29.8293
G01 X16.3905 Y29.7670
G01 X16.3430 Y29.7164
G01 X16.2866 Y29.6251
G01 X16.2688 Y29.5766
G01 X16.2569 Y29.4919
G01 X16.2546 Y24.9750
G01 X16.2451 Y24.9143
G01 X16.1990 Y24.7573
G01 X16.1554 Y24.6647
G01 X16.0637 Y24.5292
G01 X11.2591 Y19.7219
G01 X11.1349 Y19.6035
G01 X11.0852 Y19.5673
G01 X10.9416 Y19.4888
G01 X10.7858 Y19.4390
G01 X10.6847 Y19.4233
G01 X8.8055 Y19.4188
G01 X8.6664 Y19.3730
G01 X8.5497 Y19.2851
G01 X8.4601 Y19.1639
G01 X8.4396 Y19.1098
G01 X8.4328 Y19.0640
G01 X8.4290 Y18.9710
G01 X8.4383 Y18.9139
G01 X8.4580 Y18.8656
G01 X8.5188 Y18.7660
G01 X8.5623 Y18.7238
G01 X8.6546 Y18.6549
G01 X8.7573 Y18.6119
G01 X8.8161 Y18.5985
G01 X12.3586 Y18.5968
G01 X12.4942 Y18.6281
G01 X12.5633 Y18.6631
G01 X12.6128 Y18.7045
G01 X25.4606 Y31.5523
G01 X25.4923 Y31.5936
G01 X25.5369 Y31.6753
G01 X25.5597 Y31.7529
G01 X25.5530 Y31.8919
G01 X25.5208 Y31.9784
G01 X25.4507 Y32.0718
G01 X25.4057 Y32.1104
G01 X25.1297 Y32.2347
G01 X24.9964 Y32.3296
G01 X24.8835 Y32.4480
G01 X24.7950 Y32.5856
G01 X24.7342 Y32.7375
G01 X24.7033 Y32.8982
G01 X24.7008 Y34.4863
G01 X24.6720 Y34.5927
G01 X24.6516 Y34.6393
G01 X24.5648 Y34.7454
G01 X24.4509 Y34.9198
G01 X24.3673 Y35.1105
G01 X24.3161 Y35.3124
G01 X24.2989 Y35.5200
G01 X24.3161 Y35.7276
G01 X24.3673 Y35.9295
G01 X24.4509 Y36.1202
G01 X24.5648 Y36.2946
G01 X24.7059 Y36.4478
G01 X24.8703 Y36.5757
G01 X25.0534 Y36.6748
G01 X25.2504 Y36.7425
G01 X25.4559 Y36.7767
G01 X25.6641 Y36.7767
G01 X25.8696 Y36.7425
G01 X26.0666 Y36.6748
G01 X26.2497 Y36.5757
G01 X26.4141 Y36.4478
G01 X26.5634 Y36.2857
G01 X26.6132 Y36.2461
G01 X26.6832 Y36.2043
G01 X26.7370 Y36.1832
G01 X26.7944 Y36.1753
G01 X26.8868 Y36.1780
G01 X26.9714 Y36.2001
G01 X27.0616 Y36.2557
G01 X27.2459 Y36.4478
G01 X27.4103 Y36.5757
G01 X27.5934 Y36.6748
G01 X27.7904 Y36.7425
G01 X27.9959 Y36.7767
G01 X28.2041 Y36.7767
G01 X28.4096 Y36.7425
G01 X28.6066 Y36.6748
G01 X28.7897 Y36.5757
G01 X28.9541 Y36.4478
G01 X29.1034 Y36.2857
G01 X29.1532 Y36.2461
G01 X29.2232 Y36.2043
G01 X29.2770 Y36.1832
G01 X29.3344 Y36.1753
G01 X29.4213 Y36.1777
G01 X29.5014 Y36.1957
G01 X29.6016 Y36.2557
G01 X29.7859 Y36.4478
G01 X29.9503 Y36.5757
G01 X30.1334 Y36.6748
G01 X30.3304 Y36.7425
G01 X30.5359 Y36.7767
G01 X30.7441 Y36.7767
G01 X30.9496 Y36.7425
G01 X31.1466 Y36.6748
G01 X31.3297 Y36.5757
G01 X31.4941 Y36.4478
G01 X31.6352 Y36.2946
G01 X31.7491 Y36.1202
G01 X31.8327 Y35.9295
G01 X31.8839 Y35.7276
G01 X31.9011 Y35.5200
G01 X31.8839 Y35.3124
G01 X31.8327 Y35.1105
G01 X31.7491 Y34.9198
G01 X31.6352 Y34.7454
G01 X31.5601 Y34.6537
G01 X31.5147 Y34.5600
G01 X31.5007 Y34.5052
G01 X31.4967 Y32.9392
G01 X31.4851 Y32.8171
G01 X31.4390 Y32.6601
G01 X31.3640 Y32.5147
G01 X31.2629 Y32.3861
G01 X31.0813 Y32.2375
G01 X30.9962 Y32.1423
G01 X30.9644 Y32.0680
G01 X30.9443 Y31.9420
G01 X30.9597 Y31.8568
G01 X30.9977 Y31.7648
G01 X31.0313 Y31.7157
G01 X31.1257 Y31.6365
G01 X31.3297 Y31.5257
G01 X31.4941 Y31.3978
G01 X31.6352 Y31.2446
G01 X31.7491 Y31.0702
G01 X31.8327 Y30.8795
G01 X31.8839 Y30.6776
G01 X31.9011 Y30.4700
G01 X31.8839 Y30.2624
G01 X31.8327 Y30.0605
G01 X31.7491 Y29.8698
G01 X31.6352 Y29.6954
G01 X31.4941 Y29.5422
G01 X31.4014 Y29.4669
G01 X31.3318 Y29.3740
G01 X31.2971 Y29.2885
G01 X31.2889 Y29.1784
G01 X31.3058 Y29.0819
G01 X31.3704 Y28.9668
G01 X31.4075 Y28.9265
G01 X31.4941 Y28.8578
G01 X31.6352 Y28.7046
G01 X31.7491 Y28.5302
G01 X31.8327 Y28.3395
G01 X31.8839 Y28.1376
G01 X31.9011 Y27.9300
G01 X31.8839 Y27.7224
G01 X31.8327 Y27.5205
G01 X31.7491 Y27.3298
G01 X31.6352 Y27.1554
G01 X31.4941 Y27.0022
G01 X31.4183 Y26.9429
G01 X31.3826 Y26.9049
G01 X31.3150 Y26.8035
G01 X31.2928 Y26.7140
G01 X31.2888 Y26.6326
G01 X31.2953 Y26.5751
G01 X31.3153 Y26.5208
G01 X31.3626 Y26.4381
G01 X31.4024 Y26.3911
G01 X31.4941 Y26.3178
G01 X31.6352 Y26.1646
G01 X31.7491 Y25.9902
G01 X31.8327 Y25.7995
G01 X31.8839 Y25.5976
G01 X31.9011 Y25.3900
G01 X31.8839 Y25.1824
G01 X31.8327 Y24.9805
G01 X31.7491 Y24.7898
G01 X31.6352 Y24.6154
G01 X31.4941 Y24.4622
G01 X31.4014 Y24.3869
G01 X31.3318 Y24.2940
G01 X31.3103 Y24.2529
G01 X31.2951 Y24.1970
G01 X31.2911 Y24.0579
G01 X31.3103 Y23.9912
G01 X31.3704 Y23.8868
G01 X31.4075 Y23.8465
G01 X31.4941 Y23.7778
G01 X31.6352 Y23.6246
G01 X31.7491 Y23.4502
G01 X31.8327 Y23.2595
G01 X31.8839 Y23.0576
G01 X31.9011 Y22.8500
G01 X31.8839 Y22.6424
G01 X31.8327 Y22.4405
G01 X31.7491 Y22.2498
G01 X31.6352 Y22.0754
G01 X31.4941 Y21.9222
G01 X31.4014 Y21.8469
G01 X31.3318 Y21.7540
G01 X31.2971 Y21.6685
G01 X31.2897 Y21.5294
G01 X31.3103 Y21.4512
G01 X31.3704 Y21.3468
G01 X31.4075 Y21.3065
G01 X31.4941 Y21.2378
G01 X31.6352 Y21.0846
G01 X31.7491 Y20.9102
G01 X31.8327 Y20.7195
G01 X31.8839 Y20.5176
G01 X31.9011 Y20.3100
G01 X31.8839 Y20.1024
G01 X31.8327 Y19.9005
G01 X31.7491 Y19.7098
G01 X31.6352 Y19.5354
G01 X31.4941 Y19.3822
G01 X31.4014 Y19.3069
G01 X31.3318 Y19.2140
G01 X31.2971 Y19.1285
G01 X31.2897 Y18.9894
G01 X31.3103 Y18.9112
G01 X31.3704 Y18.8068
G01 X31.4075 Y18.7665
G01 X31.4941 Y18.6978
G01 X31.6352 Y18.5446
G01 X31.7491 Y18.3702
G01 X31.8327 Y18.1795
G01 X31.8839 Y17.9776
G01 X31.9011 Y17.7700
G01 X31.8839 Y17.5624
G01 X31.8327 Y17.3605
G01 X31.7491 Y17.1698
G01 X31.6352 Y16.9954
G01 X31.4941 Y16.8422
G01 X31.4014 Y16.7669
G01 X31.3318 Y16.6740
G01 X31.2971 Y16.5885
G01 X31.2890 Y16.4610
G01 X31.3058 Y16.3819
G01 X31.3704 Y16.2668
G01 X31.4075 Y16.2265
G01 X31.4941 Y16.1578
G01 X31.6352 Y16.0046
G01 X31.7491 Y15.8302
G01 X31.8327 Y15.6395
G01 X31.8839 Y15.4376
G01 X31.9011 Y15.2300
G01 X31.8839 Y15.0224
G01 X31.8327 Y14.8205
G01 X31.7491 Y14.6298
G01 X31.6352 Y14.4554
G01 X31.4941 Y14.3022
G01 X31.4014 Y14.2269
G01 X31.3318 Y14.1340
G01 X31.2971 Y14.0485
G01 X31.2888 Y13.9326
G01 X31.3058 Y13.8419
G01 X31.3704 Y13.7268
G01 X31.4075 Y13.6865
G01 X31.4941 Y13.6178
G01 X31.6352 Y13.4646
G01 X31.7491 Y13.2902
G01 X31.8327 Y13.0995
G01 X31.8839 Y12.8976
G01 X31.9011 Y12.6900
G01 X31.8839 Y12.4824
G01 X31.8327 Y12.2805
G01 X31.7491 Y12.0898
G01 X31.6352 Y11.9154
G01 X31.4941 Y11.7622
G01 X31.3297 Y11.6343
G01 X31.1466 Y11.5352
G01 X30.9496 Y11.4675
G01 X30.7441 Y11.4333
G01 X30.5359 Y11.4333
G01 X30.3304 Y11.4675
G01 X30.1334 Y11.5352
G01 X29.9503 Y11.6343
G01 X29.7859 Y11.7622
G01 X29.6448 Y11.9154
G01 X29.5309 Y12.0898
G01 X29.4473 Y12.2805
G01 X29.3961 Y12.4824
G01 X29.3789 Y12.6900
G01 X29.3961 Y12.8976
G01 X29.4473 Y13.0995
G01 X29.5309 Y13.2902
G01 X29.6448 Y13.4646
G01 X29.7859 Y13.6178
G01 X29.8939 Y13.7105
G01 X29.9599 Y13.8061
G01 X29.9849 Y13.8830
G01 X29.9912 Y13.9874
G01 X29.9847 Y14.0449
G01 X29.9647 Y14.0992
G01 X29.9211 Y14.1760
G01 X29.8776 Y14.2290
G01 X29.7859 Y14.3022
G01 X29.6448 Y14.4554
G01 X29.5309 Y14.6298
G01 X29.4473 Y14.8205
G01 X29.3961 Y15.0224
G01 X29.3789 Y15.2300
G01 X29.3961 Y15.4376
G01 X29.4473 Y15.6395
G01 X29.5309 Y15.8302
G01 X29.6448 Y16.0046
G01 X29.7859 Y16.1578
G01 X29.8864 Y16.2416
G01 X29.9697 Y16.3671
G01 X29.9863 Y16.4345
G01 X29.9910 Y16.5390
G01 X29.9817 Y16.5961
G01 X29.9592 Y16.6494
G01 X29.9012 Y16.7440
G01 X29.8058 Y16.8267
G01 X29.7501 Y16.8575
G01 X29.6324 Y16.8974
G01 X28.0693 Y16.8828
G01 X27.9471 Y16.8930
G01 X27.7896 Y16.9373
G01 X27.6433 Y17.0105
G01 X27.5135 Y17.1102
G01 X27.4049 Y17.2325
G01 X27.3214 Y17.3733
G01 X27.2661 Y17.5272
G01 X27.2409 Y17.6889
G01 X27.2467 Y17.8524
G01 X27.2834 Y18.0119
G01 X27.3496 Y18.1615
G01 X27.4430 Y18.2959
G01 X27.5600 Y18.4102
G01 X27.6966 Y18.5003
G01 X27.8478 Y18.5629
G01 X28.0081 Y18.5957
G01 X29.5563 Y18.6140
G01 X29.6137 Y18.6216
G01 X29.7401 Y18.6660
G01 X29.8864 Y18.7816
G01 X29.9482 Y18.8660
G01 X29.9738 Y18.9180
G01 X29.9863 Y18.9745
G01 X29.9912 Y19.0674
G01 X29.9871 Y19.1136
G01 X29.9697 Y19.1688
G01 X29.8922 Y19.2944
G01 X29.7815 Y19.3825
G01 X29.6459 Y19.4350
G01 X29.5802 Y19.4407
G01 X28.0693 Y19.4228
G01 X27.9471 Y19.4330
G01 X27.7896 Y19.4773
G01 X27.6433 Y19.5505
G01 X27.5135 Y19.6502
G01 X27.4049 Y19.7725
G01 X27.3214 Y19.9133
G01 X27.2661 Y20.0672
G01 X27.2409 Y20.2289
G01 X27.2467 Y20.3924
G01 X27.2834 Y20.5519
G01 X27.3496 Y20.7015
G01 X27.4430 Y20.8359
G01 X27.5600 Y20.9502
G01 X27.6966 Y21.0403
G01 X27.8478 Y21.1029
G01 X28.0081 Y21.1357
G01 X29.5563 Y21.1540
G01 X29.6137 Y21.1616
G01 X29.7401 Y21.2060
G01 X29.8864 Y21.3216
G01 X29.9482 Y21.4060
G01 X29.9738 Y21.4580
G01 X29.9863 Y21.5145
G01 X29.9912 Y21.6074
G01 X29.9742 Y21.6981
G01 X29.9096 Y21.8132
G01 X29.8725 Y21.8535
G01 X29.7859 Y21.9222
G01 X29.6448 Y22.0754
G01 X29.5309 Y22.2498
G01 X29.4473 Y22.4405
G01 X29.3961 Y22.6424
G01 X29.3789 Y22.8500
G01 X29.3961 Y23.0576
G01 X29.4473 Y23.2595
G01 X29.5309 Y23.4502
G01 X29.6448 Y23.6246
G01 X29.7859 Y23.7778
G01 X29.8864 Y23.8616
G01 X29.9482 Y23.9461
G01 X29.9738 Y23.9980
G01 X29.9869 Y24.0602
G01 X29.9871 Y24.1936
G01 X29.9647 Y24.2592
G01 X29.9096 Y24.3532
G01 X29.8602 Y24.4041
G01 X29.7815 Y24.4625
G01 X29.6787 Y24.5056
G01 X29.6189 Y24.5191
G01 X28.0693 Y24.5028
G01 X27.9471 Y24.5130
G01 X27.7896 Y24.5573
G01 X27.6433 Y24.6305
G01 X27.5135 Y24.7302
G01 X27.4049 Y24.8525
G01 X27.3214 Y24.9933
G01 X27.2661 Y25.1472
G01 X27.2409 Y25.3089
G01 X27.2467 Y25.4724
G01 X27.2834 Y25.6319
G01 X27.3496 Y25.7815
G01 X27.4430 Y25.9159
G01 X27.5600 Y26.0302
G01 X27.6966 Y26.1203
G01 X27.8478 Y26.1829
G01 X28.0081 Y26.2157
G01 X29.5563 Y26.2340
G01 X29.6193 Y26.2431
G01 X29.7164 Y26.2743
G01 X29.7721 Y26.3072
G01 X29.8786 Y26.3931
G01 X29.9482 Y26.4860
G01 X29.9738 Y26.5380
G01 X29.9863 Y26.5945
G01 X29.9910 Y26.6990
G01 X29.9742 Y26.7781
G01 X29.9096 Y26.8932
G01 X29.8577 Y26.9462
G01 X29.7552 Y27.0206
G01 X29.6173 Y27.0698
G01 X28.3801 Y27.0732
G01 X28.1205 Y27.0396
G01 X27.9573 Y27.0513
G01 X27.7992 Y27.0936
G01 X27.6521 Y27.1651
G01 X27.5211 Y27.2632
G01 X27.4110 Y27.3842
G01 X27.3259 Y27.5239
G01 X27.2687 Y27.6772
G01 X27.2415 Y27.8386
G01 X27.2454 Y28.0022
G01 X27.2802 Y28.1620
G01 X27.3446 Y28.3125
G01 X27.4363 Y28.4480
G01 X27.5980 Y28.6065
G01 X27.7356 Y28.6950
G01 X27.7912 Y28.7212
G01 X27.9471 Y28.7710
G01 X28.1095 Y28.7904
G01 X29.5684 Y28.7867
G01 X29.6259 Y28.7936
G01 X29.7169 Y28.8204
G01 X29.7651 Y28.8438
G01 X29.8617 Y28.9171
G01 X29.8974 Y28.9551
G01 X29.9543 Y29.0359
G01 X29.9773 Y29.0890
G01 X29.9909 Y29.2158
G01 X29.9871 Y29.2736
G01 X29.9592 Y29.3494
G01 X29.9174 Y29.4219
G01 X29.8776 Y29.4690
G01 X29.7654 Y29.5551
G01 X29.6173 Y29.6098
G01 X28.3801 Y29.6132
G01 X28.1205 Y29.5796
G01 X27.9573 Y29.5913
G01 X27.7992 Y29.6336
G01 X27.6521 Y29.7051
G01 X27.5211 Y29.8032
G01 X27.4110 Y29.9242
G01 X27.3259 Y30.0639
G01 X27.2587 Y30.2370
G01 X27.1908 Y30.3313
G01 X27.1197 Y30.3900
G01 X26.9892 Y30.4387
G01 X26.9085 Y30.4426
G01 X26.7921 Y30.4170
G01 X26.7337 Y30.3883
G01 X26.6685 Y30.3369
G01 X13.5162 Y17.1819
G01 X13.3920 Y17.0635
G01 X13.3424 Y17.0273
G01 X13.1988 Y16.9488
G01 X13.1025 Y16.9142
G01 X12.9418 Y16.8833
G01 X12.8805 Y16.8796
G01 X8.8284 Y16.8821
G01 X8.7159 Y16.8537
G01 X8.6664 Y16.8330
G01 X8.4697 Y16.6843
G01 X8.2866 Y16.5852
G01 X8.0896 Y16.5175
G01 X7.8841 Y16.4833
G01 X7.6759 Y16.4833
G01 X7.4704 Y16.5175
G01 X7.2734 Y16.5852
G01 X7.0903 Y16.6843
G01 X6.9259 Y16.8122
G01 X6.7848 Y16.9654
G01 X6.6709 Y17.1398
G01 X6.5873 Y17.3305
G01 X6.5361 Y17.5324
G01 X6.5189 Y17.7400
G01 X6.5361 Y17.9476
G01 X6.5873 Y18.1495
G01 X6.6709 Y18.3402
G01 X6.7848 Y18.5146
G01 X6.9259 Y18.6678
G01 X7.0186 Y18.7431
G01 X7.0999 Y18.8561
G01 X7.1249 Y18.9330
G01 X7.1303 Y19.0606
G01 X7.1097 Y19.1388
G01 X7.0496 Y19.2432
G01 X7.0125 Y19.2835
G01 X6.9259 Y19.3522
G01 X6.7848 Y19.5054
G01 X6.6709 Y19.6798
G01 X6.5873 Y19.8705
G01 X6.5361 Y20.0724
G01 X6.5189 Y20.2800
G01 X6.5361 Y20.4876
G01 X6.5873 Y20.6895
G01 X6.6709 Y20.8802
G01 X6.7848 Y21.0546
G01 X6.9259 Y21.2078
G01 X7.0186 Y21.2831
G01 X7.0999 Y21.3961
G01 X7.1229 Y21.4615
G01 X7.1309 Y21.5658
G01 X7.1271 Y21.6236
G01 X7.1142 Y21.6681
G01 X7.0574 Y21.7719
G01 X7.0026 Y21.8321
G01 X6.9054 Y21.9051
G01 X6.7835 Y21.9542
G01 X6.7111 Y21.9632
G01 X5.8005 Y21.9654
G01 X5.6407 Y22.0002
G01 X5.5829 Y22.0210
G01 X5.4374 Y22.0960
G01 X5.3088 Y22.1971
G01 X4.5435 Y22.9707
G01 X4.5073 Y23.0203
G01 X4.4288 Y23.1639
G01 X4.3790 Y23.3198
G01 X4.3633 Y23.4209
G01 X4.3654 Y45.7622
G01 X4.4002 Y45.9221
G01 X4.4210 Y45.9799
G01 X4.4960 Y46.1253
G01 X4.5971 Y46.2539
G01 X11.2684 Y52.9201
G01 X11.3059 Y52.9715
G01 X11.3609 Y53.0866
G01 X11.3691 Y53.1438
G01 X11.3625 Y53.2483
G01 X11.3489 Y53.3045
G01 X11.3286 Y53.3462
G01 X11.2338 Y53.4632
G01 X11.1851 Y53.4945
G01 X11.0983 Y53.5281
G01 X11.0130 Y53.5436
G01 X2.8240 Y53.5438
G01 X2.7665 Y53.5369
G01 X2.6772 Y53.5107
G01 X2.5973 Y53.4645
G01 X2.4990 Y53.3474
G01 X2.4794 Y53.3028
G01 X2.4594 Y53.2150
G00 Z2.0000
G00 X17.1000 Y45.7627
G01 F60.00
G01 Z-0.0700
G01 F120.00
G01 X17.0959 Y44.0520
G01 X16.9786 Y43.9290
G01 X16.8995 Y43.8209
G01 X16.8431 Y43.7263
G01 X16.7958 Y43.6269
G01 X16.7466 Y43.4895
G01 X16.7201 Y43.3826
G01 X16.7037 Y43.2738
G01 X16.6963 Y43.1400
G01 X16.7037 Y43.0062
G01 X16.7201 Y42.8974
G01 X16.7498 Y42.7790
G01 X16.7909 Y42.6640
G01 X16.8431 Y42.5537
G01 X16.9059 Y42.4490
G01 X16.9786 Y42.3510
G01 X17.0605 Y42.2605
G01 X17.1510 Y42.1786
G01 X17.2490 Y42.1059
G01 X17.3537 Y42.0431
G01 X17.4640 Y41.9909
G01 X17.5790 Y41.9498
G01 X17.6974 Y41.9201
G01 X17.8181 Y41.9022
G01 X17.9400 Y41.8963
G01 X18.0619 Y41.9022
G01 X18.1826 Y41.9201
G01 X18.3010 Y41.9498
G01 X18.4160 Y41.9909
G01 X18.5156 Y42.0377
G01 X18.6310 Y42.1059
G01 X18.7290 Y42.1786
G01 X18.8108 Y42.2523
G01 X18.9014 Y42.3510
G01 X18.9805 Y42.4591
G01 X19.0369 Y42.5537
G01 X19.0891 Y42.6640
G01 X19.1334 Y42.7905
G01 X19.1599 Y42.8974
G01 X19.1778 Y43.0181
G01 X19.1837 Y43.1400
G01 X19.1763 Y43.2738
G01 X19.1572 Y43.3943
G01 X19.1302 Y43.5010
G01 X19.0934 Y43.6048
G01 X19.0369 Y43.7263
G01 X18.9741 Y43.8310
G01 X18.9014 Y43.9290
G01 X18.7841 Y44.0520
G01 X18.7840 Y45.6860
G01 X18.7699 Y45.8329
G01 X18.7477 Y45.9250
G01 X18.6898 Y46.0672
G01 X18.6349 Y46.1587
G01 X18.5368 Y46.2768
G01 X18.4089 Y46.3818
G01 X18.2630 Y46.4598
G01 X18.1163 Y46.5052
G01 X18.0108 Y46.5209
G01 X17.8573 Y46.5200
G01 X17.6950 Y46.4877
G01 X17.5528 Y46.4298
G01 X17.4613 Y46.3749
G01 X17.3432 Y46.2768
G01 X17.2451 Y46.1587
G01 X17.1902 Y46.0672
G01 X17.1323 Y45.9250
G01 X17.1000 Y45.7627
G00 Z2.0000
G00 X19.1572 Y47.9657
G01 F60.00
G01 Z-0.0700
G01 F120.00
G01 X19.1778 Y48.0981
G01 X19.1837 Y48.2200
G01 X19.1778 Y48.3419
G01 X19.1599 Y48.4626
G01 X19.1302 Y48.5810
G01 X19.0891 Y48.6960
G01 X19.0369 Y48.8063
G01 X18.9741 Y48.9110
G01 X18.9014 Y49.0090
G01 X18.8195 Y49.0995
G01 X18.7290 Y49.1814
G01 X18.6310 Y49.2541
G01 X18.5263 Y49.3169
G01 X18.4160 Y49.3691
G01 X18.3010 Y49.4102
G01 X18.1826 Y49.4399
G01 X18.0619 Y49.4578
G01 X17.9400 Y49.4637
G01 X17.8181 Y49.4578
G01 X17.6974 Y49.4399
G01 X17.5790 Y49.4102
G01 X17.4640 Y49.3691
G01 X17.3537 Y49.3169
G01 X17.2490 Y49.2541
G01 X17.1510 Y49.1814
G01 X17.0605 Y49.0995
G01 X16.9786 Y49.0090
G01 X16.9059 Y48.9110
G01 X16.8431 Y48.8063
G01 X16.7909 Y48.6960
G01 X16.7498 Y48.5810
G01 X16.7201 Y48.4626
G01 X16.7022 Y48.3419
G01 X16.6963 Y48.2200
G01 X16.7022 Y48.0981
G01 X16.7201 Y47.9774
G01 X16.7498 Y47.8590
G01 X16.7909 Y47.7440
G01 X16.8431 Y47.6337
G01 X16.9059 Y47.5290
G01 X16.9786 Y47.4310
G01 X17.0605 Y47.3405
G01 X17.1510 Y47.2586
G01 X17.2490 Y47.1859
G01 X17.3537 Y47.1231
G01 X17.4640 Y47.0709
G01 X17.5790 Y47.0298
G01 X17.6974 Y47.0001
G01 X17.8181 Y46.9822
G01 X17.9400 Y46.9763
G01 X18.0619 Y46.9822
G01 X18.1826 Y47.0001
G01 X18.3010 Y47.0298
G01 X18.4160 Y47.0709
G01 X18.5263 Y47.1231
G01 X18.6310 Y47.1859
G01 X18.7290 Y47.2586
G01 X18.8195 Y47.3405
G01 X18.9014 Y47.4310
G01 X18.9741 Y47.5290
G01 X19.0369 Y47.6337
G01 X19.0891 Y47.7440
G01 X19.1302 Y47.8590
G01 X19.1572 Y47.9657
G00 Z2.0000
G00 X18.5480 Y49.6557
G01 F60.00
G01 Z-0.0700
G01 F120.00
G01 X18.5293 Y49.5410
G01 X18.5326 Y49.4717
G01 X18.5793 Y49.3530
G01 X18.6096 Y49.3033
G01 X18.6596 Y49.2528
G01 X18.7941 Y49.1478
G01 X18.9648 Y48.9661
G01 X19.0632 Y48.9043
G01 X19.1512 Y48.8768
G01 X19.3101 Y48.8853
G01 X19.3709 Y48.9103
G01 X19.4581 Y48.9684
G01 X19.6259 Y49.1478
G01 X19.7602 Y49.2526
G01 X19.7923 Y49.2860
G01 X19.8584 Y49.3816
G01 X19.8848 Y49.4700
G01 X19.8855 Y49.6091
G01 X19.8632 Y49.6747
G01 X19.8170 Y49.7556
G01 X19.7886 Y49.7921
G01 X19.7343 Y49.8353
G01 X19.6517 Y49.8784
G01 X19.5848 Y49.8983
G01 X18.8947 Y49.9032
G01 X18.8372 Y49.8964
G01 X18.7264 Y49.8615
G01 X18.6680 Y49.8240
G01 X18.5903 Y49.7377
G01 X18.5480 Y49.6557
G00 Z2.0000
G00 X21.6972 Y47.9657
G01 F60.00
G01 Z-0.0700
G01 F120.00
G01 X21.7178 Y48.0981
G01 X21.7237 Y48.2200
G01 X21.7178 Y48.3419
G01 X21.6999 Y48.4626
G01 X21.6702 Y48.5810
G01 X21.6291 Y48.6960
G01 X21.5769 Y48.8063
G01 X21.5141 Y48.9110
G01 X21.4414 Y49.0090
G01 X21.3595 Y49.0995
G01 X21.2690 Y49.1814
G01 X21.1710 Y49.2541
G01 X21.0663 Y49.3169
G01 X20.9560 Y49.3691
G01 X20.8410 Y49.4102
G01 X20.7226 Y49.4399
G01 X20.6019 Y49.4578
G01 X20.4800 Y49.4637
G01 X20.3581 Y49.4578
G01 X20.2374 Y49.4399
G01 X20.1190 Y49.4102
G01 X20.0040 Y49.3691
G01 X19.8937 Y49.3169
G01 X19.7890 Y49.2541
G01 X19.6910 Y49.1814
G01 X19.6005 Y49.0995
G01 X19.5186 Y49.0090
G01 X19.4459 Y48.9110
G01 X19.3831 Y48.8063
G01 X19.3309 Y48.6960
G01 X19.2898 Y48.5810
G01 X19.2601 Y48.4626
G01 X19.2422 Y48.3419
G01 X19.2363 Y48.2200
G01 X19.2422 Y48.0981
G01 X19.2601 Y47.9774
G01 X19.2898 Y47.8590
G01 X19.3309 Y47.7440
G01 X19.3831 Y47.6337
G01 X19.4459 Y47.5290
G01 X19.5186 Y47.4310
G01 X19.6005 Y47.3405
G01 X19.6910 Y47.2586
G01 X19.7890 Y47.1859
G01 X19.8937 Y47.1231
G01 X20.0040 Y47.0709
G01 X20.1190 Y47.0298
G01 X20.2374 Y47.0001
G01 X20.3581 Y46.9822
G01 X20.4800 Y46.9763
G01 X20.6019 Y46.9822
G01 X20.7226 Y47.0001
G01 X20.8410 Y47.0298
G01 X20.9560 Y47.0709
G01 X21.0663 Y47.1231
G01 X21.1710 Y47.1859
G01 X21.2690 Y47.2586
G01 X21.3595 Y47.3405
G01 X21.4414 Y47.4310
G01 X21.5141 Y47.5290
G01 X21.5769 Y47.6337
G01 X21.6291 Y47.7440
G01 X21.6702 Y47.8590
G01 X21.6972 Y47.9657
G00 Z2.0000
G00 X24.7215 Y45.7746
G01 F60.00
G01 Z-0.0700
G01 F120.00
G01 X24.7159 Y45.6800
G01 X24.7159 Y44.0520
G01 X24.5986 Y43.9290
G01 X24.5195 Y43.8209
G01 X24.4631 Y43.7263
G01 X24.4158 Y43.6269
G01 X24.3666 Y43.4895
G01 X24.3401 Y43.3826
G01 X24.3237 Y43.2738
G01 X24.3163 Y43.1400
G01 X24.3237 Y43.0062
G01 X24.3401 Y42.8974
G01 X24.3698 Y42.7790
G01 X24.4109 Y42.6640
G01 X24.4631 Y42.5537
G01 X24.5259 Y42.4490
G01 X24.5986 Y42.3510
G01 X24.6805 Y42.2605
G01 X24.7710 Y42.1786
G01 X24.8690 Y42.1059
G01 X24.9737 Y42.0431
G01 X25.0840 Y41.9909
G01 X25.1990 Y41.9498
G01 X25.3174 Y41.9201
G01 X25.4381 Y41.9022
G01 X25.5600 Y41.8963
G01 X25.6819 Y41.9022
G01 X25.8026 Y41.9201
G01 X25.9210 Y41.9498
G01 X26.0469 Y41.9958
G01 X26.1463 Y42.0431
G01 X26.2510 Y42.1059
G01 X26.3581 Y42.1864
G01 X26.4395 Y42.2605
G01 X26.5214 Y42.3510
G01 X26.5941 Y42.4490
G01 X26.6510 Y42.5433
G01 X26.7091 Y42.6640
G01 X26.7534 Y42.7905
G01 X26.7799 Y42.8974
G01 X26.7978 Y43.0181
G01 X26.8037 Y43.1400
G01 X26.7963 Y43.2738
G01 X26.7772 Y43.3943
G01 X26.7502 Y43.5010
G01 X26.7134 Y43.6048
G01 X26.6569 Y43.7263
G01 X26.5941 Y43.8310
G01 X26.5214 Y43.9290
G01 X26.4041 Y44.0520
G01 X26.4040 Y45.6860
G01 X26.3899 Y45.8329
G01 X26.3677 Y45.9250
G01 X26.3098 Y46.0672
G01 X26.2549 Y46.1587
G01 X26.1568 Y46.2768
G01 X26.0289 Y46.3818
G01 X25.8830 Y46.4598
G01 X25.7363 Y46.5052
G01 X25.6308 Y46.5209
G01 X25.4773 Y46.5200
G01 X25.3150 Y46.4877
G01 X25.1728 Y46.4298
G01 X25.0813 Y46.3749
G01 X24.9632 Y46.2768
G01 X24.8651 Y46.1587
G01 X24.8102 Y46.0672
G01 X24.7523 Y45.9250
G01 X24.7215 Y45.7746
G00 Z2.0000
G00 X26.4172 Y45.2813
G01 F60.00
G01 Z-0.0700
G01 F120.00
G01 X26.4170 Y44.1968
G01 X26.4498 Y44.0619
G01 X26.4805 Y44.0015
G01 X26.5675 Y43.9016
G01 X26.6832 Y43.8243
G01 X26.7259 Y43.8064
G01 X26.7944 Y43.7953
G01 X26.8868 Y43.7980
G01 X26.9511 Y43.8118
G01 X27.0781 Y43.8884
G01 X27.1537 Y43.9680
G01 X27.2210 Y44.0895
G01 X27.2393 Y44.1548
G01 X27.2430 Y45.1844
G01 X27.2100 Y45.3199
G01 X27.1900 Y45.3633
G01 X27.1530 Y45.4134
G01 X27.0183 Y45.5466
G01 X26.8960 Y45.6133
G01 X26.8513 Y45.6253
G01 X26.7935 Y45.6281
G01 X26.7122 Y45.6220
G01 X26.6452 Y45.6040
G01 X26.6045 Y45.5818
G01 X26.5129 Y45.5105
G01 X26.4612 Y45.4341
G01 X26.4282 Y45.3455
G01 X26.4172 Y45.2813
G00 Z2.0000
G00 X28.9572 Y45.1455
G01 F60.00
G01 Z-0.0700
G01 F120.00
G01 X28.9570 Y44.1968
G01 X28.9636 Y44.1509
G01 X28.9981 Y44.0408
G01 X29.0403 Y43.9754
G01 X29.1075 Y43.9016
G01 X29.1434 Y43.8723
G01 X29.2441 Y43.8143
G01 X29.3344 Y43.7953
G01 X29.4268 Y43.7980
G01 X29.4911 Y43.8118
G01 X29.6016 Y43.8757
G01 X29.6860 Y43.9593
G01 X29.7253 Y44.0165
G01 X29.7752 Y44.1325
G01 X29.7832 Y44.2084
G01 X29.7830 Y45.0486
G01 X29.7500 Y45.1841
G01 X29.7300 Y45.2274
G01 X29.6930 Y45.2776
G01 X29.5583 Y45.4108
G01 X29.4360 Y45.4775
G01 X29.3913 Y45.4895
G01 X29.3335 Y45.4923
G01 X29.2522 Y45.4862
G01 X29.1852 Y45.4682
G01 X29.1445 Y45.4460
G01 X29.0529 Y45.3746
G01 X29.0012 Y45.2982
G01 X28.9682 Y45.2096
G01 X28.9572 Y45.1455
G00 Z2.0000
M05
G00 Z2.0000
G00 Z15.00


