(G-code generated by FlatCAM Evo vUnstable - Version Date: 2023/6/31)

(Name: chessbot-NPTH.drl_cnc)
(Type: G-code from Excellon)
(Units: MM)

(Created on Monday, 30 October 2023 at 13:49)

(This preprocessor is the default preprocessor.)
(It is made to work with MACH3 compatible motion controllers.)


(TOOLS DIAMETER: )
(Tool: 1 -> Dia: 3.2)

(FEEDRATE Z: )
(Tool: 1 -> Feedrate: 150.0)

(FEEDRATE RAPIDS: )
(Tool: 1 -> Feedrate Rapids: 1500)

(Z_CUT: )
(Tool: 1 -> Z_Cut: -6.999999999999991)

(Tools Offset: )
(Tool: 1 -> Offset Z: 0.0)

(Z_MOVE: )
(Tool: 1 -> Z_Move: 2)

(Z Start: None mm)
(Z End: 15 mm)
(X,Y End: None mm)
(Steps per circle: 16)
(Preprocessor Excellon: default)

(X range:    3.6400 ...   32.2400  mm)
(Y range:    3.4400 ...   52.3600  mm)

(Spindle Speed: 12000 RPM)
G21
G90
G94

G01 F60.00
G00 Z2.0000

M03 S12000
G00 X5.2400 Y50.7600
G01 Z-2.0000
G01 Z2.0000
G01 Z-4.0000
G01 Z2.0000
G01 Z-6.0000
G01 Z2.0000
G01 Z-8.0000
G01 Z0
G00 Z2.0000
G00 X30.6400 Y50.7600
G01 Z-2.0000
G01 Z2.0000
G01 Z-4.0000
G01 Z2.0000
G01 Z-6.0000
G01 Z2.0000
G01 Z-8.0000
G01 Z0
G00 Z2.0000
G00 X30.6400 Y5.0400
G01 Z-2.0000
G01 Z2.0000
G01 Z-4.0000
G01 Z2.0000
G01 Z-6.0000
G01 Z2.0000
G01 Z-8.0000
G01 Z0
G00 Z2.0000
G00 X5.2400 Y5.0400
G01 Z-2.0000
G01 Z2.0000
G01 Z-4.0000
G01 Z2.0000
G01 Z-6.0000
G01 Z2.0000
G01 Z-8.0000
G01 Z0
G00 Z2.0000
M05
G00 Z15.00


