(G-code generated by FlatCAM Evo vUnstable - Version Date: 2023/6/31)

(Name: chessbot-F_Cu.gbr_iso_combined_cnc)
(Type: G-code from Geometry)
(Units: MM)

(Created on Monday, 30 October 2023 at 13:53)

(This preprocessor is the default preprocessor.)
(It is made to work with MACH3 compatible motion controllers.)

(TOOL DIAMETER: 0.4875 mm)
(Feedrate_XY: 120.0 mm/min)
(Feedrate_Z: 60.0 mm/min)
(Feedrate rapids 1500.0 mm/min)

(Z_Cut: -0.07 mm)
(Z_Move: 2.0 mm)
(Z Start: None mm)
(Z End: 15.0 mm)
(X,Y End: None mm)
(Steps per circle: 16)
(Preprocessor Geometry: default)

(X range:    2.4562 ...   33.4238  mm)
(Y range:    2.2562 ...   53.5438  mm)

(Spindle Speed: 12000.0 RPM)
G21
G90
G94

G01 F120.00
G00 Z2.0000

M03 S12000.0
G01 F120.00
G00 X13.9623 Y12.0844
G01 F60.00
G01 Z-0.0700
G01 F120.00
G01 X14.0091 Y12.1840
G01 X14.0502 Y12.2990
G01 X14.0799 Y12.4174
G01 X14.0978 Y12.5381
G01 X14.1037 Y12.6600
G01 X14.0978 Y12.7819
G01 X14.0799 Y12.9026
G01 X14.0502 Y13.0210
G01 X14.0091 Y13.1360
G01 X13.9569 Y13.2463
G01 X13.8941 Y13.3510
G01 X13.8214 Y13.4490
G01 X13.7395 Y13.5395
G01 X13.6490 Y13.6214
G01 X13.5510 Y13.6941
G01 X13.4463 Y13.7569
G01 X13.3360 Y13.8091
G01 X13.2210 Y13.8502
G01 X13.1026 Y13.8799
G01 X12.9819 Y13.8978
G01 X12.8600 Y13.9037
G01 X12.7381 Y13.8978
G01 X12.6174 Y13.8799
G01 X12.4990 Y13.8502
G01 X12.3840 Y13.8091
G01 X12.2737 Y13.7569
G01 X12.1690 Y13.6941
G01 X12.0710 Y13.6214
G01 X11.9805 Y13.5395
G01 X11.8986 Y13.4490
G01 X11.8259 Y13.3510
G01 X11.7631 Y13.2463
G01 X11.7109 Y13.1360
G01 X11.6698 Y13.0210
G01 X11.6401 Y12.9026
G01 X11.6222 Y12.7819
G01 X11.6163 Y12.6600
G01 X11.6222 Y12.5381
G01 X11.6401 Y12.4174
G01 X11.6698 Y12.2990
G01 X11.7109 Y12.1840
G01 X11.7631 Y12.0737
G01 X11.8259 Y11.9690
G01 X11.8986 Y11.8710
G01 X11.9805 Y11.7805
G01 X12.0710 Y11.6986
G01 X12.1690 Y11.6259
G01 X12.2737 Y11.5631
G01 X12.3840 Y11.5109
G01 X12.4990 Y11.4698
G01 X12.6174 Y11.4401
G01 X12.7381 Y11.4222
G01 X12.8600 Y11.4163
G01 X12.9819 Y11.4222
G01 X13.1026 Y11.4401
G01 X13.2210 Y11.4698
G01 X13.3360 Y11.5109
G01 X13.4463 Y11.5631
G01 X13.5510 Y11.6259
G01 X13.6490 Y11.6986
G01 X13.7395 Y11.7805
G01 X13.8214 Y11.8710
G01 X13.8941 Y11.9690
G01 X13.9623 Y12.0844
G00 Z2.0000
G00 X16.5023 Y12.0844
G01 F60.00
G01 Z-0.0700
G01 F120.00
G01 X16.5491 Y12.1840
G01 X16.5902 Y12.2990
G01 X16.6199 Y12.4174
G01 X16.6378 Y12.5381
G01 X16.6437 Y12.6600
G01 X16.6378 Y12.7819
G01 X16.6199 Y12.9026
G01 X16.5902 Y13.0210
G01 X16.5491 Y13.1360
G01 X16.4969 Y13.2463
G01 X16.4341 Y13.3510
G01 X16.3614 Y13.4490
G01 X16.2795 Y13.5395
G01 X16.1890 Y13.6214
G01 X16.0910 Y13.6941
G01 X15.9863 Y13.7569
G01 X15.8760 Y13.8091
G01 X15.7610 Y13.8502
G01 X15.6426 Y13.8799
G01 X15.5219 Y13.8978
G01 X15.4000 Y13.9037
G01 X15.2781 Y13.8978
G01 X15.1574 Y13.8799
G01 X15.0390 Y13.8502
G01 X14.9240 Y13.8091
G01 X14.8137 Y13.7569
G01 X14.7090 Y13.6941
G01 X14.6110 Y13.6214
G01 X14.5205 Y13.5395
G01 X14.4386 Y13.4490
G01 X14.3659 Y13.3510
G01 X14.3031 Y13.2463
G01 X14.2509 Y13.1360
G01 X14.2098 Y13.0210
G01 X14.1801 Y12.9026
G01 X14.1622 Y12.7819
G01 X14.1563 Y12.6600
G01 X14.1622 Y12.5381
G01 X14.1801 Y12.4174
G01 X14.2098 Y12.2990
G01 X14.2509 Y12.1840
G01 X14.3031 Y12.0737
G01 X14.3659 Y11.9690
G01 X14.4386 Y11.8710
G01 X14.5205 Y11.7805
G01 X14.6110 Y11.6986
G01 X14.7090 Y11.6259
G01 X14.8137 Y11.5631
G01 X14.9240 Y11.5109
G01 X15.0390 Y11.4698
G01 X15.1574 Y11.4401
G01 X15.2781 Y11.4222
G01 X15.4000 Y11.4163
G01 X15.5219 Y11.4222
G01 X15.6426 Y11.4401
G01 X15.7610 Y11.4698
G01 X15.8760 Y11.5109
G01 X15.9863 Y11.5631
G01 X16.0910 Y11.6259
G01 X16.1890 Y11.6986
G01 X16.2795 Y11.7805
G01 X16.3614 Y11.8710
G01 X16.4341 Y11.9690
G01 X16.5023 Y12.0844
G00 Z2.0000
G00 X17.1015 Y10.2146
G01 F60.00
G01 Z-0.0700
G01 F120.00
G01 X17.0959 Y10.1200
G01 X17.0959 Y8.4920
G01 X16.9786 Y8.3690
G01 X16.8995 Y8.2609
G01 X16.8431 Y8.1663
G01 X16.7958 Y8.0669
G01 X16.7466 Y7.9295
G01 X16.7201 Y7.8226
G01 X16.7037 Y7.7138
G01 X16.6963 Y7.5800
G01 X16.7037 Y7.4462
G01 X16.7201 Y7.3374
G01 X16.7498 Y7.2190
G01 X16.7909 Y7.1040
G01 X16.8431 Y6.9937
G01 X16.9059 Y6.8890
G01 X16.9786 Y6.7910
G01 X17.0605 Y6.7005
G01 X17.1510 Y6.6186
G01 X17.2490 Y6.5459
G01 X17.3537 Y6.4831
G01 X17.4640 Y6.4309
G01 X17.5790 Y6.3898
G01 X17.6974 Y6.3601
G01 X17.8181 Y6.3422
G01 X17.9400 Y6.3363
G01 X18.0619 Y6.3422
G01 X18.1826 Y6.3601
G01 X18.3010 Y6.3898
G01 X18.4160 Y6.4309
G01 X18.5156 Y6.4777
G01 X18.6310 Y6.5459
G01 X18.7290 Y6.6186
G01 X18.8108 Y6.6923
G01 X18.9014 Y6.7910
G01 X18.9805 Y6.8991
G01 X19.0369 Y6.9937
G01 X19.0891 Y7.1040
G01 X19.1334 Y7.2305
G01 X19.1599 Y7.3374
G01 X19.1778 Y7.4581
G01 X19.1837 Y7.5800
G01 X19.1763 Y7.7138
G01 X19.1599 Y7.8226
G01 X19.1334 Y7.9295
G01 X19.0934 Y8.0448
G01 X19.0369 Y8.1663
G01 X18.9741 Y8.2710
G01 X18.9014 Y8.3690
G01 X18.7841 Y8.4920
G01 X18.7840 Y10.1260
G01 X18.7699 Y10.2729
G01 X18.7477 Y10.3650
G01 X18.6898 Y10.5072
G01 X18.6349 Y10.5987
G01 X18.5368 Y10.7168
G01 X18.4089 Y10.8218
G01 X18.2630 Y10.8998
G01 X18.1163 Y10.9452
G01 X18.0108 Y10.9609
G01 X17.8573 Y10.9600
G01 X17.6950 Y10.9277
G01 X17.5528 Y10.8698
G01 X17.4613 Y10.8149
G01 X17.3432 Y10.7168
G01 X17.2451 Y10.5987
G01 X17.1902 Y10.5072
G01 X17.1323 Y10.3650
G01 X17.1015 Y10.2146
G00 Z2.0000
G00 X19.0842 Y12.1731
G01 F60.00
G01 Z-0.0700
G01 F120.00
G01 X19.1302 Y12.2990
G01 X19.1599 Y12.4174
G01 X19.1778 Y12.5381
G01 X19.1837 Y12.6600
G01 X19.1778 Y12.7819
G01 X19.1599 Y12.9026
G01 X19.1302 Y13.0210
G01 X19.0891 Y13.1360
G01 X19.0369 Y13.2463
G01 X18.9741 Y13.3510
G01 X18.9014 Y13.4490
G01 X18.8195 Y13.5395
G01 X18.7290 Y13.6214
G01 X18.6310 Y13.6941
G01 X18.5263 Y13.7569
G01 X18.4160 Y13.8091
G01 X18.3010 Y13.8502
G01 X18.1826 Y13.8799
G01 X18.0619 Y13.8978
G01 X17.9400 Y13.9037
G01 X17.8181 Y13.8978
G01 X17.6974 Y13.8799
G01 X17.5790 Y13.8502
G01 X17.4640 Y13.8091
G01 X17.3537 Y13.7569
G01 X17.2490 Y13.6941
G01 X17.1510 Y13.6214
G01 X17.0605 Y13.5395
G01 X16.9786 Y13.4490
G01 X16.9059 Y13.3510
G01 X16.8431 Y13.2463
G01 X16.7909 Y13.1360
G01 X16.7498 Y13.0210
G01 X16.7201 Y12.9026
G01 X16.7022 Y12.7819
G01 X16.6963 Y12.6600
G01 X16.7022 Y12.5381
G01 X16.7201 Y12.4174
G01 X16.7498 Y12.2990
G01 X16.7909 Y12.1840
G01 X16.8431 Y12.0737
G01 X16.9059 Y11.9690
G01 X16.9786 Y11.8710
G01 X17.0605 Y11.7805
G01 X17.1510 Y11.6986
G01 X17.2490 Y11.6259
G01 X17.3537 Y11.5631
G01 X17.4640 Y11.5109
G01 X17.5790 Y11.4698
G01 X17.6974 Y11.4401
G01 X17.8181 Y11.4222
G01 X17.9400 Y11.4163
G01 X18.0619 Y11.4222
G01 X18.1826 Y11.4401
G01 X18.3010 Y11.4698
G01 X18.4160 Y11.5109
G01 X18.5263 Y11.5631
G01 X18.6310 Y11.6259
G01 X18.7290 Y11.6986
G01 X18.8195 Y11.7805
G01 X18.9014 Y11.8710
G01 X18.9741 Y11.9690
G01 X19.0369 Y12.0737
G01 X19.0842 Y12.1731
G00 Z2.0000
G00 X21.2596 Y6.6112
G01 F60.00
G01 Z-0.0700
G01 F120.00
G01 X21.3920 Y6.7359
G01 X23.0200 Y6.7359
G01 X23.1146 Y6.7415
G01 X23.2535 Y6.7691
G01 X23.3430 Y6.8002
G01 X23.4283 Y6.8415
G01 X23.5555 Y6.9275
G01 X26.1568 Y9.5232
G01 X26.2549 Y9.6413
G01 X26.3098 Y9.7328
G01 X26.3677 Y9.8750
G01 X26.3985 Y10.0254
G01 X26.4038 Y10.1320
G01 X26.3878 Y10.2847
G01 X26.3441 Y10.4318
G01 X26.2985 Y10.5283
G01 X26.2125 Y10.6555
G01 X26.0955 Y10.7725
G01 X25.9683 Y10.8585
G01 X25.8164 Y10.9240
G01 X25.7129 Y10.9499
G01 X25.5600 Y10.9641
G01 X25.3953 Y10.9478
G01 X25.2370 Y10.8998
G01 X25.1012 Y10.8282
G01 X24.9632 Y10.7168
G01 X22.6704 Y8.4241
G01 X21.3920 Y8.4241
G01 X21.2781 Y8.5336
G01 X21.1808 Y8.6073
G01 X21.0663 Y8.6769
G01 X20.9669 Y8.7242
G01 X20.8410 Y8.7702
G01 X20.7226 Y8.7999
G01 X20.6019 Y8.8178
G01 X20.4920 Y8.8235
G01 X20.3581 Y8.8178
G01 X20.2491 Y8.8019
G01 X20.1076 Y8.7664
G01 X20.0040 Y8.7291
G01 X19.8937 Y8.6769
G01 X19.7890 Y8.6141
G01 X19.6910 Y8.5414
G01 X19.6005 Y8.4595
G01 X19.5186 Y8.3690
G01 X19.4459 Y8.2710
G01 X19.3831 Y8.1663
G01 X19.3309 Y8.0560
G01 X19.2898 Y7.9410
G01 X19.2601 Y7.8226
G01 X19.2422 Y7.7019
G01 X19.2363 Y7.5800
G01 X19.2422 Y7.4581
G01 X19.2601 Y7.3374
G01 X19.2898 Y7.2190
G01 X19.3309 Y7.1040
G01 X19.3831 Y6.9937
G01 X19.4459 Y6.8890
G01 X19.5186 Y6.7910
G01 X19.6005 Y6.7005
G01 X19.6910 Y6.6186
G01 X19.7890 Y6.5459
G01 X19.8937 Y6.4831
G01 X20.0040 Y6.4309
G01 X20.1190 Y6.3898
G01 X20.2374 Y6.3601
G01 X20.3581 Y6.3422
G01 X20.4800 Y6.3363
G01 X20.6019 Y6.3422
G01 X20.7226 Y6.3601
G01 X20.8410 Y6.3898
G01 X20.9560 Y6.4309
G01 X21.0663 Y6.4831
G01 X21.1710 Y6.5459
G01 X21.2596 Y6.6112
G00 Z2.0000
G00 X26.7134 Y12.1952
G01 F60.00
G01 Z-0.0700
G01 F120.00
G01 X26.7502 Y12.2990
G01 X26.7799 Y12.4174
G01 X26.7978 Y12.5381
G01 X26.8037 Y12.6600
G01 X26.7978 Y12.7819
G01 X26.7799 Y12.9026
G01 X26.7502 Y13.0210
G01 X26.7091 Y13.1360
G01 X26.6569 Y13.2463
G01 X26.5941 Y13.3510
G01 X26.5214 Y13.4490
G01 X26.4395 Y13.5395
G01 X26.3490 Y13.6214
G01 X26.2510 Y13.6941
G01 X26.1463 Y13.7569
G01 X26.0360 Y13.8091
G01 X25.9210 Y13.8502
G01 X25.8026 Y13.8799
G01 X25.6819 Y13.8978
G01 X25.5600 Y13.9037
G01 X25.4381 Y13.8978
G01 X25.3174 Y13.8799
G01 X25.1990 Y13.8502
G01 X25.0840 Y13.8091
G01 X24.9737 Y13.7569
G01 X24.8690 Y13.6941
G01 X24.7710 Y13.6214
G01 X24.6805 Y13.5395
G01 X24.5986 Y13.4490
G01 X24.5259 Y13.3510
G01 X24.4631 Y13.2463
G01 X24.4109 Y13.1360
G01 X24.3698 Y13.0210
G01 X24.3401 Y12.9026
G01 X24.3222 Y12.7819
G01 X24.3163 Y12.6600
G01 X24.3222 Y12.5381
G01 X24.3401 Y12.4174
G01 X24.3698 Y12.2990
G01 X24.4109 Y12.1840
G01 X24.4631 Y12.0737
G01 X24.5259 Y11.9690
G01 X24.5986 Y11.8710
G01 X24.6805 Y11.7805
G01 X24.7710 Y11.6986
G01 X24.8690 Y11.6259
G01 X24.9737 Y11.5631
G01 X25.0840 Y11.5109
G01 X25.1990 Y11.4698
G01 X25.3174 Y11.4401
G01 X25.4381 Y11.4222
G01 X25.5600 Y11.4163
G01 X25.6819 Y11.4222
G01 X25.8026 Y11.4401
G01 X25.9210 Y11.4698
G01 X26.0360 Y11.5109
G01 X26.1463 Y11.5631
G01 X26.2510 Y11.6259
G01 X26.3490 Y11.6986
G01 X26.4395 Y11.7805
G01 X26.5214 Y11.8710
G01 X26.5941 Y11.9690
G01 X26.6569 Y12.0737
G01 X26.7134 Y12.1952
G00 Z2.0000
G00 X29.2023 Y12.0844
G01 F60.00
G01 Z-0.0700
G01 F120.00
G01 X29.2491 Y12.1840
G01 X29.2902 Y12.2990
G01 X29.3199 Y12.4174
G01 X29.3378 Y12.5381
G01 X29.3437 Y12.6600
G01 X29.3378 Y12.7819
G01 X29.3199 Y12.9026
G01 X29.2902 Y13.0210
G01 X29.2491 Y13.1360
G01 X29.1969 Y13.2463
G01 X29.1341 Y13.3510
G01 X29.0614 Y13.4490
G01 X28.9795 Y13.5395
G01 X28.8890 Y13.6214
G01 X28.7910 Y13.6941
G01 X28.6863 Y13.7569
G01 X28.5760 Y13.8091
G01 X28.4610 Y13.8502
G01 X28.3426 Y13.8799
G01 X28.2219 Y13.8978
G01 X28.1000 Y13.9037
G01 X27.9781 Y13.8978
G01 X27.8574 Y13.8799
G01 X27.7390 Y13.8502
G01 X27.6240 Y13.8091
G01 X27.5137 Y13.7569
G01 X27.4090 Y13.6941
G01 X27.3110 Y13.6214
G01 X27.2205 Y13.5395
G01 X27.1386 Y13.4490
G01 X27.0659 Y13.3510
G01 X27.0031 Y13.2463
G01 X26.9509 Y13.1360
G01 X26.9098 Y13.0210
G01 X26.8801 Y12.9026
G01 X26.8622 Y12.7819
G01 X26.8563 Y12.6600
G01 X26.8622 Y12.5381
G01 X26.8801 Y12.4174
G01 X26.9098 Y12.2990
G01 X26.9509 Y12.1840
G01 X27.0031 Y12.0737
G01 X27.0659 Y11.9690
G01 X27.1386 Y11.8710
G01 X27.2205 Y11.7805
G01 X27.3110 Y11.6986
G01 X27.4090 Y11.6259
G01 X27.5137 Y11.5631
G01 X27.6240 Y11.5109
G01 X27.7390 Y11.4698
G01 X27.8574 Y11.4401
G01 X27.9781 Y11.4222
G01 X28.1000 Y11.4163
G01 X28.2219 Y11.4222
G01 X28.3426 Y11.4401
G01 X28.4610 Y11.4698
G01 X28.5760 Y11.5109
G01 X28.6863 Y11.5631
G01 X28.7910 Y11.6259
G01 X28.8890 Y11.6986
G01 X28.9795 Y11.7805
G01 X29.0614 Y11.8710
G01 X29.1341 Y11.9690
G01 X29.2023 Y12.0844
G00 Z2.0000
G00 X31.7423 Y12.0844
G01 F60.00
G01 Z-0.0700
G01 F120.00
G01 X31.7891 Y12.1840
G01 X31.8302 Y12.2990
G01 X31.8599 Y12.4174
G01 X31.8778 Y12.5381
G01 X31.8837 Y12.6600
G01 X31.8778 Y12.7819
G01 X31.8599 Y12.9026
G01 X31.8302 Y13.0210
G01 X31.7891 Y13.1360
G01 X31.7369 Y13.2463
G01 X31.6741 Y13.3510
G01 X31.6014 Y13.4490
G01 X31.5195 Y13.5395
G01 X31.4290 Y13.6214
G01 X31.3310 Y13.6941
G01 X31.2263 Y13.7569
G01 X31.1160 Y13.8091
G01 X31.0010 Y13.8502
G01 X30.8826 Y13.8799
G01 X30.7619 Y13.8978
G01 X30.6400 Y13.9037
G01 X30.5181 Y13.8978
G01 X30.3974 Y13.8799
G01 X30.2790 Y13.8502
G01 X30.1640 Y13.8091
G01 X30.0537 Y13.7569
G01 X29.9490 Y13.6941
G01 X29.8510 Y13.6214
G01 X29.7605 Y13.5395
G01 X29.6786 Y13.4490
G01 X29.6059 Y13.3510
G01 X29.5431 Y13.2463
G01 X29.4909 Y13.1360
G01 X29.4498 Y13.0210
G01 X29.4201 Y12.9026
G01 X29.4022 Y12.7819
G01 X29.3963 Y12.6600
G01 X29.4022 Y12.5381
G01 X29.4201 Y12.4174
G01 X29.4498 Y12.2990
G01 X29.4909 Y12.1840
G01 X29.5431 Y12.0737
G01 X29.6059 Y11.9690
G01 X29.6786 Y11.8710
G01 X29.7605 Y11.7805
G01 X29.8510 Y11.6986
G01 X29.9490 Y11.6259
G01 X30.0537 Y11.5631
G01 X30.1640 Y11.5109
G01 X30.2790 Y11.4698
G01 X30.3974 Y11.4401
G01 X30.5181 Y11.4222
G01 X30.6400 Y11.4163
G01 X30.7619 Y11.4222
G01 X30.8826 Y11.4401
G01 X31.0010 Y11.4698
G01 X31.1160 Y11.5109
G01 X31.2263 Y11.5631
G01 X31.3310 Y11.6259
G01 X31.4290 Y11.6986
G01 X31.5195 Y11.7805
G01 X31.6014 Y11.8710
G01 X31.6741 Y11.9690
G01 X31.7423 Y12.0844
G00 Z2.0000
G00 X31.7423 Y19.7044
G01 F60.00
G01 Z-0.0700
G01 F120.00
G01 X31.7891 Y19.8040
G01 X31.8302 Y19.9190
G01 X31.8599 Y20.0374
G01 X31.8778 Y20.1581
G01 X31.8837 Y20.2800
G01 X31.8778 Y20.4019
G01 X31.8599 Y20.5226
G01 X31.8302 Y20.6410
G01 X31.7891 Y20.7560
G01 X31.7369 Y20.8663
G01 X31.6741 Y20.9710
G01 X31.6014 Y21.0690
G01 X31.5195 Y21.1595
G01 X31.4290 Y21.2414
G01 X31.3310 Y21.3141
G01 X31.2263 Y21.3769
G01 X31.1160 Y21.4291
G01 X31.0010 Y21.4702
G01 X30.8826 Y21.4999
G01 X30.7619 Y21.5178
G01 X30.6400 Y21.5237
G01 X30.5181 Y21.5178
G01 X30.3974 Y21.4999
G01 X30.2790 Y21.4702
G01 X30.1640 Y21.4291
G01 X30.0537 Y21.3769
G01 X29.9490 Y21.3141
G01 X29.8510 Y21.2414
G01 X29.7605 Y21.1595
G01 X29.6786 Y21.0690
G01 X29.6059 Y20.9710
G01 X29.5431 Y20.8663
G01 X29.4909 Y20.7560
G01 X29.4498 Y20.6410
G01 X29.4201 Y20.5226
G01 X29.4022 Y20.4019
G01 X29.3963 Y20.2800
G01 X29.4022 Y20.1581
G01 X29.4201 Y20.0374
G01 X29.4498 Y19.9190
G01 X29.4909 Y19.8040
G01 X29.5431 Y19.6937
G01 X29.6059 Y19.5890
G01 X29.6786 Y19.4910
G01 X29.7605 Y19.4005
G01 X29.8510 Y19.3186
G01 X29.9490 Y19.2459
G01 X30.0537 Y19.1831
G01 X30.1640 Y19.1309
G01 X30.2790 Y19.0898
G01 X30.3974 Y19.0601
G01 X30.5181 Y19.0422
G01 X30.6400 Y19.0363
G01 X30.7619 Y19.0422
G01 X30.8826 Y19.0601
G01 X31.0010 Y19.0898
G01 X31.1160 Y19.1309
G01 X31.2263 Y19.1831
G01 X31.3310 Y19.2459
G01 X31.4290 Y19.3186
G01 X31.5195 Y19.4005
G01 X31.6014 Y19.4910
G01 X31.6741 Y19.5890
G01 X31.7423 Y19.7044
G00 Z2.0000
G00 X29.2023 Y19.7044
G01 F60.00
G01 Z-0.0700
G01 F120.00
G01 X29.2491 Y19.8040
G01 X29.2902 Y19.9190
G01 X29.3199 Y20.0374
G01 X29.3378 Y20.1581
G01 X29.3437 Y20.2800
G01 X29.3378 Y20.4019
G01 X29.3199 Y20.5226
G01 X29.2902 Y20.6410
G01 X29.2491 Y20.7560
G01 X29.1969 Y20.8663
G01 X29.1341 Y20.9710
G01 X29.0614 Y21.0690
G01 X28.9795 Y21.1595
G01 X28.8890 Y21.2414
G01 X28.7910 Y21.3141
G01 X28.6863 Y21.3769
G01 X28.5760 Y21.4291
G01 X28.4610 Y21.4702
G01 X28.3426 Y21.4999
G01 X28.2219 Y21.5178
G01 X28.1000 Y21.5237
G01 X27.9781 Y21.5178
G01 X27.8574 Y21.4999
G01 X27.7390 Y21.4702
G01 X27.6240 Y21.4291
G01 X27.5137 Y21.3769
G01 X27.4090 Y21.3141
G01 X27.3110 Y21.2414
G01 X27.2205 Y21.1595
G01 X27.1386 Y21.0690
G01 X27.0659 Y20.9710
G01 X27.0031 Y20.8663
G01 X26.9509 Y20.7560
G01 X26.9098 Y20.6410
G01 X26.8801 Y20.5226
G01 X26.8622 Y20.4019
G01 X26.8563 Y20.2800
G01 X26.8622 Y20.1581
G01 X26.8801 Y20.0374
G01 X26.9098 Y19.9190
G01 X26.9509 Y19.8040
G01 X27.0031 Y19.6937
G01 X27.0659 Y19.5890
G01 X27.1386 Y19.4910
G01 X27.2205 Y19.4005
G01 X27.3110 Y19.3186
G01 X27.4090 Y19.2459
G01 X27.5137 Y19.1831
G01 X27.6240 Y19.1309
G01 X27.7390 Y19.0898
G01 X27.8574 Y19.0601
G01 X27.9781 Y19.0422
G01 X28.1000 Y19.0363
G01 X28.2219 Y19.0422
G01 X28.3426 Y19.0601
G01 X28.4610 Y19.0898
G01 X28.5760 Y19.1309
G01 X28.6863 Y19.1831
G01 X28.7910 Y19.2459
G01 X28.8890 Y19.3186
G01 X28.9795 Y19.4005
G01 X29.0614 Y19.4910
G01 X29.1341 Y19.5890
G01 X29.2023 Y19.7044
G00 Z2.0000
G00 X29.0068 Y21.9597
G01 F60.00
G01 Z-0.0700
G01 F120.00
G01 X28.9500 Y21.9472
G01 X28.8457 Y21.8953
G01 X28.7914 Y21.8521
G01 X28.7630 Y21.8156
G01 X28.7168 Y21.7347
G01 X28.6945 Y21.6691
G01 X28.6903 Y21.6229
G01 X28.6986 Y21.5070
G01 X28.7333 Y21.4215
G01 X28.8030 Y21.3286
G01 X28.9541 Y21.2078
G01 X29.1219 Y21.0284
G01 X29.2091 Y20.9703
G01 X29.2914 Y20.9407
G01 X29.3940 Y20.9354
G01 X29.4517 Y20.9405
G01 X29.5168 Y20.9643
G01 X29.6325 Y21.0416
G01 X29.7859 Y21.2078
G01 X29.9468 Y21.3375
G01 X29.9956 Y21.4025
G01 X30.0474 Y21.5317
G01 X30.0507 Y21.6010
G01 X30.0374 Y21.6931
G01 X30.0148 Y21.7587
G01 X29.9897 Y21.7977
G01 X29.9288 Y21.8680
G01 X29.8742 Y21.9109
G01 X29.7540 Y21.9534
G01 X29.6969 Y21.9630
G01 X29.0068 Y21.9597
G00 Z2.0000
G00 X28.3237 Y24.5284
G01 F60.00
G01 Z-0.0700
G01 F120.00
G01 X28.2514 Y24.4905
G01 X28.2157 Y24.4610
G01 X28.1322 Y24.3495
G01 X28.1041 Y24.2617
G01 X28.1008 Y24.1226
G01 X28.1219 Y24.0565
G01 X28.1943 Y23.9377
G01 X28.3566 Y23.7755
G01 X28.4167 Y23.7300
G01 X28.4601 Y23.7100
G01 X28.5497 Y23.6836
G01 X28.6072 Y23.6768
G01 X29.7062 Y23.6817
G01 X29.7731 Y23.7016
G01 X29.8933 Y23.7718
G01 X29.9385 Y23.8244
G01 X29.9942 Y23.9264
G01 X30.0102 Y23.9939
G01 X30.0063 Y24.1100
G01 X29.9896 Y24.1774
G01 X29.9681 Y24.2184
G01 X29.8985 Y24.3114
G01 X29.7859 Y24.4022
G01 X29.6448 Y24.5554
G01 X29.5309 Y24.7298
G01 X29.4543 Y24.8953
G01 X29.4035 Y24.9626
G01 X29.3465 Y25.0123
G01 X29.2379 Y25.0617
G01 X29.1701 Y25.0764
G01 X29.1237 Y25.0753
G01 X29.0320 Y25.0599
G01 X28.9670 Y25.0357
G01 X28.8597 Y24.9471
G01 X28.7890 Y24.8442
G01 X28.6789 Y24.7232
G01 X28.5479 Y24.6251
G01 X28.4008 Y24.5536
G01 X28.3237 Y24.5284
G00 Z2.0000
G00 X28.3237 Y27.0684
G01 F60.00
G01 Z-0.0700
G01 F120.00
G01 X28.2514 Y27.0305
G01 X28.2156 Y27.0010
G01 X28.1443 Y26.9093
G01 X28.1221 Y26.8687
G01 X28.1041 Y26.8017
G01 X28.0975 Y26.7088
G01 X28.1057 Y26.6399
G01 X28.1219 Y26.5965
G01 X28.1943 Y26.4777
G01 X28.7637 Y25.9080
G01 X28.8736 Y25.7509
G01 X28.9477 Y25.6829
G01 X29.0121 Y25.6503
G01 X29.1251 Y25.6212
G01 X29.1944 Y25.6223
G01 X29.3060 Y25.6545
G01 X29.3852 Y25.7019
G01 X29.4748 Y25.8085
G01 X29.5309 Y25.9302
G01 X29.6448 Y26.1046
G01 X29.7859 Y26.2578
G01 X29.9012 Y26.3560
G01 X29.9742 Y26.4819
G01 X29.9903 Y26.5494
G01 X29.9863 Y26.6655
G01 X29.9697 Y26.7329
G01 X29.9482 Y26.7739
G01 X29.8786 Y26.8669
G01 X29.7859 Y26.9422
G01 X29.6448 Y27.0954
G01 X29.5309 Y27.2698
G01 X29.4543 Y27.4353
G01 X29.4035 Y27.5026
G01 X29.3465 Y27.5523
G01 X29.2379 Y27.6017
G01 X29.1701 Y27.6164
G01 X29.1237 Y27.6153
G01 X29.0320 Y27.5999
G01 X28.9670 Y27.5757
G01 X28.8597 Y27.4871
G01 X28.7890 Y27.3842
G01 X28.6789 Y27.2632
G01 X28.5479 Y27.1651
G01 X28.4008 Y27.0936
G01 X28.3237 Y27.0684
G00 Z2.0000
G00 X28.3237 Y29.6084
G01 F60.00
G01 Z-0.0700
G01 F120.00
G01 X28.2514 Y29.5705
G01 X28.2157 Y29.5410
G01 X28.1443 Y29.4493
G01 X28.1221 Y29.4087
G01 X28.1041 Y29.3417
G01 X28.0975 Y29.2488
G01 X28.1057 Y29.1799
G01 X28.1219 Y29.1365
G01 X28.1943 Y29.0177
G01 X28.7637 Y28.4480
G01 X28.8736 Y28.2909
G01 X28.9477 Y28.2229
G01 X29.0121 Y28.1903
G01 X29.1251 Y28.1612
G01 X29.1944 Y28.1623
G01 X29.3060 Y28.1945
G01 X29.3852 Y28.2419
G01 X29.4748 Y28.3485
G01 X29.5309 Y28.4702
G01 X29.6448 Y28.6446
G01 X29.7859 Y28.7978
G01 X29.9012 Y28.8960
G01 X29.9742 Y29.0219
G01 X29.9903 Y29.0894
G01 X29.9863 Y29.2055
G01 X29.9697 Y29.2729
G01 X29.9482 Y29.3139
G01 X29.8786 Y29.4069
G01 X29.7859 Y29.4822
G01 X29.6448 Y29.6354
G01 X29.5309 Y29.8098
G01 X29.4543 Y29.9753
G01 X29.4035 Y30.0426
G01 X29.3465 Y30.0923
G01 X29.2379 Y30.1417
G01 X29.1701 Y30.1564
G01 X29.1237 Y30.1553
G01 X29.0320 Y30.1399
G01 X28.9670 Y30.1157
G01 X28.8597 Y30.0271
G01 X28.7890 Y29.9242
G01 X28.6789 Y29.8032
G01 X28.5479 Y29.7051
G01 X28.4008 Y29.6336
G01 X28.3237 Y29.6084
G00 Z2.0000
G00 X31.7423 Y29.8344
G01 F60.00
G01 Z-0.0700
G01 F120.00
G01 X31.7891 Y29.9340
G01 X31.8302 Y30.0490
G01 X31.8599 Y30.1674
G01 X31.8778 Y30.2881
G01 X31.8837 Y30.4100
G01 X31.8778 Y30.5319
G01 X31.8599 Y30.6526
G01 X31.8302 Y30.7710
G01 X31.7891 Y30.8860
G01 X31.7369 Y30.9963
G01 X31.6741 Y31.1010
G01 X31.6014 Y31.1990
G01 X31.5195 Y31.2895
G01 X31.4290 Y31.3714
G01 X31.3310 Y31.4441
G01 X31.2263 Y31.5069
G01 X31.1160 Y31.5591
G01 X31.0010 Y31.6002
G01 X30.8826 Y31.6299
G01 X30.7619 Y31.6478
G01 X30.6400 Y31.6537
G01 X30.5181 Y31.6478
G01 X30.3974 Y31.6299
G01 X30.2790 Y31.6002
G01 X30.1640 Y31.5591
G01 X30.0537 Y31.5069
G01 X29.9490 Y31.4441
G01 X29.8510 Y31.3714
G01 X29.7605 Y31.2895
G01 X29.6786 Y31.1990
G01 X29.6059 Y31.1010
G01 X29.5431 Y30.9963
G01 X29.4909 Y30.8860
G01 X29.4498 Y30.7710
G01 X29.4201 Y30.6526
G01 X29.4022 Y30.5319
G01 X29.3963 Y30.4100
G01 X29.4022 Y30.2881
G01 X29.4201 Y30.1674
G01 X29.4498 Y30.0490
G01 X29.4909 Y29.9340
G01 X29.5431 Y29.8237
G01 X29.6059 Y29.7190
G01 X29.6786 Y29.6210
G01 X29.7605 Y29.5305
G01 X29.8510 Y29.4486
G01 X29.9490 Y29.3759
G01 X30.0537 Y29.3131
G01 X30.1640 Y29.2609
G01 X30.2790 Y29.2198
G01 X30.3974 Y29.1901
G01 X30.5181 Y29.1722
G01 X30.6400 Y29.1663
G01 X30.7619 Y29.1722
G01 X30.8826 Y29.1901
G01 X31.0010 Y29.2198
G01 X31.1160 Y29.2609
G01 X31.2263 Y29.3131
G01 X31.3310 Y29.3759
G01 X31.4290 Y29.4486
G01 X31.5195 Y29.5305
G01 X31.6014 Y29.6210
G01 X31.6741 Y29.7190
G01 X31.7423 Y29.8344
G00 Z2.0000
G00 X31.7423 Y32.3744
G01 F60.00
G01 Z-0.0700
G01 F120.00
G01 X31.7891 Y32.4740
G01 X31.8302 Y32.5890
G01 X31.8599 Y32.7074
G01 X31.8778 Y32.8281
G01 X31.8837 Y32.9500
G01 X31.8778 Y33.0719
G01 X31.8599 Y33.1926
G01 X31.8302 Y33.3110
G01 X31.7891 Y33.4260
G01 X31.7369 Y33.5363
G01 X31.6741 Y33.6410
G01 X31.6014 Y33.7390
G01 X31.5195 Y33.8295
G01 X31.4290 Y33.9114
G01 X31.3310 Y33.9841
G01 X31.2263 Y34.0469
G01 X31.1160 Y34.0991
G01 X31.0010 Y34.1402
G01 X30.8826 Y34.1699
G01 X30.7619 Y34.1878
G01 X30.6400 Y34.1937
G01 X30.5181 Y34.1878
G01 X30.3974 Y34.1699
G01 X30.2790 Y34.1402
G01 X30.1640 Y34.0991
G01 X30.0537 Y34.0469
G01 X29.9490 Y33.9841
G01 X29.8510 Y33.9114
G01 X29.7605 Y33.8295
G01 X29.6786 Y33.7390
G01 X29.6059 Y33.6410
G01 X29.5431 Y33.5363
G01 X29.4909 Y33.4260
G01 X29.4498 Y33.3110
G01 X29.4201 Y33.1926
G01 X29.4022 Y33.0719
G01 X29.3963 Y32.9500
G01 X29.4022 Y32.8281
G01 X29.4201 Y32.7074
G01 X29.4498 Y32.5890
G01 X29.4909 Y32.4740
G01 X29.5431 Y32.3637
G01 X29.6059 Y32.2590
G01 X29.6786 Y32.1610
G01 X29.7605 Y32.0705
G01 X29.8510 Y31.9886
G01 X29.9490 Y31.9159
G01 X30.0537 Y31.8531
G01 X30.1640 Y31.8009
G01 X30.2790 Y31.7598
G01 X30.3974 Y31.7301
G01 X30.5181 Y31.7122
G01 X30.6400 Y31.7063
G01 X30.7619 Y31.7122
G01 X30.8826 Y31.7301
G01 X31.0010 Y31.7598
G01 X31.1160 Y31.8009
G01 X31.2263 Y31.8531
G01 X31.3310 Y31.9159
G01 X31.4290 Y31.9886
G01 X31.5195 Y32.0705
G01 X31.6014 Y32.1610
G01 X31.6741 Y32.2590
G01 X31.7423 Y32.3744
G00 Z2.0000
G00 X31.7423 Y34.9144
G01 F60.00
G01 Z-0.0700
G01 F120.00
G01 X31.7891 Y35.0140
G01 X31.8302 Y35.1290
G01 X31.8599 Y35.2474
G01 X31.8778 Y35.3681
G01 X31.8837 Y35.4900
G01 X31.8778 Y35.6119
G01 X31.8599 Y35.7326
G01 X31.8302 Y35.8510
G01 X31.7891 Y35.9660
G01 X31.7369 Y36.0763
G01 X31.6741 Y36.1810
G01 X31.6014 Y36.2790
G01 X31.5195 Y36.3695
G01 X31.4290 Y36.4514
G01 X31.3310 Y36.5241
G01 X31.2263 Y36.5869
G01 X31.1160 Y36.6391
G01 X31.0010 Y36.6802
G01 X30.8826 Y36.7099
G01 X30.7619 Y36.7278
G01 X30.6400 Y36.7337
G01 X30.5181 Y36.7278
G01 X30.3974 Y36.7099
G01 X30.2790 Y36.6802
G01 X30.1640 Y36.6391
G01 X30.0537 Y36.5869
G01 X29.9490 Y36.5241
G01 X29.8510 Y36.4514
G01 X29.7605 Y36.3695
G01 X29.6786 Y36.2790
G01 X29.6059 Y36.1810
G01 X29.5431 Y36.0763
G01 X29.4909 Y35.9660
G01 X29.4498 Y35.8510
G01 X29.4201 Y35.7326
G01 X29.4022 Y35.6119
G01 X29.3963 Y35.4900
G01 X29.4022 Y35.3681
G01 X29.4201 Y35.2474
G01 X29.4498 Y35.1290
G01 X29.4909 Y35.0140
G01 X29.5431 Y34.9037
G01 X29.6059 Y34.7990
G01 X29.6786 Y34.7010
G01 X29.7605 Y34.6105
G01 X29.8510 Y34.5286
G01 X29.9490 Y34.4559
G01 X30.0537 Y34.3931
G01 X30.1640 Y34.3409
G01 X30.2790 Y34.2998
G01 X30.3974 Y34.2701
G01 X30.5181 Y34.2522
G01 X30.6400 Y34.2463
G01 X30.7619 Y34.2522
G01 X30.8826 Y34.2701
G01 X31.0010 Y34.2998
G01 X31.1160 Y34.3409
G01 X31.2263 Y34.3931
G01 X31.3310 Y34.4559
G01 X31.4290 Y34.5286
G01 X31.5195 Y34.6105
G01 X31.6014 Y34.7010
G01 X31.6741 Y34.7990
G01 X31.7423 Y34.9144
G00 Z2.0000
G00 X31.7423 Y37.4544
G01 F60.00
G01 Z-0.0700
G01 F120.00
G01 X31.7891 Y37.5540
G01 X31.8302 Y37.6690
G01 X31.8599 Y37.7874
G01 X31.8778 Y37.9081
G01 X31.8837 Y38.0300
G01 X31.8778 Y38.1519
G01 X31.8599 Y38.2726
G01 X31.8302 Y38.3910
G01 X31.7891 Y38.5060
G01 X31.7369 Y38.6163
G01 X31.6741 Y38.7210
G01 X31.6014 Y38.8190
G01 X31.5195 Y38.9095
G01 X31.4290 Y38.9914
G01 X31.3310 Y39.0641
G01 X31.2263 Y39.1269
G01 X31.1160 Y39.1791
G01 X31.0010 Y39.2202
G01 X30.8826 Y39.2499
G01 X30.7619 Y39.2678
G01 X30.6400 Y39.2737
G01 X30.5181 Y39.2678
G01 X30.3974 Y39.2499
G01 X30.2790 Y39.2202
G01 X30.1640 Y39.1791
G01 X30.0537 Y39.1269
G01 X29.9490 Y39.0641
G01 X29.8510 Y38.9914
G01 X29.7605 Y38.9095
G01 X29.6786 Y38.8190
G01 X29.6059 Y38.7210
G01 X29.5431 Y38.6163
G01 X29.4909 Y38.5060
G01 X29.4498 Y38.3910
G01 X29.4201 Y38.2726
G01 X29.4022 Y38.1519
G01 X29.3963 Y38.0300
G01 X29.4022 Y37.9081
G01 X29.4201 Y37.7874
G01 X29.4498 Y37.6690
G01 X29.4909 Y37.5540
G01 X29.5431 Y37.4437
G01 X29.6059 Y37.3390
G01 X29.6786 Y37.2410
G01 X29.7605 Y37.1505
G01 X29.8510 Y37.0686
G01 X29.9490 Y36.9959
G01 X30.0537 Y36.9331
G01 X30.1640 Y36.8809
G01 X30.2790 Y36.8398
G01 X30.3974 Y36.8101
G01 X30.5181 Y36.7922
G01 X30.6400 Y36.7863
G01 X30.7619 Y36.7922
G01 X30.8826 Y36.8101
G01 X31.0010 Y36.8398
G01 X31.1160 Y36.8809
G01 X31.2263 Y36.9331
G01 X31.3310 Y36.9959
G01 X31.4290 Y37.0686
G01 X31.5195 Y37.1505
G01 X31.6014 Y37.2410
G01 X31.6741 Y37.3390
G01 X31.7423 Y37.4544
G00 Z2.0000
G00 X31.7423 Y39.9944
G01 F60.00
G01 Z-0.0700
G01 F120.00
G01 X31.7891 Y40.0940
G01 X31.8302 Y40.2090
G01 X31.8599 Y40.3274
G01 X31.8778 Y40.4481
G01 X31.8837 Y40.5700
G01 X31.8778 Y40.6919
G01 X31.8599 Y40.8126
G01 X31.8302 Y40.9310
G01 X31.7891 Y41.0460
G01 X31.7369 Y41.1563
G01 X31.6741 Y41.2610
G01 X31.6014 Y41.3590
G01 X31.5195 Y41.4495
G01 X31.4290 Y41.5314
G01 X31.3310 Y41.6041
G01 X31.2263 Y41.6669
G01 X31.1160 Y41.7191
G01 X31.0010 Y41.7602
G01 X30.8826 Y41.7899
G01 X30.7619 Y41.8078
G01 X30.6400 Y41.8137
G01 X30.5181 Y41.8078
G01 X30.3974 Y41.7899
G01 X30.2790 Y41.7602
G01 X30.1640 Y41.7191
G01 X30.0537 Y41.6669
G01 X29.9490 Y41.6041
G01 X29.8510 Y41.5314
G01 X29.7605 Y41.4495
G01 X29.6786 Y41.3590
G01 X29.6059 Y41.2610
G01 X29.5431 Y41.1563
G01 X29.4909 Y41.0460
G01 X29.4498 Y40.9310
G01 X29.4201 Y40.8126
G01 X29.4022 Y40.6919
G01 X29.3963 Y40.5700
G01 X29.4022 Y40.4481
G01 X29.4201 Y40.3274
G01 X29.4498 Y40.2090
G01 X29.4909 Y40.0940
G01 X29.5431 Y39.9837
G01 X29.6059 Y39.8790
G01 X29.6786 Y39.7810
G01 X29.7605 Y39.6905
G01 X29.8510 Y39.6086
G01 X29.9490 Y39.5359
G01 X30.0537 Y39.4731
G01 X30.1640 Y39.4209
G01 X30.2790 Y39.3798
G01 X30.3974 Y39.3501
G01 X30.5181 Y39.3322
G01 X30.6400 Y39.3263
G01 X30.7619 Y39.3322
G01 X30.8826 Y39.3501
G01 X31.0010 Y39.3798
G01 X31.1160 Y39.4209
G01 X31.2263 Y39.4731
G01 X31.3310 Y39.5359
G01 X31.4290 Y39.6086
G01 X31.5195 Y39.6905
G01 X31.6014 Y39.7810
G01 X31.6741 Y39.8790
G01 X31.7423 Y39.9944
G00 Z2.0000
G00 X29.3190 Y39.9788
G01 F60.00
G01 Z-0.0700
G01 F120.00
G01 X29.1824 Y39.9525
G01 X29.1412 Y39.9313
G01 X29.0360 Y39.8401
G01 X28.9985 Y39.7817
G01 X28.9666 Y39.6821
G01 X28.9568 Y39.6134
G01 X28.9573 Y38.9697
G01 X28.9812 Y38.8566
G01 X29.0366 Y38.7633
G01 X29.0731 Y38.7184
G01 X29.1293 Y38.6777
G01 X29.2136 Y38.6384
G01 X29.2809 Y38.6215
G01 X29.3273 Y38.6212
G01 X29.4421 Y38.6390
G01 X29.5244 Y38.6807
G01 X29.6113 Y38.7578
G01 X29.6448 Y38.8046
G01 X29.7859 Y38.9578
G01 X29.9012 Y39.0560
G01 X29.9592 Y39.1506
G01 X29.9817 Y39.2039
G01 X29.9912 Y39.2726
G01 X29.9872 Y39.3540
G01 X29.9773 Y39.4110
G01 X29.9599 Y39.4539
G01 X29.8939 Y39.5495
G01 X29.7859 Y39.6422
G01 X29.5616 Y39.8945
G01 X29.5070 Y39.9288
G01 X29.3883 Y39.9755
G01 X29.3190 Y39.9788
G00 Z2.0000
G00 X29.3190 Y42.5188
G01 F60.00
G01 Z-0.0700
G01 F120.00
G01 X29.1824 Y42.4925
G01 X29.1412 Y42.4713
G01 X29.0360 Y42.3801
G01 X28.9985 Y42.3217
G01 X28.9666 Y42.2221
G01 X28.9568 Y42.1534
G01 X28.9573 Y41.5097
G01 X28.9812 Y41.3966
G01 X29.0366 Y41.3033
G01 X29.0731 Y41.2584
G01 X29.1293 Y41.2177
G01 X29.2136 Y41.1784
G01 X29.2809 Y41.1615
G01 X29.3273 Y41.1612
G01 X29.4421 Y41.1790
G01 X29.5244 Y41.2207
G01 X29.6113 Y41.2978
G01 X29.6448 Y41.3446
G01 X29.7859 Y41.4978
G01 X29.9012 Y41.5960
G01 X29.9592 Y41.6906
G01 X29.9817 Y41.7439
G01 X29.9912 Y41.8126
G01 X29.9872 Y41.8940
G01 X29.9774 Y41.9510
G01 X29.9599 Y41.9939
G01 X29.8938 Y42.0895
G01 X29.7859 Y42.1822
G01 X29.5616 Y42.4345
G01 X29.5070 Y42.4688
G01 X29.3883 Y42.5155
G01 X29.3190 Y42.5188
G00 Z2.0000
G00 X31.7423 Y42.5344
G01 F60.00
G01 Z-0.0700
G01 F120.00
G01 X31.7891 Y42.6340
G01 X31.8302 Y42.7490
G01 X31.8599 Y42.8674
G01 X31.8778 Y42.9881
G01 X31.8837 Y43.1100
G01 X31.8778 Y43.2319
G01 X31.8599 Y43.3526
G01 X31.8302 Y43.4710
G01 X31.7891 Y43.5860
G01 X31.7369 Y43.6963
G01 X31.6741 Y43.8010
G01 X31.6014 Y43.8990
G01 X31.5195 Y43.9895
G01 X31.4290 Y44.0714
G01 X31.3310 Y44.1441
G01 X31.2263 Y44.2069
G01 X31.1160 Y44.2591
G01 X31.0010 Y44.3002
G01 X30.8826 Y44.3299
G01 X30.7619 Y44.3478
G01 X30.6400 Y44.3537
G01 X30.5181 Y44.3478
G01 X30.3974 Y44.3299
G01 X30.2790 Y44.3002
G01 X30.1640 Y44.2591
G01 X30.0537 Y44.2069
G01 X29.9490 Y44.1441
G01 X29.8510 Y44.0714
G01 X29.7605 Y43.9895
G01 X29.6786 Y43.8990
G01 X29.6059 Y43.8010
G01 X29.5431 Y43.6963
G01 X29.4909 Y43.5860
G01 X29.4498 Y43.4710
G01 X29.4201 Y43.3526
G01 X29.4022 Y43.2319
G01 X29.3963 Y43.1100
G01 X29.4022 Y42.9881
G01 X29.4201 Y42.8674
G01 X29.4498 Y42.7490
G01 X29.4909 Y42.6340
G01 X29.5431 Y42.5237
G01 X29.6059 Y42.4190
G01 X29.6786 Y42.3210
G01 X29.7605 Y42.2305
G01 X29.8510 Y42.1486
G01 X29.9490 Y42.0759
G01 X30.0537 Y42.0131
G01 X30.1640 Y41.9609
G01 X30.2790 Y41.9198
G01 X30.3974 Y41.8901
G01 X30.5181 Y41.8722
G01 X30.6400 Y41.8663
G01 X30.7619 Y41.8722
G01 X30.8826 Y41.8901
G01 X31.0010 Y41.9198
G01 X31.1160 Y41.9609
G01 X31.2263 Y42.0131
G01 X31.3310 Y42.0759
G01 X31.4290 Y42.1486
G01 X31.5195 Y42.2305
G01 X31.6014 Y42.3210
G01 X31.6741 Y42.4190
G01 X31.7423 Y42.5344
G00 Z2.0000
G00 X27.1312 Y44.9004
G01 F60.00
G01 Z-0.0700
G01 F120.00
G01 X27.2559 Y44.7680
G01 X27.2559 Y38.0600
G01 X27.2615 Y37.9654
G01 X27.2923 Y37.8150
G01 X27.3556 Y37.6621
G01 X27.4475 Y37.5245
G01 X27.5645 Y37.4075
G01 X27.7021 Y37.3156
G01 X27.8550 Y37.2523
G01 X28.0173 Y37.2200
G01 X28.1946 Y37.2215
G01 X28.3450 Y37.2523
G01 X28.4872 Y37.3102
G01 X28.5787 Y37.3651
G01 X28.6968 Y37.4632
G01 X28.8018 Y37.5911
G01 X28.8750 Y37.7261
G01 X28.9109 Y37.8265
G01 X28.9400 Y37.9773
G01 X28.9441 Y44.7680
G01 X29.0614 Y44.8910
G01 X29.1341 Y44.9890
G01 X29.1969 Y45.0937
G01 X29.2491 Y45.2040
G01 X29.2902 Y45.3190
G01 X29.3199 Y45.4374
G01 X29.3378 Y45.5581
G01 X29.3437 Y45.6800
G01 X29.3378 Y45.8019
G01 X29.3219 Y45.9109
G01 X29.2864 Y46.0524
G01 X29.2491 Y46.1560
G01 X29.1969 Y46.2663
G01 X29.1341 Y46.3710
G01 X29.0614 Y46.4690
G01 X28.9795 Y46.5595
G01 X28.8890 Y46.6414
G01 X28.7910 Y46.7141
G01 X28.6863 Y46.7769
G01 X28.5760 Y46.8291
G01 X28.4610 Y46.8702
G01 X28.3426 Y46.8999
G01 X28.2219 Y46.9178
G01 X28.1000 Y46.9237
G01 X27.9781 Y46.9178
G01 X27.8574 Y46.8999
G01 X27.7390 Y46.8702
G01 X27.6240 Y46.8291
G01 X27.5137 Y46.7769
G01 X27.4090 Y46.7141
G01 X27.3110 Y46.6414
G01 X27.2205 Y46.5595
G01 X27.1386 Y46.4690
G01 X27.0659 Y46.3710
G01 X27.0031 Y46.2663
G01 X26.9509 Y46.1560
G01 X26.9098 Y46.0410
G01 X26.8801 Y45.9226
G01 X26.8622 Y45.8019
G01 X26.8563 Y45.6800
G01 X26.8622 Y45.5581
G01 X26.8801 Y45.4374
G01 X26.9098 Y45.3190
G01 X26.9509 Y45.2040
G01 X27.0031 Y45.0937
G01 X27.0659 Y44.9890
G01 X27.1312 Y44.9004
G00 Z2.0000
G00 X26.6132 Y44.9539
G01 F60.00
G01 Z-0.0700
G01 F120.00
G01 X26.5594 Y44.9101
G01 X26.4684 Y44.7994
G01 X26.4266 Y44.6803
G01 X26.4170 Y44.6232
G01 X26.4171 Y38.5542
G01 X26.4274 Y38.4795
G01 X26.4439 Y38.4347
G01 X26.4887 Y38.3527
G01 X26.5245 Y38.3072
G01 X26.6282 Y38.2041
G01 X26.6813 Y38.1665
G01 X26.7892 Y38.1196
G01 X26.8579 Y38.1097
G01 X26.9731 Y38.1241
G01 X27.0176 Y38.1371
G01 X27.0777 Y38.1718
G01 X27.1480 Y38.2328
G01 X27.2015 Y38.3079
G01 X27.2364 Y38.4187
G01 X27.2430 Y38.4646
G01 X27.2430 Y44.6221
G01 X27.2291 Y44.7094
G01 X27.1677 Y44.8335
G01 X27.0781 Y44.9316
G01 X26.9909 Y44.9897
G01 X26.9086 Y45.0193
G01 X26.7712 Y45.0232
G01 X26.7041 Y45.0057
G01 X26.6132 Y44.9539
G00 Z2.0000
G00 X24.5986 Y44.8910
G01 F60.00
G01 Z-0.0700
G01 F120.00
G01 X24.7159 Y44.7680
G01 X24.7159 Y38.0600
G01 X24.7322 Y37.8953
G01 X24.7759 Y37.7482
G01 X24.8582 Y37.5911
G01 X24.9590 Y37.4674
G01 X27.5645 Y34.8675
G01 X27.6412 Y34.8118
G01 X27.7661 Y34.7450
G01 X27.8550 Y34.7123
G01 X27.9471 Y34.6901
G01 X28.0880 Y34.6762
G01 X28.1827 Y34.6800
G01 X28.2763 Y34.6948
G01 X28.4118 Y34.7359
G01 X28.5689 Y34.8182
G01 X28.6968 Y34.9232
G01 X28.8018 Y35.0511
G01 X28.8841 Y35.2082
G01 X28.9252 Y35.3437
G01 X28.9385 Y35.4254
G01 X28.9409 Y35.5908
G01 X28.9077 Y35.7650
G01 X28.8444 Y35.9179
G01 X28.7598 Y36.0460
G01 X28.6968 Y36.1168
G01 X26.4041 Y38.4096
G01 X26.4041 Y44.7680
G01 X26.5214 Y44.8910
G01 X26.5941 Y44.9890
G01 X26.6569 Y45.0937
G01 X26.7091 Y45.2040
G01 X26.7502 Y45.3190
G01 X26.7799 Y45.4374
G01 X26.7978 Y45.5581
G01 X26.8037 Y45.6800
G01 X26.7978 Y45.8019
G01 X26.7819 Y45.9109
G01 X26.7464 Y46.0524
G01 X26.7091 Y46.1560
G01 X26.6569 Y46.2663
G01 X26.5941 Y46.3710
G01 X26.5214 Y46.4690
G01 X26.4395 Y46.5595
G01 X26.3490 Y46.6414
G01 X26.2510 Y46.7141
G01 X26.1463 Y46.7769
G01 X26.0360 Y46.8291
G01 X25.9210 Y46.8702
G01 X25.8026 Y46.8999
G01 X25.6819 Y46.9178
G01 X25.5600 Y46.9237
G01 X25.4381 Y46.9178
G01 X25.3174 Y46.8999
G01 X25.1990 Y46.8702
G01 X25.0840 Y46.8291
G01 X24.9737 Y46.7769
G01 X24.8690 Y46.7141
G01 X24.7710 Y46.6414
G01 X24.6805 Y46.5595
G01 X24.5986 Y46.4690
G01 X24.5259 Y46.3710
G01 X24.4631 Y46.2663
G01 X24.4109 Y46.1560
G01 X24.3698 Y46.0410
G01 X24.3401 Y45.9226
G01 X24.3222 Y45.8019
G01 X24.3163 Y45.6800
G01 X24.3222 Y45.5581
G01 X24.3401 Y45.4374
G01 X24.3698 Y45.3190
G01 X24.4109 Y45.2040
G01 X24.4631 Y45.0937
G01 X24.5259 Y44.9890
G01 X24.5986 Y44.8910
G00 Z2.0000
G00 X24.0732 Y44.9539
G01 F60.00
G01 Z-0.0700
G01 F120.00
G01 X24.0194 Y44.9101
G01 X23.9284 Y44.7994
G01 X23.8866 Y44.6803
G01 X23.8768 Y44.6116
G01 X23.8768 Y36.0272
G01 X23.8946 Y35.9167
G01 X23.9487 Y35.8127
G01 X23.9845 Y35.7672
G01 X28.7637 Y30.9880
G01 X28.8571 Y30.8504
G01 X28.9198 Y30.7860
G01 X28.9896 Y30.7390
G01 X29.1251 Y30.7012
G01 X29.1944 Y30.7023
G01 X29.3060 Y30.7345
G01 X29.3852 Y30.7819
G01 X29.4617 Y30.8694
G01 X29.5309 Y31.0102
G01 X29.6448 Y31.1846
G01 X29.7859 Y31.3378
G01 X29.9012 Y31.4360
G01 X29.9647 Y31.5408
G01 X29.9871 Y31.6064
G01 X29.9912 Y31.6526
G01 X29.9829 Y31.7685
G01 X29.9482 Y31.8539
G01 X29.8786 Y31.9469
G01 X29.7859 Y32.0222
G01 X29.6448 Y32.1754
G01 X29.5309 Y32.3498
G01 X29.4473 Y32.5405
G01 X29.3961 Y32.7424
G01 X29.3789 Y32.9500
G01 X29.3961 Y33.1576
G01 X29.4473 Y33.3595
G01 X29.5309 Y33.5502
G01 X29.6448 Y33.7246
G01 X29.7859 Y33.8778
G01 X29.9012 Y33.9760
G01 X29.9742 Y34.1019
G01 X29.9912 Y34.1926
G01 X29.9863 Y34.2855
G01 X29.9697 Y34.3529
G01 X29.9482 Y34.3940
G01 X29.8786 Y34.4869
G01 X29.7859 Y34.5622
G01 X29.6448 Y34.7154
G01 X29.5309 Y34.8898
G01 X29.4542 Y35.0553
G01 X29.4035 Y35.1226
G01 X29.3672 Y35.1577
G01 X29.3244 Y35.1846
G01 X29.1931 Y35.2337
G01 X29.1237 Y35.2353
G01 X29.0320 Y35.2199
G01 X28.9472 Y35.1836
G01 X28.8441 Y35.0899
G01 X28.7890 Y35.0042
G01 X28.6789 Y34.8832
G01 X28.5479 Y34.7851
G01 X28.4008 Y34.7136
G01 X28.2427 Y34.6713
G01 X28.0795 Y34.6596
G01 X27.9171 Y34.6790
G01 X27.7612 Y34.7288
G01 X27.6176 Y34.8073
G01 X27.5230 Y34.8853
G01 X24.9371 Y37.4661
G01 X24.8360 Y37.5947
G01 X24.8046 Y37.6475
G01 X24.7402 Y37.7979
G01 X24.7149 Y37.8971
G01 X24.7054 Y37.9578
G01 X24.7014 Y38.1294
G01 X24.7005 Y44.6540
G01 X24.6810 Y44.7305
G01 X24.6137 Y44.8520
G01 X24.5381 Y44.9316
G01 X24.4314 Y44.9999
G01 X24.3468 Y45.0220
G01 X24.2312 Y45.0232
G01 X24.1641 Y45.0057
G01 X24.0732 Y44.9539
G00 Z2.0000
G00 X22.0512 Y44.9004
G01 F60.00
G01 Z-0.0700
G01 F120.00
G01 X22.1759 Y44.7680
G01 X22.1759 Y35.5200
G01 X22.1922 Y35.3553
G01 X22.2402 Y35.1970
G01 X22.3182 Y35.0511
G01 X22.4232 Y34.9232
G01 X27.5555 Y29.7954
G01 X27.6311 Y29.7382
G01 X27.7128 Y29.6902
G01 X27.8436 Y29.6360
G01 X27.9471 Y29.6101
G01 X28.0880 Y29.5962
G01 X28.1827 Y29.6000
G01 X28.3335 Y29.6291
G01 X28.4230 Y29.6602
G01 X28.5787 Y29.7451
G01 X28.6445 Y29.7954
G01 X28.7446 Y29.8955
G01 X28.8444 Y30.0421
G01 X28.9077 Y30.1950
G01 X28.9409 Y30.3692
G01 X28.9409 Y30.5108
G01 X28.9299 Y30.5929
G01 X28.8798 Y30.7630
G01 X28.7949 Y30.9187
G01 X28.6968 Y31.0368
G01 X23.8641 Y35.8696
G01 X23.8641 Y44.7680
G01 X23.9814 Y44.8910
G01 X24.0541 Y44.9890
G01 X24.1169 Y45.0937
G01 X24.1691 Y45.2040
G01 X24.2102 Y45.3190
G01 X24.2399 Y45.4374
G01 X24.2578 Y45.5581
G01 X24.2637 Y45.6800
G01 X24.2578 Y45.8019
G01 X24.2419 Y45.9109
G01 X24.2064 Y46.0524
G01 X24.1691 Y46.1560
G01 X24.1169 Y46.2663
G01 X24.0541 Y46.3710
G01 X23.9814 Y46.4690
G01 X23.8995 Y46.5595
G01 X23.8090 Y46.6414
G01 X23.7110 Y46.7141
G01 X23.6063 Y46.7769
G01 X23.4960 Y46.8291
G01 X23.3810 Y46.8702
G01 X23.2626 Y46.8999
G01 X23.1419 Y46.9178
G01 X23.0200 Y46.9237
G01 X22.8981 Y46.9178
G01 X22.7774 Y46.8999
G01 X22.6590 Y46.8702
G01 X22.5440 Y46.8291
G01 X22.4337 Y46.7769
G01 X22.3290 Y46.7141
G01 X22.2310 Y46.6414
G01 X22.1405 Y46.5595
G01 X22.0586 Y46.4690
G01 X21.9859 Y46.3710
G01 X21.9231 Y46.2663
G01 X21.8709 Y46.1560
G01 X21.8298 Y46.0410
G01 X21.8001 Y45.9226
G01 X21.7822 Y45.8019
G01 X21.7763 Y45.6800
G01 X21.7822 Y45.5581
G01 X21.8001 Y45.4374
G01 X21.8298 Y45.3190
G01 X21.8709 Y45.2040
G01 X21.9231 Y45.0937
G01 X21.9859 Y44.9890
G01 X22.0512 Y44.9004
G00 Z2.0000
G00 X21.5332 Y44.9539
G01 F60.00
G01 Z-0.0700
G01 F120.00
G01 X21.4794 Y44.9101
G01 X21.3884 Y44.7994
G01 X21.3466 Y44.6803
G01 X21.3368 Y44.6116
G01 X21.3368 Y36.0272
G01 X21.3546 Y35.9167
G01 X21.4087 Y35.8127
G01 X21.4445 Y35.7672
G01 X21.5482 Y35.6641
G01 X21.6013 Y35.6265
G01 X21.7092 Y35.5796
G01 X21.7779 Y35.5697
G01 X21.8931 Y35.5841
G01 X21.9376 Y35.5971
G01 X21.9977 Y35.6318
G01 X22.0680 Y35.6928
G01 X22.1215 Y35.7679
G01 X22.1564 Y35.8787
G01 X22.1630 Y35.9246
G01 X22.1630 Y44.6221
G01 X22.1491 Y44.7094
G01 X22.0877 Y44.8335
G01 X21.9981 Y44.9316
G01 X21.9109 Y44.9897
G01 X21.8286 Y45.0193
G01 X21.6912 Y45.0232
G01 X21.6241 Y45.0057
G01 X21.5332 Y44.9539
G00 Z2.0000
G00 X19.5112 Y44.9004
G01 F60.00
G01 Z-0.0700
G01 F120.00
G01 X19.6359 Y44.7680
G01 X19.6359 Y35.5200
G01 X19.6548 Y35.3437
G01 X19.6959 Y35.2082
G01 X19.7356 Y35.1221
G01 X19.7851 Y35.0413
G01 X19.8832 Y34.9232
G01 X27.5118 Y27.2949
G01 X27.6213 Y27.2051
G01 X27.7128 Y27.1502
G01 X27.8550 Y27.0923
G01 X28.0054 Y27.0615
G01 X28.1120 Y27.0562
G01 X28.2647 Y27.0722
G01 X28.4118 Y27.1159
G01 X28.4979 Y27.1556
G01 X28.6445 Y27.2554
G01 X28.7446 Y27.3555
G01 X28.7949 Y27.4213
G01 X28.8798 Y27.5770
G01 X28.9278 Y27.7353
G01 X28.9441 Y27.9000
G01 X28.9252 Y28.0763
G01 X28.9040 Y28.1564
G01 X28.8498 Y28.2872
G01 X28.7525 Y28.4355
G01 X21.3241 Y35.8696
G01 X21.3241 Y44.7680
G01 X21.4414 Y44.8910
G01 X21.5141 Y44.9890
G01 X21.5769 Y45.0937
G01 X21.6291 Y45.2040
G01 X21.6702 Y45.3190
G01 X21.6999 Y45.4374
G01 X21.7178 Y45.5581
G01 X21.7237 Y45.6800
G01 X21.7178 Y45.8019
G01 X21.6999 Y45.9226
G01 X21.6702 Y46.0410
G01 X21.6334 Y46.1448
G01 X21.5710 Y46.2767
G01 X21.5141 Y46.3710
G01 X21.4414 Y46.4690
G01 X21.3595 Y46.5595
G01 X21.2690 Y46.6414
G01 X21.1710 Y46.7141
G01 X21.0663 Y46.7769
G01 X20.9560 Y46.8291
G01 X20.8410 Y46.8702
G01 X20.7226 Y46.8999
G01 X20.6019 Y46.9178
G01 X20.4800 Y46.9237
G01 X20.3581 Y46.9178
G01 X20.2374 Y46.8999
G01 X20.1190 Y46.8702
G01 X20.0040 Y46.8291
G01 X19.8937 Y46.7769
G01 X19.7890 Y46.7141
G01 X19.6910 Y46.6414
G01 X19.6005 Y46.5595
G01 X19.5186 Y46.4690
G01 X19.4459 Y46.3710
G01 X19.3831 Y46.2663
G01 X19.3309 Y46.1560
G01 X19.2898 Y46.0410
G01 X19.2601 Y45.9226
G01 X19.2422 Y45.8019
G01 X19.2363 Y45.6800
G01 X19.2422 Y45.5581
G01 X19.2601 Y45.4374
G01 X19.2898 Y45.3190
G01 X19.3309 Y45.2040
G01 X19.3831 Y45.0937
G01 X19.4459 Y44.9890
G01 X19.5112 Y44.9004
G00 Z2.0000
G00 X18.9932 Y44.9539
G01 F60.00
G01 Z-0.0700
G01 F120.00
G01 X18.9394 Y44.9101
G01 X18.8484 Y44.7994
G01 X18.8066 Y44.6803
G01 X18.7968 Y44.6116
G01 X18.7968 Y36.0272
G01 X18.8146 Y35.9167
G01 X18.8687 Y35.8127
G01 X18.9045 Y35.7672
G01 X19.0082 Y35.6641
G01 X19.0613 Y35.6265
G01 X19.1692 Y35.5796
G01 X19.2379 Y35.5697
G01 X19.3531 Y35.5841
G01 X19.3976 Y35.5971
G01 X19.4577 Y35.6318
G01 X19.5280 Y35.6928
G01 X19.5815 Y35.7679
G01 X19.6164 Y35.8787
G01 X19.6230 Y35.9246
G01 X19.6230 Y44.6221
G01 X19.6091 Y44.7094
G01 X19.5477 Y44.8335
G01 X19.4581 Y44.9316
G01 X19.3709 Y44.9897
G01 X19.2886 Y45.0193
G01 X19.1512 Y45.0232
G01 X19.0841 Y45.0057
G01 X18.9932 Y44.9539
G00 Z2.0000
G00 X16.9712 Y44.9004
G01 F60.00
G01 Z-0.0700
G01 F120.00
G01 X17.0959 Y44.7680
G01 X17.0959 Y35.5200
G01 X17.1015 Y35.4254
G01 X17.1291 Y35.2865
G01 X17.1602 Y35.1970
G01 X17.2015 Y35.1117
G01 X17.2802 Y34.9940
G01 X17.3432 Y34.9232
G01 X27.5118 Y24.7549
G01 X27.6213 Y24.6651
G01 X27.7128 Y24.6102
G01 X27.8550 Y24.5523
G01 X28.0054 Y24.5215
G01 X28.1120 Y24.5162
G01 X28.2647 Y24.5322
G01 X28.4118 Y24.5759
G01 X28.5083 Y24.6215
G01 X28.6445 Y24.7154
G01 X28.7446 Y24.8155
G01 X28.7949 Y24.8813
G01 X28.8798 Y25.0370
G01 X28.9278 Y25.1953
G01 X28.9438 Y25.3720
G01 X28.9385 Y25.4546
G01 X28.9109 Y25.5935
G01 X28.8444 Y25.7579
G01 X28.7446 Y25.9045
G01 X18.7841 Y35.8696
G01 X18.7841 Y44.7680
G01 X18.9014 Y44.8910
G01 X18.9741 Y44.9890
G01 X19.0369 Y45.0937
G01 X19.0891 Y45.2040
G01 X19.1302 Y45.3190
G01 X19.1599 Y45.4374
G01 X19.1778 Y45.5581
G01 X19.1837 Y45.6800
G01 X19.1778 Y45.8019
G01 X19.1599 Y45.9226
G01 X19.1302 Y46.0410
G01 X19.0934 Y46.1448
G01 X19.0310 Y46.2767
G01 X18.9741 Y46.3710
G01 X18.9014 Y46.4690
G01 X18.8195 Y46.5595
G01 X18.7290 Y46.6414
G01 X18.6310 Y46.7141
G01 X18.5263 Y46.7769
G01 X18.4160 Y46.8291
G01 X18.3010 Y46.8702
G01 X18.1826 Y46.8999
G01 X18.0619 Y46.9178
G01 X17.9400 Y46.9237
G01 X17.8181 Y46.9178
G01 X17.6974 Y46.8999
G01 X17.5790 Y46.8702
G01 X17.4640 Y46.8291
G01 X17.3537 Y46.7769
G01 X17.2490 Y46.7141
G01 X17.1510 Y46.6414
G01 X17.0605 Y46.5595
G01 X16.9786 Y46.4690
G01 X16.9059 Y46.3710
G01 X16.8431 Y46.2663
G01 X16.7909 Y46.1560
G01 X16.7498 Y46.0410
G01 X16.7201 Y45.9226
G01 X16.7022 Y45.8019
G01 X16.6963 Y45.6800
G01 X16.7022 Y45.5581
G01 X16.7201 Y45.4374
G01 X16.7498 Y45.3190
G01 X16.7909 Y45.2040
G01 X16.8431 Y45.0937
G01 X16.9059 Y44.9890
G01 X16.9712 Y44.9004
G00 Z2.0000
G00 X16.4532 Y44.9539
G01 F60.00
G01 Z-0.0700
G01 F120.00
G01 X16.3994 Y44.9101
G01 X16.3084 Y44.7994
G01 X16.2666 Y44.6803
G01 X16.2568 Y44.6116
G01 X16.2568 Y36.0272
G01 X16.2746 Y35.9167
G01 X16.3287 Y35.8127
G01 X16.3645 Y35.7672
G01 X16.4682 Y35.6641
G01 X16.5213 Y35.6265
G01 X16.6292 Y35.5796
G01 X16.6979 Y35.5697
G01 X16.8131 Y35.5841
G01 X16.8576 Y35.5971
G01 X16.9177 Y35.6318
G01 X16.9880 Y35.6928
G01 X17.0415 Y35.7679
G01 X17.0764 Y35.8787
G01 X17.0830 Y35.9246
G01 X17.0830 Y44.6221
G01 X17.0691 Y44.7094
G01 X17.0077 Y44.8335
G01 X16.9181 Y44.9316
G01 X16.8309 Y44.9897
G01 X16.7486 Y45.0193
G01 X16.6112 Y45.0232
G01 X16.5441 Y45.0057
G01 X16.4532 Y44.9539
G00 Z2.0000
G00 X14.4386 Y44.8910
G01 F60.00
G01 Z-0.0700
G01 F120.00
G01 X14.5559 Y44.7680
G01 X14.5560 Y35.5140
G01 X14.5701 Y35.3671
G01 X14.5923 Y35.2750
G01 X14.6502 Y35.1328
G01 X14.7051 Y35.0413
G01 X14.8032 Y34.9232
G01 X27.5645 Y22.1675
G01 X27.7021 Y22.0756
G01 X27.8436 Y22.0160
G01 X27.9471 Y21.9901
G01 X28.1000 Y21.9759
G01 X30.7108 Y21.9791
G01 X30.8163 Y21.9948
G01 X30.9518 Y22.0359
G01 X31.0379 Y22.0756
G01 X31.1187 Y22.1251
G01 X31.1845 Y22.1754
G01 X31.2846 Y22.2755
G01 X31.3785 Y22.4117
G01 X31.4477 Y22.5750
G01 X31.4800 Y22.7373
G01 X31.4785 Y22.9146
G01 X31.4652 Y22.9963
G01 X31.4241 Y23.1318
G01 X31.3418 Y23.2889
G01 X31.2282 Y23.4251
G01 X31.1089 Y23.5218
G01 X30.9739 Y23.5950
G01 X30.8735 Y23.6309
G01 X30.7227 Y23.6600
G01 X28.4496 Y23.6641
G01 X16.2441 Y35.8696
G01 X16.2441 Y44.7680
G01 X16.3614 Y44.8910
G01 X16.4341 Y44.9890
G01 X16.4969 Y45.0937
G01 X16.5491 Y45.2040
G01 X16.5902 Y45.3190
G01 X16.6199 Y45.4374
G01 X16.6378 Y45.5581
G01 X16.6437 Y45.6800
G01 X16.6378 Y45.8019
G01 X16.6199 Y45.9226
G01 X16.5902 Y46.0410
G01 X16.5534 Y46.1448
G01 X16.4910 Y46.2767
G01 X16.4341 Y46.3710
G01 X16.3614 Y46.4690
G01 X16.2795 Y46.5595
G01 X16.1890 Y46.6414
G01 X16.0910 Y46.7141
G01 X15.9863 Y46.7769
G01 X15.8760 Y46.8291
G01 X15.7610 Y46.8702
G01 X15.6426 Y46.8999
G01 X15.5219 Y46.9178
G01 X15.4000 Y46.9237
G01 X15.2781 Y46.9178
G01 X15.1574 Y46.8999
G01 X15.0390 Y46.8702
G01 X14.9240 Y46.8291
G01 X14.8137 Y46.7769
G01 X14.7090 Y46.7141
G01 X14.6110 Y46.6414
G01 X14.5205 Y46.5595
G01 X14.4386 Y46.4690
G01 X14.3659 Y46.3710
G01 X14.3031 Y46.2663
G01 X14.2509 Y46.1560
G01 X14.2098 Y46.0410
G01 X14.1801 Y45.9226
G01 X14.1622 Y45.8019
G01 X14.1563 Y45.6800
G01 X14.1622 Y45.5581
G01 X14.1801 Y45.4374
G01 X14.2098 Y45.3190
G01 X14.2509 Y45.2040
G01 X14.3031 Y45.0937
G01 X14.3659 Y44.9890
G01 X14.4386 Y44.8910
G00 Z2.0000
G00 X9.3512 Y44.9004
G01 F60.00
G01 Z-0.0700
G01 F120.00
G01 X9.4759 Y44.7680
G01 X9.4760 Y12.6540
G01 X9.4922 Y12.4953
G01 X9.5402 Y12.3370
G01 X9.6182 Y12.1911
G01 X9.7232 Y12.0632
G01 X9.8511 Y11.9582
G01 X9.9970 Y11.8802
G01 X10.1553 Y11.8322
G01 X10.3320 Y11.8162
G01 X10.4847 Y11.8322
G01 X10.6430 Y11.8802
G01 X10.7889 Y11.9582
G01 X10.9168 Y12.0632
G01 X11.0218 Y12.1911
G01 X11.0998 Y12.3370
G01 X11.1478 Y12.4953
G01 X11.1640 Y12.6540
G01 X11.1641 Y44.7680
G01 X11.2814 Y44.8910
G01 X11.3541 Y44.9890
G01 X11.4169 Y45.0937
G01 X11.4691 Y45.2040
G01 X11.5102 Y45.3190
G01 X11.5399 Y45.4374
G01 X11.5578 Y45.5581
G01 X11.5637 Y45.6800
G01 X11.5578 Y45.8019
G01 X11.5399 Y45.9226
G01 X11.5102 Y46.0410
G01 X11.4734 Y46.1448
G01 X11.4110 Y46.2767
G01 X11.3541 Y46.3710
G01 X11.2814 Y46.4690
G01 X11.1995 Y46.5595
G01 X11.1090 Y46.6414
G01 X11.0110 Y46.7141
G01 X10.9063 Y46.7769
G01 X10.7960 Y46.8291
G01 X10.6810 Y46.8702
G01 X10.5626 Y46.8999
G01 X10.4419 Y46.9178
G01 X10.3200 Y46.9237
G01 X10.1981 Y46.9178
G01 X10.0774 Y46.8999
G01 X9.9590 Y46.8702
G01 X9.8440 Y46.8291
G01 X9.7337 Y46.7769
G01 X9.6290 Y46.7141
G01 X9.5310 Y46.6414
G01 X9.4405 Y46.5595
G01 X9.3586 Y46.4690
G01 X9.2859 Y46.3710
G01 X9.2231 Y46.2663
G01 X9.1709 Y46.1560
G01 X9.1298 Y46.0410
G01 X9.1001 Y45.9226
G01 X9.0822 Y45.8019
G01 X9.0763 Y45.6800
G01 X9.0822 Y45.5581
G01 X9.1001 Y45.4374
G01 X9.1298 Y45.3190
G01 X9.1709 Y45.2040
G01 X9.2231 Y45.0937
G01 X9.2859 Y44.9890
G01 X9.3512 Y44.9004
G00 Z2.0000
G00 X8.8823 Y42.5644
G01 F60.00
G01 Z-0.0700
G01 F120.00
G01 X8.9291 Y42.6640
G01 X8.9702 Y42.7790
G01 X8.9999 Y42.8974
G01 X9.0178 Y43.0181
G01 X9.0237 Y43.1400
G01 X9.0178 Y43.2619
G01 X8.9999 Y43.3826
G01 X8.9702 Y43.5010
G01 X8.9291 Y43.6160
G01 X8.8769 Y43.7263
G01 X8.8141 Y43.8310
G01 X8.7414 Y43.9290
G01 X8.6595 Y44.0195
G01 X8.5690 Y44.1014
G01 X8.4710 Y44.1741
G01 X8.3663 Y44.2369
G01 X8.2560 Y44.2891
G01 X8.1410 Y44.3302
G01 X8.0226 Y44.3599
G01 X7.9019 Y44.3778
G01 X7.7800 Y44.3837
G01 X7.6581 Y44.3778
G01 X7.5374 Y44.3599
G01 X7.4190 Y44.3302
G01 X7.3040 Y44.2891
G01 X7.1937 Y44.2369
G01 X7.0890 Y44.1741
G01 X6.9910 Y44.1014
G01 X6.9005 Y44.0195
G01 X6.8186 Y43.9290
G01 X6.7459 Y43.8310
G01 X6.6831 Y43.7263
G01 X6.6309 Y43.6160
G01 X6.5898 Y43.5010
G01 X6.5601 Y43.3826
G01 X6.5422 Y43.2619
G01 X6.5363 Y43.1400
G01 X6.5422 Y43.0181
G01 X6.5601 Y42.8974
G01 X6.5898 Y42.7790
G01 X6.6309 Y42.6640
G01 X6.6831 Y42.5537
G01 X6.7459 Y42.4490
G01 X6.8186 Y42.3510
G01 X6.9005 Y42.2605
G01 X6.9910 Y42.1786
G01 X7.0890 Y42.1059
G01 X7.1937 Y42.0431
G01 X7.3040 Y41.9909
G01 X7.4190 Y41.9498
G01 X7.5374 Y41.9201
G01 X7.6581 Y41.9022
G01 X7.7800 Y41.8963
G01 X7.9019 Y41.9022
G01 X8.0226 Y41.9201
G01 X8.1410 Y41.9498
G01 X8.2560 Y41.9909
G01 X8.3663 Y42.0431
G01 X8.4710 Y42.1059
G01 X8.5690 Y42.1786
G01 X8.6595 Y42.2605
G01 X8.7414 Y42.3510
G01 X8.8141 Y42.4490
G01 X8.8823 Y42.5644
G00 Z2.0000
G00 X8.8823 Y37.4844
G01 F60.00
G01 Z-0.0700
G01 F120.00
G01 X8.9291 Y37.5840
G01 X8.9702 Y37.6990
G01 X8.9999 Y37.8174
G01 X9.0178 Y37.9381
G01 X9.0237 Y38.0600
G01 X9.0178 Y38.1819
G01 X8.9999 Y38.3026
G01 X8.9702 Y38.4210
G01 X8.9291 Y38.5360
G01 X8.8769 Y38.6463
G01 X8.8141 Y38.7510
G01 X8.7414 Y38.8490
G01 X8.6595 Y38.9395
G01 X8.5690 Y39.0214
G01 X8.4710 Y39.0941
G01 X8.3663 Y39.1569
G01 X8.2560 Y39.2091
G01 X8.1410 Y39.2502
G01 X8.0226 Y39.2799
G01 X7.9019 Y39.2978
G01 X7.7800 Y39.3037
G01 X7.6581 Y39.2978
G01 X7.5374 Y39.2799
G01 X7.4190 Y39.2502
G01 X7.3040 Y39.2091
G01 X7.1937 Y39.1569
G01 X7.0890 Y39.0941
G01 X6.9910 Y39.0214
G01 X6.9005 Y38.9395
G01 X6.8186 Y38.8490
G01 X6.7459 Y38.7510
G01 X6.6831 Y38.6463
G01 X6.6309 Y38.5360
G01 X6.5898 Y38.4210
G01 X6.5601 Y38.3026
G01 X6.5422 Y38.1819
G01 X6.5363 Y38.0600
G01 X6.5422 Y37.9381
G01 X6.5601 Y37.8174
G01 X6.5898 Y37.6990
G01 X6.6309 Y37.5840
G01 X6.6831 Y37.4737
G01 X6.7459 Y37.3690
G01 X6.8186 Y37.2710
G01 X6.9005 Y37.1805
G01 X6.9910 Y37.0986
G01 X7.0890 Y37.0259
G01 X7.1937 Y36.9631
G01 X7.3040 Y36.9109
G01 X7.4190 Y36.8698
G01 X7.5374 Y36.8401
G01 X7.6581 Y36.8222
G01 X7.7800 Y36.8163
G01 X7.9019 Y36.8222
G01 X8.0226 Y36.8401
G01 X8.1410 Y36.8698
G01 X8.2560 Y36.9109
G01 X8.3663 Y36.9631
G01 X8.4710 Y37.0259
G01 X8.5690 Y37.0986
G01 X8.6595 Y37.1805
G01 X8.7414 Y37.2710
G01 X8.8141 Y37.3690
G01 X8.8823 Y37.4844
G00 Z2.0000
G00 X8.8087 Y37.3322
G01 F60.00
G01 Z-0.0700
G01 F120.00
G01 X8.7752 Y37.2854
G01 X8.6341 Y37.1322
G01 X8.5188 Y37.0340
G01 X8.4553 Y36.9292
G01 X8.4329 Y36.8636
G01 X8.4288 Y36.8174
G01 X8.4337 Y36.7245
G01 X8.4503 Y36.6571
G01 X8.4718 Y36.6161
G01 X8.5414 Y36.5231
G01 X8.6341 Y36.4478
G01 X8.7752 Y36.2946
G01 X8.8307 Y36.2226
G01 X8.8792 Y36.1800
G01 X8.9873 Y36.1276
G01 X9.0547 Y36.1112
G01 X9.1817 Y36.1225
G01 X9.2376 Y36.1375
G01 X9.2977 Y36.1722
G01 X9.3984 Y36.2682
G01 X9.4302 Y36.3298
G01 X9.4564 Y36.4191
G01 X9.4632 Y36.4766
G01 X9.4632 Y37.1034
G01 X9.4477 Y37.2091
G01 X9.4208 Y37.2677
G01 X9.3469 Y37.3716
G01 X9.2907 Y37.4123
G01 X9.1620 Y37.4650
G01 X9.0927 Y37.4688
G01 X8.9559 Y37.4435
G01 X8.8956 Y37.4093
G01 X8.8087 Y37.3322
G00 Z2.0000
G00 X8.9334 Y35.0552
G01 F60.00
G01 Z-0.0700
G01 F120.00
G01 X8.9702 Y35.1590
G01 X8.9999 Y35.2774
G01 X9.0178 Y35.3981
G01 X9.0237 Y35.5200
G01 X9.0178 Y35.6419
G01 X8.9999 Y35.7626
G01 X8.9702 Y35.8810
G01 X8.9291 Y35.9960
G01 X8.8769 Y36.1063
G01 X8.8141 Y36.2110
G01 X8.7414 Y36.3090
G01 X8.6595 Y36.3995
G01 X8.5690 Y36.4814
G01 X8.4710 Y36.5541
G01 X8.3663 Y36.6169
G01 X8.2560 Y36.6691
G01 X8.1410 Y36.7102
G01 X8.0226 Y36.7399
G01 X7.9019 Y36.7578
G01 X7.7800 Y36.7637
G01 X7.6581 Y36.7578
G01 X7.5374 Y36.7399
G01 X7.4190 Y36.7102
G01 X7.3040 Y36.6691
G01 X7.1937 Y36.6169
G01 X7.0890 Y36.5541
G01 X6.9910 Y36.4814
G01 X6.9005 Y36.3995
G01 X6.8186 Y36.3090
G01 X6.7459 Y36.2110
G01 X6.6831 Y36.1063
G01 X6.6309 Y35.9960
G01 X6.5898 Y35.8810
G01 X6.5601 Y35.7626
G01 X6.5422 Y35.6419
G01 X6.5363 Y35.5200
G01 X6.5422 Y35.3981
G01 X6.5601 Y35.2774
G01 X6.5898 Y35.1590
G01 X6.6309 Y35.0440
G01 X6.6831 Y34.9337
G01 X6.7459 Y34.8290
G01 X6.8186 Y34.7310
G01 X6.9005 Y34.6405
G01 X6.9910 Y34.5586
G01 X7.0890 Y34.4859
G01 X7.1937 Y34.4231
G01 X7.3040 Y34.3709
G01 X7.4190 Y34.3298
G01 X7.5374 Y34.3001
G01 X7.6581 Y34.2822
G01 X7.7800 Y34.2763
G01 X7.9019 Y34.2822
G01 X8.0226 Y34.3001
G01 X8.1410 Y34.3298
G01 X8.2560 Y34.3709
G01 X8.3663 Y34.4231
G01 X8.4710 Y34.4859
G01 X8.5690 Y34.5586
G01 X8.6595 Y34.6405
G01 X8.7414 Y34.7310
G01 X8.8141 Y34.8290
G01 X8.8769 Y34.9337
G01 X8.9334 Y35.0552
G00 Z2.0000
G00 X8.8087 Y34.7922
G01 F60.00
G01 Z-0.0700
G01 F120.00
G01 X8.7752 Y34.7454
G01 X8.6341 Y34.5922
G01 X8.5188 Y34.4940
G01 X8.4553 Y34.3892
G01 X8.4329 Y34.3236
G01 X8.4288 Y34.2774
G01 X8.4337 Y34.1845
G01 X8.4503 Y34.1171
G01 X8.4718 Y34.0761
G01 X8.5414 Y33.9831
G01 X8.6341 Y33.9078
G01 X8.7752 Y33.7546
G01 X8.8307 Y33.6826
G01 X8.8792 Y33.6400
G01 X8.9873 Y33.5876
G01 X9.0547 Y33.5712
G01 X9.1817 Y33.5825
G01 X9.2376 Y33.5975
G01 X9.2977 Y33.6322
G01 X9.3984 Y33.7282
G01 X9.4302 Y33.7898
G01 X9.4564 Y33.8791
G01 X9.4632 Y33.9366
G01 X9.4632 Y34.5634
G01 X9.4477 Y34.6691
G01 X9.4208 Y34.7277
G01 X9.3469 Y34.8316
G01 X9.2907 Y34.8723
G01 X9.1620 Y34.9250
G01 X9.0927 Y34.9288
G01 X8.9559 Y34.9035
G01 X8.8956 Y34.8693
G01 X8.8087 Y34.7922
G00 Z2.0000
G00 X8.8823 Y32.4044
G01 F60.00
G01 Z-0.0700
G01 F120.00
G01 X8.9291 Y32.5040
G01 X8.9702 Y32.6190
G01 X8.9999 Y32.7374
G01 X9.0178 Y32.8581
G01 X9.0237 Y32.9800
G01 X9.0178 Y33.1019
G01 X8.9999 Y33.2226
G01 X8.9702 Y33.3410
G01 X8.9291 Y33.4560
G01 X8.8769 Y33.5663
G01 X8.8141 Y33.6710
G01 X8.7414 Y33.7690
G01 X8.6595 Y33.8595
G01 X8.5690 Y33.9414
G01 X8.4710 Y34.0141
G01 X8.3663 Y34.0769
G01 X8.2560 Y34.1291
G01 X8.1410 Y34.1702
G01 X8.0226 Y34.1999
G01 X7.9019 Y34.2178
G01 X7.7800 Y34.2237
G01 X7.6581 Y34.2178
G01 X7.5374 Y34.1999
G01 X7.4190 Y34.1702
G01 X7.3040 Y34.1291
G01 X7.1937 Y34.0769
G01 X7.0890 Y34.0141
G01 X6.9910 Y33.9414
G01 X6.9005 Y33.8595
G01 X6.8186 Y33.7690
G01 X6.7459 Y33.6710
G01 X6.6831 Y33.5663
G01 X6.6309 Y33.4560
G01 X6.5898 Y33.3410
G01 X6.5601 Y33.2226
G01 X6.5422 Y33.1019
G01 X6.5363 Y32.9800
G01 X6.5422 Y32.8581
G01 X6.5601 Y32.7374
G01 X6.5898 Y32.6190
G01 X6.6309 Y32.5040
G01 X6.6831 Y32.3937
G01 X6.7459 Y32.2890
G01 X6.8186 Y32.1910
G01 X6.9005 Y32.1005
G01 X6.9910 Y32.0186
G01 X7.0890 Y31.9459
G01 X7.1937 Y31.8831
G01 X7.3040 Y31.8309
G01 X7.4190 Y31.7898
G01 X7.5374 Y31.7601
G01 X7.6581 Y31.7422
G01 X7.7800 Y31.7363
G01 X7.9019 Y31.7422
G01 X8.0226 Y31.7601
G01 X8.1410 Y31.7898
G01 X8.2560 Y31.8309
G01 X8.3663 Y31.8831
G01 X8.4710 Y31.9459
G01 X8.5690 Y32.0186
G01 X8.6595 Y32.1005
G01 X8.7414 Y32.1910
G01 X8.8141 Y32.2890
G01 X8.8823 Y32.4044
G00 Z2.0000
G00 X8.8087 Y32.2522
G01 F60.00
G01 Z-0.0700
G01 F120.00
G01 X8.7752 Y32.2054
G01 X8.6341 Y32.0522
G01 X8.5188 Y31.9540
G01 X8.4553 Y31.8492
G01 X8.4329 Y31.7836
G01 X8.4288 Y31.7374
G01 X8.4337 Y31.6445
G01 X8.4503 Y31.5771
G01 X8.4718 Y31.5361
G01 X8.5414 Y31.4431
G01 X8.6341 Y31.3678
G01 X8.7752 Y31.2146
G01 X8.8307 Y31.1426
G01 X8.8792 Y31.1000
G01 X8.9873 Y31.0476
G01 X9.0547 Y31.0312
G01 X9.1817 Y31.0425
G01 X9.2376 Y31.0575
G01 X9.2977 Y31.0922
G01 X9.3984 Y31.1882
G01 X9.4302 Y31.2498
G01 X9.4564 Y31.3391
G01 X9.4632 Y31.3966
G01 X9.4632 Y32.0234
G01 X9.4477 Y32.1291
G01 X9.4208 Y32.1877
G01 X9.3469 Y32.2916
G01 X9.2907 Y32.3323
G01 X9.1620 Y32.3850
G01 X9.0927 Y32.3888
G01 X8.9559 Y32.3635
G01 X8.8956 Y32.3293
G01 X8.8087 Y32.2522
G00 Z2.0000
G00 X8.8823 Y29.8644
G01 F60.00
G01 Z-0.0700
G01 F120.00
G01 X8.9291 Y29.9640
G01 X8.9702 Y30.0790
G01 X8.9999 Y30.1974
G01 X9.0178 Y30.3181
G01 X9.0237 Y30.4400
G01 X9.0178 Y30.5619
G01 X8.9999 Y30.6826
G01 X8.9702 Y30.8010
G01 X8.9291 Y30.9160
G01 X8.8769 Y31.0263
G01 X8.8141 Y31.1310
G01 X8.7414 Y31.2290
G01 X8.6595 Y31.3195
G01 X8.5690 Y31.4014
G01 X8.4710 Y31.4741
G01 X8.3663 Y31.5369
G01 X8.2560 Y31.5891
G01 X8.1410 Y31.6302
G01 X8.0226 Y31.6599
G01 X7.9019 Y31.6778
G01 X7.7800 Y31.6837
G01 X7.6581 Y31.6778
G01 X7.5374 Y31.6599
G01 X7.4190 Y31.6302
G01 X7.3040 Y31.5891
G01 X7.1937 Y31.5369
G01 X7.0890 Y31.4741
G01 X6.9910 Y31.4014
G01 X6.9005 Y31.3195
G01 X6.8186 Y31.2290
G01 X6.7459 Y31.1310
G01 X6.6831 Y31.0263
G01 X6.6309 Y30.9160
G01 X6.5898 Y30.8010
G01 X6.5601 Y30.6826
G01 X6.5422 Y30.5619
G01 X6.5363 Y30.4400
G01 X6.5422 Y30.3181
G01 X6.5601 Y30.1974
G01 X6.5898 Y30.0790
G01 X6.6309 Y29.9640
G01 X6.6831 Y29.8537
G01 X6.7459 Y29.7490
G01 X6.8186 Y29.6510
G01 X6.9005 Y29.5605
G01 X6.9910 Y29.4786
G01 X7.0890 Y29.4059
G01 X7.1937 Y29.3431
G01 X7.3040 Y29.2909
G01 X7.4190 Y29.2498
G01 X7.5374 Y29.2201
G01 X7.6581 Y29.2022
G01 X7.7800 Y29.1963
G01 X7.9019 Y29.2022
G01 X8.0226 Y29.2201
G01 X8.1410 Y29.2498
G01 X8.2560 Y29.2909
G01 X8.3663 Y29.3431
G01 X8.4710 Y29.4059
G01 X8.5690 Y29.4786
G01 X8.6595 Y29.5605
G01 X8.7414 Y29.6510
G01 X8.8141 Y29.7490
G01 X8.8823 Y29.8644
G00 Z2.0000
G00 X8.8087 Y29.7122
G01 F60.00
G01 Z-0.0700
G01 F120.00
G01 X8.7752 Y29.6654
G01 X8.6341 Y29.5122
G01 X8.5188 Y29.4140
G01 X8.4553 Y29.3092
G01 X8.4329 Y29.2436
G01 X8.4288 Y29.1974
G01 X8.4337 Y29.1045
G01 X8.4503 Y29.0371
G01 X8.4718 Y28.9961
G01 X8.5414 Y28.9031
G01 X8.6341 Y28.8278
G01 X8.7752 Y28.6746
G01 X8.8307 Y28.6026
G01 X8.8792 Y28.5600
G01 X8.9873 Y28.5076
G01 X9.0547 Y28.4912
G01 X9.1817 Y28.5025
G01 X9.2376 Y28.5175
G01 X9.2977 Y28.5522
G01 X9.3984 Y28.6482
G01 X9.4302 Y28.7098
G01 X9.4564 Y28.7991
G01 X9.4632 Y28.8566
G01 X9.4632 Y29.4834
G01 X9.4477 Y29.5891
G01 X9.4208 Y29.6477
G01 X9.3469 Y29.7516
G01 X9.2907 Y29.7923
G01 X9.1620 Y29.8450
G01 X9.0927 Y29.8488
G01 X8.9559 Y29.8235
G01 X8.8956 Y29.7893
G01 X8.8087 Y29.7122
G00 Z2.0000
G00 X8.9334 Y27.4352
G01 F60.00
G01 Z-0.0700
G01 F120.00
G01 X8.9702 Y27.5390
G01 X8.9999 Y27.6574
G01 X9.0178 Y27.7781
G01 X9.0237 Y27.9000
G01 X9.0178 Y28.0219
G01 X8.9999 Y28.1426
G01 X8.9702 Y28.2610
G01 X8.9291 Y28.3760
G01 X8.8769 Y28.4863
G01 X8.8141 Y28.5910
G01 X8.7414 Y28.6890
G01 X8.6595 Y28.7795
G01 X8.5690 Y28.8614
G01 X8.4710 Y28.9341
G01 X8.3663 Y28.9969
G01 X8.2560 Y29.0491
G01 X8.1410 Y29.0902
G01 X8.0226 Y29.1199
G01 X7.9019 Y29.1378
G01 X7.7800 Y29.1437
G01 X7.6581 Y29.1378
G01 X7.5374 Y29.1199
G01 X7.4190 Y29.0902
G01 X7.3040 Y29.0491
G01 X7.1937 Y28.9969
G01 X7.0890 Y28.9341
G01 X6.9910 Y28.8614
G01 X6.9005 Y28.7795
G01 X6.8186 Y28.6890
G01 X6.7459 Y28.5910
G01 X6.6831 Y28.4863
G01 X6.6309 Y28.3760
G01 X6.5898 Y28.2610
G01 X6.5601 Y28.1426
G01 X6.5422 Y28.0219
G01 X6.5363 Y27.9000
G01 X6.5422 Y27.7781
G01 X6.5601 Y27.6574
G01 X6.5898 Y27.5390
G01 X6.6309 Y27.4240
G01 X6.6831 Y27.3137
G01 X6.7459 Y27.2090
G01 X6.8186 Y27.1110
G01 X6.9005 Y27.0205
G01 X6.9910 Y26.9386
G01 X7.0890 Y26.8659
G01 X7.1937 Y26.8031
G01 X7.3040 Y26.7509
G01 X7.4190 Y26.7098
G01 X7.5374 Y26.6801
G01 X7.6581 Y26.6622
G01 X7.7800 Y26.6563
G01 X7.9019 Y26.6622
G01 X8.0226 Y26.6801
G01 X8.1410 Y26.7098
G01 X8.2560 Y26.7509
G01 X8.3663 Y26.8031
G01 X8.4710 Y26.8659
G01 X8.5690 Y26.9386
G01 X8.6595 Y27.0205
G01 X8.7414 Y27.1110
G01 X8.8141 Y27.2090
G01 X8.8769 Y27.3137
G01 X8.9334 Y27.4352
G00 Z2.0000
G00 X8.8087 Y27.1722
G01 F60.00
G01 Z-0.0700
G01 F120.00
G01 X8.7752 Y27.1254
G01 X8.6341 Y26.9722
G01 X8.5188 Y26.8740
G01 X8.4553 Y26.7692
G01 X8.4329 Y26.7036
G01 X8.4288 Y26.6574
G01 X8.4337 Y26.5645
G01 X8.4503 Y26.4971
G01 X8.4718 Y26.4561
G01 X8.5414 Y26.3631
G01 X8.6341 Y26.2878
G01 X8.7752 Y26.1346
G01 X8.8307 Y26.0626
G01 X8.8792 Y26.0200
G01 X8.9873 Y25.9676
G01 X9.0547 Y25.9512
G01 X9.1817 Y25.9625
G01 X9.2376 Y25.9775
G01 X9.2977 Y26.0122
G01 X9.3984 Y26.1082
G01 X9.4302 Y26.1698
G01 X9.4564 Y26.2591
G01 X9.4632 Y26.3166
G01 X9.4632 Y26.9434
G01 X9.4477 Y27.0491
G01 X9.4208 Y27.1077
G01 X9.3469 Y27.2116
G01 X9.2907 Y27.2523
G01 X9.1620 Y27.3050
G01 X9.0927 Y27.3088
G01 X8.9559 Y27.2835
G01 X8.8956 Y27.2493
G01 X8.8087 Y27.1722
G00 Z2.0000
G00 X8.8823 Y24.7844
G01 F60.00
G01 Z-0.0700
G01 F120.00
G01 X8.9291 Y24.8840
G01 X8.9702 Y24.9990
G01 X8.9999 Y25.1174
G01 X9.0178 Y25.2381
G01 X9.0237 Y25.3600
G01 X9.0178 Y25.4819
G01 X8.9999 Y25.6026
G01 X8.9702 Y25.7210
G01 X8.9291 Y25.8360
G01 X8.8769 Y25.9463
G01 X8.8141 Y26.0510
G01 X8.7414 Y26.1490
G01 X8.6595 Y26.2395
G01 X8.5690 Y26.3214
G01 X8.4710 Y26.3941
G01 X8.3663 Y26.4569
G01 X8.2560 Y26.5091
G01 X8.1410 Y26.5502
G01 X8.0226 Y26.5799
G01 X7.9019 Y26.5978
G01 X7.7800 Y26.6037
G01 X7.6581 Y26.5978
G01 X7.5374 Y26.5799
G01 X7.4190 Y26.5502
G01 X7.3040 Y26.5091
G01 X7.1937 Y26.4569
G01 X7.0890 Y26.3941
G01 X6.9910 Y26.3214
G01 X6.9005 Y26.2395
G01 X6.8186 Y26.1490
G01 X6.7459 Y26.0510
G01 X6.6831 Y25.9463
G01 X6.6309 Y25.8360
G01 X6.5898 Y25.7210
G01 X6.5601 Y25.6026
G01 X6.5422 Y25.4819
G01 X6.5363 Y25.3600
G01 X6.5422 Y25.2381
G01 X6.5601 Y25.1174
G01 X6.5898 Y24.9990
G01 X6.6309 Y24.8840
G01 X6.6831 Y24.7737
G01 X6.7459 Y24.6690
G01 X6.8186 Y24.5710
G01 X6.9005 Y24.4805
G01 X6.9910 Y24.3986
G01 X7.0890 Y24.3259
G01 X7.1937 Y24.2631
G01 X7.3040 Y24.2109
G01 X7.4190 Y24.1698
G01 X7.5374 Y24.1401
G01 X7.6581 Y24.1222
G01 X7.7800 Y24.1163
G01 X7.9019 Y24.1222
G01 X8.0226 Y24.1401
G01 X8.1410 Y24.1698
G01 X8.2560 Y24.2109
G01 X8.3663 Y24.2631
G01 X8.4710 Y24.3259
G01 X8.5690 Y24.3986
G01 X8.6595 Y24.4805
G01 X8.7414 Y24.5710
G01 X8.8141 Y24.6690
G01 X8.8823 Y24.7844
G00 Z2.0000
G00 X7.4704 Y24.1375
G01 F60.00
G01 Z-0.0700
G01 F120.00
G01 X7.2734 Y24.2052
G01 X7.0903 Y24.3043
G01 X6.9259 Y24.4322
G01 X6.7848 Y24.5854
G01 X6.6709 Y24.7598
G01 X6.5873 Y24.9505
G01 X6.5361 Y25.1524
G01 X6.5189 Y25.3600
G01 X6.5361 Y25.5676
G01 X6.5873 Y25.7695
G01 X6.6709 Y25.9602
G01 X6.7848 Y26.1346
G01 X6.9259 Y26.2878
G01 X7.0125 Y26.3565
G01 X7.0496 Y26.3968
G01 X7.1142 Y26.5119
G01 X7.1312 Y26.6026
G01 X7.1229 Y26.7185
G01 X7.0882 Y26.8040
G01 X7.0186 Y26.8969
G01 X6.9259 Y26.9722
G01 X6.7848 Y27.1254
G01 X6.6709 Y27.2998
G01 X6.5873 Y27.4905
G01 X6.5361 Y27.6924
G01 X6.5189 Y27.9000
G01 X6.5361 Y28.1076
G01 X6.5873 Y28.3095
G01 X6.6709 Y28.5002
G01 X6.7848 Y28.6746
G01 X6.9259 Y28.8278
G01 X7.0125 Y28.8965
G01 X7.0496 Y28.9368
G01 X7.1142 Y29.0519
G01 X7.1312 Y29.1426
G01 X7.1229 Y29.2585
G01 X7.0882 Y29.3440
G01 X7.0186 Y29.4369
G01 X6.9259 Y29.5122
G01 X6.7848 Y29.6654
G01 X6.6709 Y29.8398
G01 X6.5873 Y30.0305
G01 X6.5361 Y30.2324
G01 X6.5189 Y30.4400
G01 X6.5361 Y30.6476
G01 X6.5873 Y30.8495
G01 X6.6709 Y31.0402
G01 X6.7848 Y31.2146
G01 X6.9259 Y31.3678
G01 X7.0125 Y31.4365
G01 X7.0496 Y31.4768
G01 X7.1142 Y31.5919
G01 X7.1312 Y31.6826
G01 X7.1229 Y31.7985
G01 X7.0882 Y31.8840
G01 X7.0186 Y31.9769
G01 X6.9259 Y32.0522
G01 X6.7848 Y32.2054
G01 X6.6709 Y32.3798
G01 X6.5873 Y32.5705
G01 X6.5361 Y32.7724
G01 X6.5189 Y32.9800
G01 X6.5361 Y33.1876
G01 X6.5873 Y33.3895
G01 X6.6709 Y33.5802
G01 X6.7848 Y33.7546
G01 X6.9259 Y33.9078
G01 X7.0176 Y33.9810
G01 X7.0574 Y34.0281
G01 X7.1142 Y34.1319
G01 X7.1312 Y34.2226
G01 X7.1229 Y34.3385
G01 X7.0882 Y34.4240
G01 X7.0186 Y34.5169
G01 X6.9259 Y34.5922
G01 X6.7848 Y34.7454
G01 X6.6709 Y34.9198
G01 X6.5873 Y35.1105
G01 X6.5361 Y35.3124
G01 X6.5189 Y35.5200
G01 X6.5361 Y35.7276
G01 X6.5873 Y35.9295
G01 X6.6709 Y36.1202
G01 X6.7848 Y36.2946
G01 X6.9259 Y36.4478
G01 X7.0176 Y36.5210
G01 X7.0574 Y36.5681
G01 X7.1142 Y36.6719
G01 X7.1312 Y36.7626
G01 X7.1229 Y36.8785
G01 X7.0943 Y36.9541
G01 X7.0186 Y37.0569
G01 X6.9259 Y37.1322
G01 X6.7848 Y37.2854
G01 X6.6709 Y37.4598
G01 X6.5873 Y37.6505
G01 X6.5361 Y37.8524
G01 X6.5189 Y38.0600
G01 X6.5361 Y38.2676
G01 X6.5873 Y38.4695
G01 X6.6709 Y38.6602
G01 X6.7848 Y38.8346
G01 X6.9259 Y38.9878
G01 X7.0903 Y39.1157
G01 X7.2734 Y39.2148
G01 X7.4704 Y39.2825
G01 X7.6759 Y39.3167
G01 X7.8841 Y39.3167
G01 X8.0896 Y39.2825
G01 X8.2866 Y39.2148
G01 X8.4697 Y39.1157
G01 X8.6341 Y38.9878
G01 X8.8686 Y38.7275
G01 X8.9130 Y38.7012
G01 X9.0204 Y38.6570
G01 X9.1010 Y38.6512
G01 X9.2376 Y38.6775
G01 X9.3022 Y38.7158
G01 X9.3984 Y38.8082
G01 X9.4320 Y38.8753
G01 X9.4632 Y39.0108
G01 X9.4631 Y42.1919
G01 X9.4540 Y42.2640
G01 X9.4388 Y42.3134
G01 X9.3803 Y42.4116
G01 X9.3469 Y42.4516
G01 X9.3009 Y42.4867
G01 X9.2064 Y42.5316
G01 X9.1506 Y42.5470
G01 X9.0927 Y42.5488
G01 X8.9779 Y42.5310
G01 X8.8956 Y42.4893
G01 X8.8165 Y42.4208
G01 X8.7752 Y42.3654
G01 X8.6341 Y42.2122
G01 X8.4697 Y42.0843
G01 X8.2866 Y41.9852
G01 X8.0896 Y41.9175
G01 X7.8841 Y41.8833
G01 X7.6759 Y41.8833
G01 X7.4704 Y41.9175
G01 X7.2734 Y41.9852
G01 X7.0903 Y42.0843
G01 X6.9259 Y42.2122
G01 X6.7848 Y42.3654
G01 X6.6709 Y42.5398
G01 X6.5873 Y42.7305
G01 X6.5361 Y42.9324
G01 X6.5189 Y43.1400
G01 X6.5361 Y43.3476
G01 X6.5873 Y43.5495
G01 X6.6709 Y43.7402
G01 X6.7848 Y43.9146
G01 X6.9259 Y44.0678
G01 X7.0903 Y44.1957
G01 X7.2734 Y44.2948
G01 X7.4704 Y44.3625
G01 X7.6759 Y44.3967
G01 X7.8841 Y44.3967
G01 X8.0896 Y44.3625
G01 X8.2866 Y44.2948
G01 X8.4697 Y44.1957
G01 X8.6341 Y44.0678
G01 X8.8686 Y43.8075
G01 X8.9130 Y43.7812
G01 X9.0204 Y43.7370
G01 X9.1010 Y43.7312
G01 X9.2267 Y43.7535
G01 X9.2884 Y43.7852
G01 X9.3840 Y43.8699
G01 X9.4261 Y43.9390
G01 X9.4621 Y44.0734
G01 X9.4633 Y44.6116
G01 X9.4575 Y44.6764
G01 X9.4410 Y44.7305
G01 X9.3941 Y44.8238
G01 X9.3248 Y44.9054
G01 X9.2109 Y45.0798
G01 X9.1273 Y45.2705
G01 X9.0761 Y45.4724
G01 X9.0589 Y45.6800
G01 X9.0761 Y45.8876
G01 X9.1273 Y46.0895
G01 X9.2109 Y46.2802
G01 X9.3248 Y46.4546
G01 X9.4659 Y46.6078
G01 X9.6303 Y46.7357
G01 X9.8134 Y46.8348
G01 X10.0104 Y46.9025
G01 X10.2159 Y46.9367
G01 X10.4241 Y46.9367
G01 X10.6296 Y46.9025
G01 X10.8266 Y46.8348
G01 X11.0097 Y46.7357
G01 X11.1741 Y46.6078
G01 X11.3152 Y46.4546
G01 X11.4291 Y46.2802
G01 X11.5127 Y46.0895
G01 X11.5639 Y45.8876
G01 X11.5811 Y45.6800
G01 X11.5639 Y45.4724
G01 X11.5127 Y45.2705
G01 X11.4291 Y45.0798
G01 X11.3152 Y44.9054
G01 X11.2636 Y44.8487
G01 X11.2230 Y44.7894
G01 X11.1851 Y44.6747
G01 X11.1767 Y44.6116
G01 X11.1767 Y21.2366
G01 X11.1860 Y21.1560
G01 X11.2012 Y21.1066
G01 X11.2772 Y20.9853
G01 X11.3544 Y20.9251
G01 X11.4445 Y20.8843
G01 X11.5009 Y20.8715
G01 X11.6395 Y20.8837
G01 X11.7254 Y20.9174
G01 X11.8234 Y20.9992
G01 X11.8648 Y21.0546
G01 X12.0059 Y21.2078
G01 X12.1703 Y21.3357
G01 X12.3534 Y21.4348
G01 X12.5504 Y21.5025
G01 X12.7559 Y21.5367
G01 X12.9641 Y21.5367
G01 X13.1696 Y21.5025
G01 X13.3666 Y21.4348
G01 X13.5497 Y21.3357
G01 X13.7141 Y21.2078
G01 X13.8741 Y21.0352
G01 X13.9597 Y20.9760
G01 X14.0406 Y20.9427
G01 X14.1598 Y20.9353
G01 X14.2451 Y20.9501
G01 X14.3566 Y21.0123
G01 X14.3966 Y21.0457
G01 X14.5459 Y21.2078
G01 X14.7103 Y21.3357
G01 X14.8934 Y21.4348
G01 X15.0904 Y21.5025
G01 X15.2959 Y21.5367
G01 X15.5041 Y21.5367
G01 X15.7096 Y21.5025
G01 X15.9066 Y21.4348
G01 X16.0897 Y21.3357
G01 X16.2541 Y21.2078
G01 X16.4219 Y21.0284
G01 X16.5091 Y20.9703
G01 X16.6023 Y20.9391
G01 X16.7403 Y20.9384
G01 X16.8065 Y20.9591
G01 X16.9061 Y21.0189
G01 X17.0859 Y21.2078
G01 X17.2503 Y21.3357
G01 X17.4638 Y21.4510
G01 X17.5632 Y21.5239
G01 X17.6116 Y21.5887
G01 X17.6603 Y21.7191
G01 X17.6622 Y21.7999
G01 X17.6340 Y21.9244
G01 X17.5993 Y21.9845
G01 X17.5359 Y22.0526
G01 X17.4408 Y22.1189
G01 X17.3171 Y22.2261
G01 X17.2160 Y22.3547
G01 X17.1410 Y22.5001
G01 X17.0949 Y22.6571
G01 X17.0833 Y22.7792
G01 X17.0793 Y24.3452
G01 X17.0653 Y24.4000
G01 X17.0199 Y24.4937
G01 X16.9448 Y24.5854
G01 X16.8309 Y24.7598
G01 X16.7473 Y24.9505
G01 X16.6961 Y25.1524
G01 X16.6789 Y25.3600
G01 X16.6961 Y25.5676
G01 X16.7473 Y25.7695
G01 X16.8309 Y25.9602
G01 X16.9448 Y26.1346
G01 X17.0859 Y26.2878
G01 X17.2503 Y26.4157
G01 X17.4334 Y26.5148
G01 X17.6304 Y26.5825
G01 X17.8359 Y26.6167
G01 X18.0441 Y26.6167
G01 X18.2496 Y26.5825
G01 X18.4466 Y26.5148
G01 X18.6297 Y26.4157
G01 X18.7941 Y26.2878
G01 X18.9619 Y26.1084
G01 X19.0491 Y26.0503
G01 X19.1314 Y26.0207
G01 X19.2398 Y26.0153
G01 X19.3251 Y26.0301
G01 X19.4366 Y26.0923
G01 X19.4766 Y26.1257
G01 X19.6259 Y26.2878
G01 X19.7903 Y26.4157
G01 X19.9734 Y26.5148
G01 X20.1704 Y26.5825
G01 X20.3759 Y26.6167
G01 X20.5841 Y26.6167
G01 X20.7896 Y26.5825
G01 X20.9866 Y26.5148
G01 X21.1697 Y26.4157
G01 X21.3664 Y26.2670
G01 X21.4829 Y26.2266
G01 X21.5400 Y26.2170
G01 X22.6602 Y26.2217
G01 X22.7846 Y26.2660
G01 X22.8505 Y26.3129
G01 X22.9339 Y26.4243
G01 X22.9620 Y26.5122
G01 X22.9686 Y26.6167
G01 X22.9604 Y26.6739
G01 X22.9054 Y26.7890
G01 X22.8679 Y26.8404
G01 X14.7771 Y34.9261
G01 X14.6760 Y35.0547
G01 X14.6010 Y35.2001
G01 X14.5802 Y35.2579
G01 X14.5454 Y35.4178
G01 X14.5414 Y35.5894
G01 X14.5430 Y44.6221
G01 X14.5291 Y44.7094
G01 X14.4827 Y44.8086
G01 X14.4048 Y44.9054
G01 X14.2909 Y45.0798
G01 X14.2073 Y45.2705
G01 X14.1561 Y45.4724
G01 X14.1389 Y45.6800
G01 X14.1561 Y45.8876
G01 X14.2073 Y46.0895
G01 X14.2909 Y46.2802
G01 X14.4048 Y46.4546
G01 X14.5459 Y46.6078
G01 X14.7103 Y46.7357
G01 X14.8934 Y46.8348
G01 X15.0904 Y46.9025
G01 X15.2959 Y46.9367
G01 X15.5041 Y46.9367
G01 X15.7096 Y46.9025
G01 X15.9066 Y46.8348
G01 X16.0897 Y46.7357
G01 X16.2541 Y46.6078
G01 X16.4219 Y46.4284
G01 X16.5044 Y46.3731
G01 X16.5914 Y46.3407
G01 X16.7288 Y46.3368
G01 X16.8065 Y46.3591
G01 X16.9061 Y46.4189
G01 X17.0859 Y46.6078
G01 X17.2503 Y46.7357
G01 X17.4334 Y46.8348
G01 X17.6304 Y46.9025
G01 X17.8359 Y46.9367
G01 X18.0441 Y46.9367
G01 X18.2496 Y46.9025
G01 X18.4466 Y46.8348
G01 X18.6297 Y46.7357
G01 X18.7941 Y46.6078
G01 X18.9619 Y46.4284
G01 X19.0444 Y46.3731
G01 X19.1314 Y46.3407
G01 X19.2572 Y46.3358
G01 X19.3359 Y46.3543
G01 X19.4366 Y46.4123
G01 X19.4766 Y46.4457
G01 X19.6259 Y46.6078
G01 X19.7903 Y46.7357
G01 X19.9734 Y46.8348
G01 X20.1704 Y46.9025
G01 X20.3759 Y46.9367
G01 X20.5841 Y46.9367
G01 X20.7896 Y46.9025
G01 X20.9866 Y46.8348
G01 X21.1697 Y46.7357
G01 X21.3341 Y46.6078
G01 X21.5019 Y46.4284
G01 X21.5844 Y46.3731
G01 X21.6714 Y46.3407
G01 X21.7972 Y46.3358
G01 X21.8759 Y46.3543
G01 X21.9766 Y46.4123
G01 X22.0166 Y46.4457
G01 X22.1659 Y46.6078
G01 X22.3303 Y46.7357
G01 X22.5134 Y46.8348
G01 X22.7104 Y46.9025
G01 X22.9159 Y46.9367
G01 X23.1241 Y46.9367
G01 X23.3296 Y46.9025
G01 X23.5266 Y46.8348
G01 X23.7097 Y46.7357
G01 X23.8741 Y46.6078
G01 X24.0419 Y46.4284
G01 X24.1244 Y46.3731
G01 X24.2114 Y46.3407
G01 X24.3372 Y46.3358
G01 X24.4159 Y46.3543
G01 X24.5166 Y46.4123
G01 X24.5566 Y46.4457
G01 X24.7059 Y46.6078
G01 X24.8703 Y46.7357
G01 X25.0534 Y46.8348
G01 X25.2504 Y46.9025
G01 X25.4559 Y46.9367
G01 X25.6641 Y46.9367
G01 X25.8696 Y46.9025
G01 X26.0666 Y46.8348
G01 X26.2497 Y46.7357
G01 X26.4141 Y46.6078
G01 X26.5819 Y46.4284
G01 X26.6644 Y46.3731
G01 X26.7514 Y46.3407
G01 X26.8656 Y46.3353
G01 X26.9559 Y46.3543
G01 X27.0566 Y46.4123
G01 X27.0966 Y46.4457
G01 X27.2459 Y46.6078
G01 X27.4103 Y46.7357
G01 X27.5934 Y46.8348
G01 X27.7904 Y46.9025
G01 X27.9959 Y46.9367
G01 X28.2041 Y46.9367
G01 X28.4096 Y46.9025
G01 X28.6066 Y46.8348
G01 X28.7897 Y46.7357
G01 X28.9541 Y46.6078
G01 X29.0952 Y46.4546
G01 X29.2091 Y46.2802
G01 X29.2927 Y46.0895
G01 X29.3439 Y45.8876
G01 X29.3611 Y45.6800
G01 X29.3439 Y45.4724
G01 X29.2927 Y45.2705
G01 X29.2091 Y45.0798
G01 X29.0952 Y44.9054
G01 X29.0084 Y44.7994
G01 X28.9880 Y44.7527
G01 X28.9579 Y44.6348
G01 X28.9567 Y44.0666
G01 X28.9639 Y43.9988
G01 X28.9926 Y43.9134
G01 X29.0430 Y43.8336
G01 X29.0816 Y43.7905
G01 X29.1293 Y43.7577
G01 X29.2030 Y43.7230
G01 X29.2694 Y43.7030
G01 X29.3331 Y43.7018
G01 X29.4641 Y43.7265
G01 X29.5151 Y43.7538
G01 X29.5909 Y43.8172
G01 X29.7859 Y44.0378
G01 X29.9503 Y44.1657
G01 X30.1334 Y44.2648
G01 X30.3304 Y44.3325
G01 X30.5359 Y44.3667
G01 X30.7441 Y44.3667
G01 X30.9496 Y44.3325
G01 X31.1466 Y44.2648
G01 X31.3297 Y44.1657
G01 X31.4941 Y44.0378
G01 X31.6352 Y43.8846
G01 X31.7491 Y43.7102
G01 X31.8327 Y43.5195
G01 X31.8839 Y43.3176
G01 X31.9011 Y43.1100
G01 X31.8839 Y42.9024
G01 X31.8327 Y42.7005
G01 X31.7491 Y42.5098
G01 X31.6352 Y42.3354
G01 X31.4941 Y42.1822
G01 X31.3878 Y42.0944
G01 X31.3180 Y41.9844
G01 X31.2911 Y41.9021
G01 X31.2931 Y41.7802
G01 X31.3150 Y41.6965
G01 X31.3826 Y41.5951
G01 X31.4183 Y41.5571
G01 X31.4941 Y41.4978
G01 X31.6352 Y41.3446
G01 X31.7491 Y41.1702
G01 X31.8327 Y40.9795
G01 X31.8839 Y40.7776
G01 X31.9011 Y40.5700
G01 X31.8839 Y40.3624
G01 X31.8327 Y40.1605
G01 X31.7491 Y39.9698
G01 X31.6352 Y39.7954
G01 X31.4941 Y39.6422
G01 X31.4075 Y39.5735
G01 X31.3704 Y39.5332
G01 X31.3058 Y39.4181
G01 X31.2911 Y39.3621
G01 X31.2891 Y39.3158
G01 X31.2996 Y39.2002
G01 X31.3350 Y39.1212
G01 X31.4014 Y39.0331
G01 X31.4941 Y38.9578
G01 X31.6352 Y38.8046
G01 X31.7491 Y38.6302
G01 X31.8327 Y38.4395
G01 X31.8839 Y38.2376
G01 X31.9011 Y38.0300
G01 X31.8839 Y37.8224
G01 X31.8327 Y37.6205
G01 X31.7491 Y37.4298
G01 X31.6352 Y37.2554
G01 X31.4941 Y37.1022
G01 X31.4075 Y37.0335
G01 X31.3704 Y36.9932
G01 X31.3058 Y36.8781
G01 X31.2889 Y36.7816
G01 X31.2971 Y36.6715
G01 X31.3318 Y36.5860
G01 X31.4014 Y36.4931
G01 X31.4941 Y36.4178
G01 X31.6352 Y36.2646
G01 X31.7491 Y36.0902
G01 X31.8327 Y35.8995
G01 X31.8839 Y35.6976
G01 X31.9011 Y35.4900
G01 X31.8839 Y35.2824
G01 X31.8327 Y35.0805
G01 X31.7491 Y34.8898
G01 X31.6352 Y34.7154
G01 X31.4941 Y34.5622
G01 X31.4075 Y34.4935
G01 X31.3704 Y34.4532
G01 X31.3058 Y34.3381
G01 X31.2889 Y34.2416
G01 X31.2971 Y34.1315
G01 X31.3318 Y34.0460
G01 X31.4014 Y33.9531
G01 X31.4941 Y33.8778
G01 X31.6352 Y33.7246
G01 X31.7491 Y33.5502
G01 X31.8327 Y33.3595
G01 X31.8839 Y33.1576
G01 X31.9011 Y32.9500
G01 X31.8839 Y32.7424
G01 X31.8327 Y32.5405
G01 X31.7491 Y32.3498
G01 X31.6352 Y32.1754
G01 X31.4941 Y32.0222
G01 X31.4075 Y31.9535
G01 X31.3704 Y31.9132
G01 X31.3058 Y31.7981
G01 X31.2889 Y31.7016
G01 X31.2971 Y31.5915
G01 X31.3318 Y31.5060
G01 X31.4014 Y31.4131
G01 X31.4941 Y31.3378
G01 X31.6352 Y31.1846
G01 X31.7491 Y31.0102
G01 X31.8327 Y30.8195
G01 X31.8839 Y30.6176
G01 X31.9011 Y30.4100
G01 X31.8839 Y30.2024
G01 X31.8327 Y30.0005
G01 X31.7491 Y29.8098
G01 X31.6352 Y29.6354
G01 X31.4941 Y29.4822
G01 X31.4075 Y29.4135
G01 X31.3704 Y29.3732
G01 X31.3058 Y29.2581
G01 X31.2888 Y29.1674
G01 X31.2971 Y29.0515
G01 X31.3318 Y28.9660
G01 X31.4014 Y28.8731
G01 X31.4941 Y28.7978
G01 X31.6352 Y28.6446
G01 X31.7491 Y28.4702
G01 X31.8327 Y28.2795
G01 X31.8839 Y28.0776
G01 X31.9011 Y27.8700
G01 X31.8839 Y27.6624
G01 X31.8327 Y27.4605
G01 X31.7491 Y27.2698
G01 X31.6352 Y27.0954
G01 X31.4941 Y26.9422
G01 X31.4075 Y26.8735
G01 X31.3704 Y26.8332
G01 X31.3058 Y26.7181
G01 X31.2888 Y26.6274
G01 X31.2971 Y26.5115
G01 X31.3318 Y26.4260
G01 X31.4014 Y26.3331
G01 X31.4941 Y26.2578
G01 X31.6352 Y26.1046
G01 X31.7491 Y25.9302
G01 X31.8327 Y25.7395
G01 X31.8839 Y25.5376
G01 X31.9011 Y25.3300
G01 X31.8839 Y25.1224
G01 X31.8327 Y24.9205
G01 X31.7491 Y24.7298
G01 X31.6352 Y24.5554
G01 X31.4941 Y24.4022
G01 X31.3297 Y24.2743
G01 X31.1250 Y24.1632
G01 X31.0546 Y24.1092
G01 X31.0045 Y24.0479
G01 X30.9530 Y23.9316
G01 X30.9431 Y23.8629
G01 X30.9555 Y23.7590
G01 X30.9705 Y23.7031
G01 X30.9917 Y23.6619
G01 X31.0744 Y23.5645
G01 X31.1720 Y23.4965
G01 X31.2904 Y23.3836
G01 X31.3853 Y23.2503
G01 X31.4533 Y23.1015
G01 X31.4919 Y22.9425
G01 X31.4997 Y22.7790
G01 X31.4764 Y22.6171
G01 X31.4229 Y22.4625
G01 X31.3411 Y22.3208
G01 X31.2339 Y22.1971
G01 X31.0656 Y22.0680
G01 X30.9772 Y21.9731
G01 X30.9421 Y21.9002
G01 X30.9193 Y21.7629
G01 X30.9294 Y21.6943
G01 X30.9654 Y21.6022
G01 X31.0214 Y21.5219
G01 X31.1105 Y21.4544
G01 X31.3297 Y21.3357
G01 X31.4941 Y21.2078
G01 X31.6352 Y21.0546
G01 X31.7491 Y20.8802
G01 X31.8327 Y20.6895
G01 X31.8839 Y20.4876
G01 X31.9011 Y20.2800
G01 X31.8839 Y20.0724
G01 X31.8327 Y19.8705
G01 X31.7491 Y19.6798
G01 X31.6352 Y19.5054
G01 X31.4941 Y19.3522
G01 X31.3297 Y19.2243
G01 X31.1466 Y19.1252
G01 X30.9496 Y19.0575
G01 X30.7441 Y19.0233
G01 X30.5359 Y19.0233
G01 X30.3304 Y19.0575
G01 X30.1334 Y19.1252
G01 X29.9503 Y19.2243
G01 X29.7859 Y19.3522
G01 X29.6259 Y19.5248
G01 X29.5403 Y19.5840
G01 X29.4594 Y19.6173
G01 X29.3402 Y19.6247
G01 X29.2549 Y19.6099
G01 X29.1434 Y19.5477
G01 X29.1034 Y19.5143
G01 X28.9541 Y19.3522
G01 X28.7897 Y19.2243
G01 X28.6066 Y19.1252
G01 X28.4096 Y19.0575
G01 X28.2041 Y19.0233
G01 X27.9959 Y19.0233
G01 X27.7904 Y19.0575
G01 X27.5934 Y19.1252
G01 X27.4103 Y19.2243
G01 X27.2459 Y19.3522
G01 X27.0616 Y19.5443
G01 X26.9614 Y19.6043
G01 X26.8758 Y19.6225
G01 X26.7597 Y19.6216
G01 X26.6781 Y19.5929
G01 X26.5759 Y19.5264
G01 X26.4141 Y19.3522
G01 X26.2497 Y19.2243
G01 X26.0666 Y19.1252
G01 X25.8696 Y19.0575
G01 X25.6641 Y19.0233
G01 X25.4559 Y19.0233
G01 X25.2504 Y19.0575
G01 X25.0534 Y19.1252
G01 X24.8703 Y19.2243
G01 X24.7059 Y19.3522
G01 X24.5648 Y19.5054
G01 X24.4509 Y19.6798
G01 X24.3673 Y19.8705
G01 X24.3161 Y20.0724
G01 X24.2989 Y20.2800
G01 X24.3161 Y20.4876
G01 X24.3673 Y20.6895
G01 X24.4509 Y20.8802
G01 X24.5648 Y21.0546
G01 X24.7059 Y21.2078
G01 X24.8702 Y21.3357
G01 X25.0955 Y21.4581
G01 X25.1705 Y21.5142
G01 X25.2104 Y21.5561
G01 X25.2416 Y21.6116
G01 X25.2817 Y21.7387
G01 X25.2801 Y21.8081
G01 X25.2489 Y21.9319
G01 X25.2128 Y21.9911
G01 X25.1478 Y22.0577
G01 X24.9830 Y22.1853
G01 X22.7682 Y24.4001
G01 X22.6821 Y24.4611
G01 X22.5360 Y24.5021
G01 X21.5161 Y24.5015
G01 X21.4573 Y24.4881
G01 X21.3546 Y24.4451
G01 X21.1697 Y24.3043
G01 X20.9866 Y24.2052
G01 X20.7896 Y24.1375
G01 X20.5841 Y24.1033
G01 X20.3759 Y24.1033
G01 X20.1704 Y24.1375
G01 X19.9734 Y24.2052
G01 X19.7903 Y24.3043
G01 X19.6259 Y24.4322
G01 X19.4581 Y24.6116
G01 X19.3756 Y24.6669
G01 X19.2886 Y24.6993
G01 X19.1744 Y24.7047
G01 X19.1283 Y24.6995
G01 X19.0735 Y24.6809
G01 X18.9475 Y24.5984
G01 X18.8484 Y24.4794
G01 X18.8012 Y24.3377
G01 X18.7967 Y22.7382
G01 X18.7658 Y22.5775
G01 X18.7050 Y22.4256
G01 X18.6165 Y22.2880
G01 X18.5036 Y22.1696
G01 X18.3491 Y22.0574
G01 X18.2746 Y21.9719
G01 X18.2413 Y21.9031
G01 X18.2190 Y21.7866
G01 X18.2205 Y21.7288
G01 X18.2335 Y21.6783
G01 X18.2714 Y21.5870
G01 X18.3118 Y21.5306
G01 X18.4105 Y21.4544
G01 X18.6297 Y21.3357
G01 X18.7941 Y21.2078
G01 X18.9352 Y21.0546
G01 X19.0491 Y20.8802
G01 X19.1327 Y20.6895
G01 X19.1839 Y20.4876
G01 X19.2011 Y20.2800
G01 X19.1839 Y20.0724
G01 X19.1327 Y19.8705
G01 X19.0491 Y19.6798
G01 X18.9352 Y19.5054
G01 X18.7941 Y19.3522
G01 X18.6297 Y19.2243
G01 X18.4466 Y19.1252
G01 X18.2496 Y19.0575
G01 X18.0441 Y19.0233
G01 X17.8359 Y19.0233
G01 X17.6304 Y19.0575
G01 X17.4334 Y19.1252
G01 X17.2503 Y19.2243
G01 X17.0859 Y19.3522
G01 X16.9181 Y19.5316
G01 X16.8309 Y19.5897
G01 X16.7486 Y19.6193
G01 X16.6402 Y19.6247
G01 X16.5549 Y19.6099
G01 X16.4434 Y19.5477
G01 X16.4034 Y19.5143
G01 X16.2541 Y19.3522
G01 X16.0897 Y19.2243
G01 X15.9066 Y19.1252
G01 X15.7096 Y19.0575
G01 X15.5041 Y19.0233
G01 X15.2959 Y19.0233
G01 X15.0904 Y19.0575
G01 X14.8934 Y19.1252
G01 X14.7103 Y19.2243
G01 X14.5459 Y19.3522
G01 X14.3616 Y19.5443
G01 X14.2714 Y19.5999
G01 X14.1868 Y19.6220
G01 X14.0944 Y19.6247
G01 X14.0370 Y19.6168
G01 X13.9832 Y19.5957
G01 X13.9132 Y19.5539
G01 X13.8634 Y19.5143
G01 X13.7141 Y19.3522
G01 X13.5497 Y19.2243
G01 X13.3666 Y19.1252
G01 X13.1696 Y19.0575
G01 X12.9641 Y19.0233
G01 X12.7559 Y19.0233
G01 X12.5504 Y19.0575
G01 X12.3534 Y19.1252
G01 X12.1703 Y19.2243
G01 X12.0059 Y19.3522
G01 X11.7714 Y19.6125
G01 X11.6581 Y19.6702
G01 X11.5968 Y19.6874
G01 X11.5390 Y19.6888
G01 X11.4355 Y19.6731
G01 X11.3813 Y19.6529
G01 X11.3334 Y19.6204
G01 X11.2638 Y19.5587
G01 X11.2235 Y19.5021
G01 X11.1851 Y19.3865
G01 X11.1767 Y19.3234
G01 X11.1767 Y13.6166
G01 X11.1964 Y13.4987
G01 X11.2630 Y13.3836
G01 X11.3016 Y13.3405
G01 X11.3391 Y13.3133
G01 X11.4667 Y13.2576
G01 X11.5473 Y13.2512
G01 X11.6732 Y13.2725
G01 X11.7351 Y13.3038
G01 X11.8109 Y13.3672
G01 X12.0059 Y13.5878
G01 X12.1703 Y13.7157
G01 X12.3534 Y13.8148
G01 X12.5504 Y13.8825
G01 X12.7559 Y13.9167
G01 X12.9641 Y13.9167
G01 X13.1696 Y13.8825
G01 X13.3666 Y13.8148
G01 X13.5497 Y13.7157
G01 X13.7141 Y13.5878
G01 X13.8984 Y13.3957
G01 X13.9986 Y13.3357
G01 X14.0842 Y13.3175
G01 X14.1656 Y13.3153
G01 X14.2230 Y13.3232
G01 X14.2768 Y13.3443
G01 X14.3468 Y13.3861
G01 X14.3966 Y13.4257
G01 X14.5459 Y13.5878
G01 X14.7103 Y13.7157
G01 X14.8934 Y13.8148
G01 X15.0904 Y13.8825
G01 X15.2959 Y13.9167
G01 X15.5041 Y13.9167
G01 X15.7096 Y13.8825
G01 X15.9066 Y13.8148
G01 X16.0897 Y13.7157
G01 X16.2541 Y13.5878
G01 X16.4384 Y13.3957
G01 X16.5386 Y13.3357
G01 X16.6187 Y13.3177
G01 X16.7403 Y13.3184
G01 X16.8219 Y13.3471
G01 X16.9241 Y13.4136
G01 X17.0859 Y13.5878
G01 X17.2503 Y13.7157
G01 X17.4334 Y13.8148
G01 X17.6304 Y13.8825
G01 X17.8359 Y13.9167
G01 X18.0441 Y13.9167
G01 X18.2496 Y13.8825
G01 X18.4466 Y13.8148
G01 X18.6297 Y13.7157
G01 X18.7941 Y13.5878
G01 X18.9352 Y13.4346
G01 X19.0491 Y13.2602
G01 X19.1327 Y13.0695
G01 X19.1839 Y12.8676
G01 X19.2011 Y12.6600
G01 X19.1839 Y12.4524
G01 X19.1327 Y12.2505
G01 X19.0491 Y12.0598
G01 X18.9352 Y11.8854
G01 X18.7941 Y11.7322
G01 X18.6297 Y11.6043
G01 X18.4104 Y11.4855
G01 X18.3086 Y11.4079
G01 X18.2684 Y11.3513
G01 X18.2307 Y11.2600
G01 X18.2178 Y11.2095
G01 X18.2164 Y11.1516
G01 X18.2384 Y11.0375
G01 X18.2737 Y10.9648
G01 X18.3609 Y10.8714
G01 X18.4392 Y10.8211
G01 X18.5629 Y10.7139
G01 X18.6640 Y10.5853
G01 X18.7390 Y10.4399
G01 X18.7851 Y10.2829
G01 X18.7967 Y10.1608
G01 X18.7967 Y8.6484
G01 X18.8025 Y8.5836
G01 X18.8238 Y8.5192
G01 X18.8901 Y8.4036
G01 X18.9700 Y8.3219
G01 X19.0889 Y8.2518
G01 X19.1423 Y8.2391
G01 X19.2456 Y8.2353
G01 X19.2917 Y8.2405
G01 X19.3465 Y8.2591
G01 X19.4552 Y8.3261
G01 X19.6259 Y8.5078
G01 X19.7903 Y8.6357
G01 X19.9734 Y8.7348
G01 X20.1704 Y8.8025
G01 X20.3759 Y8.8367
G01 X20.5841 Y8.8367
G01 X20.7896 Y8.8025
G01 X20.9866 Y8.7348
G01 X21.1697 Y8.6357
G01 X21.3664 Y8.4870
G01 X21.5169 Y8.4392
G01 X22.5324 Y8.4375
G01 X22.6344 Y8.4590
G01 X22.7644 Y8.5365
G01 X25.0120 Y10.7837
G01 X25.1546 Y10.8843
G01 X25.2181 Y10.9552
G01 X25.2460 Y10.9993
G01 X25.2638 Y11.0484
G01 X25.2797 Y11.1298
G01 X25.2828 Y11.1992
G01 X25.2684 Y11.2611
G01 X25.2122 Y11.3821
G01 X25.1732 Y11.4248
G01 X25.0995 Y11.4789
G01 X24.8703 Y11.6043
G01 X24.7059 Y11.7322
G01 X24.5648 Y11.8854
G01 X24.4509 Y12.0598
G01 X24.3673 Y12.2505
G01 X24.3161 Y12.4524
G01 X24.2989 Y12.6600
G01 X24.3161 Y12.8676
G01 X24.3673 Y13.0695
G01 X24.4509 Y13.2602
G01 X24.5648 Y13.4346
G01 X24.7059 Y13.5878
G01 X24.8703 Y13.7157
G01 X25.0534 Y13.8148
G01 X25.2504 Y13.8825
G01 X25.4559 Y13.9167
G01 X25.6641 Y13.9167
G01 X25.8696 Y13.8825
G01 X26.0666 Y13.8148
G01 X26.2497 Y13.7157
G01 X26.4141 Y13.5878
G01 X26.5741 Y13.4152
G01 X26.6597 Y13.3560
G01 X26.7406 Y13.3227
G01 X26.8598 Y13.3153
G01 X26.9451 Y13.3301
G01 X27.0566 Y13.3923
G01 X27.0966 Y13.4257
G01 X27.2459 Y13.5878
G01 X27.4103 Y13.7157
G01 X27.5934 Y13.8148
G01 X27.7904 Y13.8825
G01 X27.9959 Y13.9167
G01 X28.2041 Y13.9167
G01 X28.4096 Y13.8825
G01 X28.6066 Y13.8148
G01 X28.7897 Y13.7157
G01 X28.9541 Y13.5878
G01 X29.1384 Y13.3957
G01 X29.2386 Y13.3357
G01 X29.3242 Y13.3175
G01 X29.4403 Y13.3184
G01 X29.5219 Y13.3471
G01 X29.6241 Y13.4136
G01 X29.7859 Y13.5878
G01 X29.9503 Y13.7157
G01 X30.1334 Y13.8148
G01 X30.3304 Y13.8825
G01 X30.5359 Y13.9167
G01 X30.7441 Y13.9167
G01 X30.9496 Y13.8825
G01 X31.1466 Y13.8148
G01 X31.3297 Y13.7157
G01 X31.4941 Y13.5878
G01 X31.6352 Y13.4346
G01 X31.7491 Y13.2602
G01 X31.8327 Y13.0695
G01 X31.8839 Y12.8676
G01 X31.9011 Y12.6600
G01 X31.8839 Y12.4524
G01 X31.8327 Y12.2505
G01 X31.7491 Y12.0598
G01 X31.6352 Y11.8854
G01 X31.4941 Y11.7322
G01 X31.3297 Y11.6043
G01 X31.1466 Y11.5052
G01 X30.9496 Y11.4375
G01 X30.7441 Y11.4033
G01 X30.5359 Y11.4033
G01 X30.3304 Y11.4375
G01 X30.1334 Y11.5052
G01 X29.9503 Y11.6043
G01 X29.7859 Y11.7322
G01 X29.6181 Y11.9116
G01 X29.5356 Y11.9669
G01 X29.4486 Y11.9993
G01 X29.3112 Y12.0032
G01 X29.2335 Y11.9809
G01 X29.1339 Y11.9211
G01 X28.9541 Y11.7322
G01 X28.7897 Y11.6043
G01 X28.6066 Y11.5052
G01 X28.4096 Y11.4375
G01 X28.2041 Y11.4033
G01 X27.9959 Y11.4033
G01 X27.7904 Y11.4375
G01 X27.5934 Y11.5052
G01 X27.4103 Y11.6043
G01 X27.2459 Y11.7322
G01 X27.0781 Y11.9116
G01 X26.9714 Y11.9799
G01 X26.8758 Y12.0025
G01 X26.7828 Y12.0042
G01 X26.7149 Y11.9899
G01 X26.5848 Y11.9139
G01 X26.4141 Y11.7322
G01 X26.2497 Y11.6043
G01 X26.0418 Y11.4924
G01 X25.9494 Y11.4283
G01 X25.8921 Y11.3582
G01 X25.8384 Y11.2179
G01 X25.8356 Y11.1601
G01 X25.8510 Y11.0625
G01 X25.8885 Y10.9720
G01 X25.9734 Y10.8766
G01 X26.0758 Y10.8090
G01 X26.1968 Y10.6989
G01 X26.2949 Y10.5679
G01 X26.3664 Y10.4208
G01 X26.4087 Y10.2627
G01 X26.4204 Y10.0995
G01 X26.4010 Y9.9371
G01 X26.3512 Y9.7812
G01 X26.2727 Y9.6376
G01 X26.1947 Y9.5430
G01 X23.6139 Y6.9571
G01 X23.4853 Y6.8560
G01 X23.3399 Y6.7810
G01 X23.2821 Y6.7602
G01 X23.1222 Y6.7254
G01 X21.5027 Y6.7198
G01 X21.3546 Y6.6651
G01 X21.1697 Y6.5243
G01 X20.9866 Y6.4252
G01 X20.7896 Y6.3575
G01 X20.5841 Y6.3233
G01 X20.3759 Y6.3233
G01 X20.1704 Y6.3575
G01 X19.9734 Y6.4252
G01 X19.7903 Y6.5243
G01 X19.6259 Y6.6522
G01 X19.4581 Y6.8316
G01 X19.3756 Y6.8869
G01 X19.2886 Y6.9193
G01 X19.1628 Y6.9242
G01 X19.0841 Y6.9057
G01 X18.9739 Y6.8411
G01 X18.7941 Y6.6522
G01 X18.6297 Y6.5243
G01 X18.4466 Y6.4252
G01 X18.2496 Y6.3575
G01 X18.0441 Y6.3233
G01 X17.8359 Y6.3233
G01 X17.6304 Y6.3575
G01 X17.4334 Y6.4252
G01 X17.2503 Y6.5243
G01 X17.0859 Y6.6522
G01 X16.9448 Y6.8054
G01 X16.8309 Y6.9798
G01 X16.7473 Y7.1705
G01 X16.6961 Y7.3724
G01 X16.6789 Y7.5800
G01 X16.6961 Y7.7876
G01 X16.7473 Y7.9895
G01 X16.8309 Y8.1802
G01 X16.9448 Y8.3546
G01 X16.9964 Y8.4113
G01 X17.0370 Y8.4706
G01 X17.0808 Y8.6137
G01 X17.0833 Y10.2018
G01 X17.1142 Y10.3625
G01 X17.1750 Y10.5144
G01 X17.2635 Y10.6520
G01 X17.3764 Y10.7704
G01 X17.5309 Y10.8826
G01 X17.6124 Y10.9788
G01 X17.6435 Y11.0556
G01 X17.6597 Y11.1419
G01 X17.6609 Y11.1998
G01 X17.6485 Y11.2563
G01 X17.6137 Y11.3426
G01 X17.5600 Y11.4176
G01 X17.4696 Y11.4855
G01 X17.2503 Y11.6043
G01 X17.0859 Y11.7322
G01 X16.9016 Y11.9243
G01 X16.8213 Y11.9750
G01 X16.7594 Y11.9973
G01 X16.6344 Y12.0047
G01 X16.5659 Y11.9936
G01 X16.5181 Y11.9729
G01 X16.4248 Y11.9139
G01 X16.2541 Y11.7322
G01 X16.0897 Y11.6043
G01 X15.9066 Y11.5052
G01 X15.7096 Y11.4375
G01 X15.5041 Y11.4033
G01 X15.2959 Y11.4033
G01 X15.0904 Y11.4375
G01 X14.8934 Y11.5052
G01 X14.7103 Y11.6043
G01 X14.5459 Y11.7322
G01 X14.3781 Y11.9116
G01 X14.2956 Y11.9669
G01 X14.2086 Y11.9993
G01 X14.0712 Y12.0032
G01 X13.9935 Y11.9809
G01 X13.8939 Y11.9211
G01 X13.7141 Y11.7322
G01 X13.5497 Y11.6043
G01 X13.3666 Y11.5052
G01 X13.1696 Y11.4375
G01 X12.9641 Y11.4033
G01 X12.7559 Y11.4033
G01 X12.5504 Y11.4375
G01 X12.3534 Y11.5052
G01 X12.1703 Y11.6043
G01 X12.0059 Y11.7322
G01 X11.8648 Y11.8854
G01 X11.7509 Y12.0598
G01 X11.6904 Y12.1942
G01 X11.6276 Y12.2798
G01 X11.5594 Y12.3324
G01 X11.4409 Y12.3820
G01 X11.3487 Y12.3864
G01 X11.2568 Y12.3720
G01 X11.1924 Y12.3463
G01 X11.0851 Y12.2576
G01 X10.9965 Y12.1280
G01 X10.8836 Y12.0096
G01 X10.7503 Y11.9147
G01 X10.6015 Y11.8467
G01 X10.4425 Y11.8081
G01 X10.2790 Y11.8003
G01 X10.1171 Y11.8236
G01 X9.9625 Y11.8771
G01 X9.8208 Y11.9589
G01 X9.6971 Y12.0661
G01 X9.5960 Y12.1947
G01 X9.5210 Y12.3401
G01 X9.4749 Y12.4971
G01 X9.4633 Y12.6192
G01 X9.4633 Y24.4034
G01 X9.4552 Y24.4776
G01 X9.4334 Y24.5451
G01 X9.3834 Y24.6267
G01 X9.3551 Y24.6634
G01 X9.3107 Y24.7006
G01 X9.2117 Y24.7494
G01 X9.1620 Y24.7650
G01 X9.1043 Y24.7696
G01 X9.0062 Y24.7573
G01 X8.9452 Y24.7391
G01 X8.8866 Y24.7020
G01 X8.8165 Y24.6408
G01 X8.7752 Y24.5854
G01 X8.6341 Y24.4322
G01 X8.4697 Y24.3043
G01 X8.2866 Y24.2052
G01 X8.0896 Y24.1375
G01 X7.8841 Y24.1033
G01 X7.6759 Y24.1033
G01 X7.4704 Y24.1375
G00 Z2.0000
G00 X13.9623 Y19.7044
G01 F60.00
G01 Z-0.0700
G01 F120.00
G01 X14.0091 Y19.8040
G01 X14.0502 Y19.9190
G01 X14.0799 Y20.0374
G01 X14.0978 Y20.1581
G01 X14.1037 Y20.2800
G01 X14.0978 Y20.4019
G01 X14.0799 Y20.5226
G01 X14.0502 Y20.6410
G01 X14.0091 Y20.7560
G01 X13.9569 Y20.8663
G01 X13.8941 Y20.9710
G01 X13.8214 Y21.0690
G01 X13.7395 Y21.1595
G01 X13.6490 Y21.2414
G01 X13.5510 Y21.3141
G01 X13.4463 Y21.3769
G01 X13.3360 Y21.4291
G01 X13.2210 Y21.4702
G01 X13.1026 Y21.4999
G01 X12.9819 Y21.5178
G01 X12.8600 Y21.5237
G01 X12.7381 Y21.5178
G01 X12.6174 Y21.4999
G01 X12.4990 Y21.4702
G01 X12.3840 Y21.4291
G01 X12.2737 Y21.3769
G01 X12.1690 Y21.3141
G01 X12.0710 Y21.2414
G01 X11.9805 Y21.1595
G01 X11.8986 Y21.0690
G01 X11.8259 Y20.9710
G01 X11.7631 Y20.8663
G01 X11.7109 Y20.7560
G01 X11.6698 Y20.6410
G01 X11.6401 Y20.5226
G01 X11.6222 Y20.4019
G01 X11.6163 Y20.2800
G01 X11.6222 Y20.1581
G01 X11.6401 Y20.0374
G01 X11.6698 Y19.9190
G01 X11.7109 Y19.8040
G01 X11.7631 Y19.6937
G01 X11.8259 Y19.5890
G01 X11.8986 Y19.4910
G01 X11.9805 Y19.4005
G01 X12.0710 Y19.3186
G01 X12.1690 Y19.2459
G01 X12.2737 Y19.1831
G01 X12.3840 Y19.1309
G01 X12.4990 Y19.0898
G01 X12.6174 Y19.0601
G01 X12.7381 Y19.0422
G01 X12.8600 Y19.0363
G01 X12.9819 Y19.0422
G01 X13.1026 Y19.0601
G01 X13.2210 Y19.0898
G01 X13.3360 Y19.1309
G01 X13.4463 Y19.1831
G01 X13.5510 Y19.2459
G01 X13.6490 Y19.3186
G01 X13.7395 Y19.4005
G01 X13.8214 Y19.4910
G01 X13.8941 Y19.5890
G01 X13.9623 Y19.7044
G00 Z2.0000
G00 X16.5023 Y19.7044
G01 F60.00
G01 Z-0.0700
G01 F120.00
G01 X16.5491 Y19.8040
G01 X16.5902 Y19.9190
G01 X16.6199 Y20.0374
G01 X16.6378 Y20.1581
G01 X16.6437 Y20.2800
G01 X16.6378 Y20.4019
G01 X16.6199 Y20.5226
G01 X16.5902 Y20.6410
G01 X16.5491 Y20.7560
G01 X16.4969 Y20.8663
G01 X16.4341 Y20.9710
G01 X16.3614 Y21.0690
G01 X16.2795 Y21.1595
G01 X16.1890 Y21.2414
G01 X16.0910 Y21.3141
G01 X15.9863 Y21.3769
G01 X15.8760 Y21.4291
G01 X15.7610 Y21.4702
G01 X15.6426 Y21.4999
G01 X15.5219 Y21.5178
G01 X15.4000 Y21.5237
G01 X15.2781 Y21.5178
G01 X15.1574 Y21.4999
G01 X15.0390 Y21.4702
G01 X14.9240 Y21.4291
G01 X14.8137 Y21.3769
G01 X14.7090 Y21.3141
G01 X14.6110 Y21.2414
G01 X14.5205 Y21.1595
G01 X14.4386 Y21.0690
G01 X14.3659 Y20.9710
G01 X14.3031 Y20.8663
G01 X14.2509 Y20.7560
G01 X14.2098 Y20.6410
G01 X14.1801 Y20.5226
G01 X14.1622 Y20.4019
G01 X14.1563 Y20.2800
G01 X14.1622 Y20.1581
G01 X14.1801 Y20.0374
G01 X14.2098 Y19.9190
G01 X14.2509 Y19.8040
G01 X14.3031 Y19.6937
G01 X14.3659 Y19.5890
G01 X14.4386 Y19.4910
G01 X14.5205 Y19.4005
G01 X14.6110 Y19.3186
G01 X14.7090 Y19.2459
G01 X14.8137 Y19.1831
G01 X14.9240 Y19.1309
G01 X15.0390 Y19.0898
G01 X15.1574 Y19.0601
G01 X15.2781 Y19.0422
G01 X15.4000 Y19.0363
G01 X15.5219 Y19.0422
G01 X15.6426 Y19.0601
G01 X15.7610 Y19.0898
G01 X15.8760 Y19.1309
G01 X15.9863 Y19.1831
G01 X16.0910 Y19.2459
G01 X16.1890 Y19.3186
G01 X16.2795 Y19.4005
G01 X16.3614 Y19.4910
G01 X16.4341 Y19.5890
G01 X16.5023 Y19.7044
G00 Z2.0000
G00 X19.0423 Y19.7044
G01 F60.00
G01 Z-0.0700
G01 F120.00
G01 X19.0891 Y19.8040
G01 X19.1302 Y19.9190
G01 X19.1599 Y20.0374
G01 X19.1778 Y20.1581
G01 X19.1837 Y20.2800
G01 X19.1778 Y20.4019
G01 X19.1599 Y20.5226
G01 X19.1302 Y20.6410
G01 X19.0891 Y20.7560
G01 X19.0369 Y20.8663
G01 X18.9741 Y20.9710
G01 X18.9014 Y21.0690
G01 X18.8195 Y21.1595
G01 X18.7290 Y21.2414
G01 X18.6310 Y21.3141
G01 X18.5263 Y21.3769
G01 X18.4160 Y21.4291
G01 X18.3010 Y21.4702
G01 X18.1826 Y21.4999
G01 X18.0619 Y21.5178
G01 X17.9400 Y21.5237
G01 X17.8181 Y21.5178
G01 X17.6974 Y21.4999
G01 X17.5790 Y21.4702
G01 X17.4640 Y21.4291
G01 X17.3537 Y21.3769
G01 X17.2490 Y21.3141
G01 X17.1510 Y21.2414
G01 X17.0605 Y21.1595
G01 X16.9786 Y21.0690
G01 X16.9059 Y20.9710
G01 X16.8431 Y20.8663
G01 X16.7909 Y20.7560
G01 X16.7498 Y20.6410
G01 X16.7201 Y20.5226
G01 X16.7022 Y20.4019
G01 X16.6963 Y20.2800
G01 X16.7022 Y20.1581
G01 X16.7201 Y20.0374
G01 X16.7498 Y19.9190
G01 X16.7909 Y19.8040
G01 X16.8431 Y19.6937
G01 X16.9059 Y19.5890
G01 X16.9786 Y19.4910
G01 X17.0605 Y19.4005
G01 X17.1510 Y19.3186
G01 X17.2490 Y19.2459
G01 X17.3537 Y19.1831
G01 X17.4640 Y19.1309
G01 X17.5790 Y19.0898
G01 X17.6974 Y19.0601
G01 X17.8181 Y19.0422
G01 X17.9400 Y19.0363
G01 X18.0619 Y19.0422
G01 X18.1826 Y19.0601
G01 X18.3010 Y19.0898
G01 X18.4160 Y19.1309
G01 X18.5263 Y19.1831
G01 X18.6310 Y19.2459
G01 X18.7290 Y19.3186
G01 X18.8195 Y19.4005
G01 X18.9014 Y19.4910
G01 X18.9741 Y19.5890
G01 X19.0423 Y19.7044
G00 Z2.0000
G00 X21.2596 Y24.3912
G01 F60.00
G01 Z-0.0700
G01 F120.00
G01 X21.3920 Y24.5159
G01 X22.6704 Y24.5159
G01 X24.9674 Y22.2190
G01 X25.0911 Y22.1182
G01 X25.2482 Y22.0359
G01 X25.3953 Y21.9922
G01 X25.5600 Y21.9759
G01 X25.7247 Y21.9922
G01 X25.8830 Y22.0402
G01 X26.0289 Y22.1182
G01 X26.1568 Y22.2232
G01 X26.2618 Y22.3511
G01 X26.3441 Y22.5082
G01 X26.3852 Y22.6437
G01 X26.4000 Y22.7373
G01 X26.4038 Y22.8320
G01 X26.3899 Y22.9729
G01 X26.3677 Y23.0650
G01 X26.3350 Y23.1539
G01 X26.2682 Y23.2788
G01 X26.2125 Y23.3555
G01 X23.6168 Y25.9568
G01 X23.5460 Y26.0198
G01 X23.4283 Y26.0985
G01 X23.2650 Y26.1677
G01 X23.0908 Y26.2009
G01 X21.3920 Y26.2041
G01 X21.2596 Y26.3288
G01 X21.1710 Y26.3941
G01 X21.0556 Y26.4623
G01 X20.9560 Y26.5091
G01 X20.8410 Y26.5502
G01 X20.7226 Y26.5799
G01 X20.5900 Y26.5986
G01 X20.4800 Y26.6037
G01 X20.3581 Y26.5978
G01 X20.2374 Y26.5799
G01 X20.1190 Y26.5502
G01 X20.0040 Y26.5091
G01 X19.8937 Y26.4569
G01 X19.7890 Y26.3941
G01 X19.6910 Y26.3214
G01 X19.6005 Y26.2395
G01 X19.5186 Y26.1490
G01 X19.4459 Y26.0510
G01 X19.3831 Y25.9463
G01 X19.3309 Y25.8360
G01 X19.2898 Y25.7210
G01 X19.2601 Y25.6026
G01 X19.2422 Y25.4819
G01 X19.2363 Y25.3600
G01 X19.2422 Y25.2381
G01 X19.2601 Y25.1174
G01 X19.2898 Y24.9990
G01 X19.3309 Y24.8840
G01 X19.3831 Y24.7737
G01 X19.4459 Y24.6690
G01 X19.5186 Y24.5710
G01 X19.6005 Y24.4805
G01 X19.6910 Y24.3986
G01 X19.7890 Y24.3259
G01 X19.8937 Y24.2631
G01 X20.0040 Y24.2109
G01 X20.1190 Y24.1698
G01 X20.2374 Y24.1401
G01 X20.3581 Y24.1222
G01 X20.4800 Y24.1163
G01 X20.6019 Y24.1222
G01 X20.7226 Y24.1401
G01 X20.8410 Y24.1698
G01 X20.9560 Y24.2109
G01 X21.0663 Y24.2631
G01 X21.1710 Y24.3259
G01 X21.2596 Y24.3912
G00 Z2.0000
G00 X16.9712 Y24.5804
G01 F60.00
G01 Z-0.0700
G01 F120.00
G01 X17.0959 Y24.4480
G01 X17.0991 Y22.7492
G01 X17.1323 Y22.5750
G01 X17.1956 Y22.4221
G01 X17.2875 Y22.2845
G01 X17.4045 Y22.1675
G01 X17.5421 Y22.0756
G01 X17.6950 Y22.0123
G01 X17.8573 Y21.9800
G01 X18.0227 Y21.9800
G01 X18.1850 Y22.0123
G01 X18.3379 Y22.0756
G01 X18.4755 Y22.1675
G01 X18.5925 Y22.2845
G01 X18.6844 Y22.4221
G01 X18.7509 Y22.5865
G01 X18.7785 Y22.7254
G01 X18.7840 Y22.8140
G01 X18.7841 Y24.4480
G01 X18.9088 Y24.5804
G01 X18.9741 Y24.6690
G01 X19.0369 Y24.7737
G01 X19.0891 Y24.8840
G01 X19.1302 Y24.9990
G01 X19.1599 Y25.1174
G01 X19.1763 Y25.2262
G01 X19.1837 Y25.3600
G01 X19.1778 Y25.4819
G01 X19.1599 Y25.6026
G01 X19.1302 Y25.7210
G01 X19.0891 Y25.8360
G01 X19.0369 Y25.9463
G01 X18.9741 Y26.0510
G01 X18.9014 Y26.1490
G01 X18.8195 Y26.2395
G01 X18.7290 Y26.3214
G01 X18.6310 Y26.3941
G01 X18.5263 Y26.4569
G01 X18.4160 Y26.5091
G01 X18.3010 Y26.5502
G01 X18.1826 Y26.5799
G01 X18.0619 Y26.5978
G01 X17.9400 Y26.6037
G01 X17.8181 Y26.5978
G01 X17.6974 Y26.5799
G01 X17.5790 Y26.5502
G01 X17.4640 Y26.5091
G01 X17.3537 Y26.4569
G01 X17.2490 Y26.3941
G01 X17.1510 Y26.3214
G01 X17.0605 Y26.2395
G01 X16.9786 Y26.1490
G01 X16.9059 Y26.0510
G01 X16.8431 Y25.9463
G01 X16.7909 Y25.8360
G01 X16.7498 Y25.7210
G01 X16.7201 Y25.6026
G01 X16.7022 Y25.4819
G01 X16.6963 Y25.3600
G01 X16.7022 Y25.2381
G01 X16.7201 Y25.1174
G01 X16.7498 Y24.9990
G01 X16.7909 Y24.8840
G01 X16.8431 Y24.7737
G01 X16.9059 Y24.6690
G01 X16.9712 Y24.5804
G00 Z2.0000
G00 X26.3341 Y22.4439
G01 F60.00
G01 Z-0.0700
G01 F120.00
G01 X26.2490 Y22.3042
G01 X26.1389 Y22.1832
G01 X25.9764 Y22.0610
G01 X25.8891 Y21.9586
G01 X25.8605 Y21.8896
G01 X25.8429 Y21.7973
G01 X25.8475 Y21.7051
G01 X25.8889 Y21.5965
G01 X25.9426 Y21.5215
G01 X26.0319 Y21.4536
G01 X26.2497 Y21.3357
G01 X26.4141 Y21.2078
G01 X26.5819 Y21.0284
G01 X26.6691 Y20.9703
G01 X26.7514 Y20.9407
G01 X26.8540 Y20.9354
G01 X26.9117 Y20.9405
G01 X26.9768 Y20.9643
G01 X27.0925 Y21.0416
G01 X27.2459 Y21.2078
G01 X27.4102 Y21.3357
G01 X27.6454 Y21.4652
G01 X27.7276 Y21.5298
G01 X27.7692 Y21.5854
G01 X27.8119 Y21.6934
G01 X27.8234 Y21.7618
G01 X27.8003 Y21.8990
G01 X27.7600 Y21.9820
G01 X27.6794 Y22.0657
G01 X27.5680 Y22.1435
G01 X27.5231 Y22.1853
G01 X26.9915 Y22.7169
G01 X26.9263 Y22.7684
G01 X26.8554 Y22.8007
G01 X26.7168 Y22.8242
G01 X26.6484 Y22.8127
G01 X26.5403 Y22.7700
G01 X26.4848 Y22.7285
G01 X26.4134 Y22.6368
G01 X26.3912 Y22.5961
G01 X26.3341 Y22.4439
G00 Z2.0000
G00 X26.6623 Y19.7044
G01 F60.00
G01 Z-0.0700
G01 F120.00
G01 X26.7091 Y19.8040
G01 X26.7502 Y19.9190
G01 X26.7799 Y20.0374
G01 X26.7978 Y20.1581
G01 X26.8037 Y20.2800
G01 X26.7978 Y20.4019
G01 X26.7799 Y20.5226
G01 X26.7502 Y20.6410
G01 X26.7091 Y20.7560
G01 X26.6569 Y20.8663
G01 X26.5941 Y20.9710
G01 X26.5214 Y21.0690
G01 X26.4395 Y21.1595
G01 X26.3490 Y21.2414
G01 X26.2510 Y21.3141
G01 X26.1463 Y21.3769
G01 X26.0360 Y21.4291
G01 X25.9210 Y21.4702
G01 X25.8026 Y21.4999
G01 X25.6819 Y21.5178
G01 X25.5600 Y21.5237
G01 X25.4381 Y21.5178
G01 X25.3174 Y21.4999
G01 X25.1990 Y21.4702
G01 X25.0840 Y21.4291
G01 X24.9737 Y21.3769
G01 X24.8690 Y21.3141
G01 X24.7710 Y21.2414
G01 X24.6805 Y21.1595
G01 X24.5986 Y21.0690
G01 X24.5259 Y20.9710
G01 X24.4631 Y20.8663
G01 X24.4109 Y20.7560
G01 X24.3698 Y20.6410
G01 X24.3401 Y20.5226
G01 X24.3222 Y20.4019
G01 X24.3163 Y20.2800
G01 X24.3222 Y20.1581
G01 X24.3401 Y20.0374
G01 X24.3698 Y19.9190
G01 X24.4109 Y19.8040
G01 X24.4631 Y19.6937
G01 X24.5259 Y19.5890
G01 X24.5986 Y19.4910
G01 X24.6805 Y19.4005
G01 X24.7710 Y19.3186
G01 X24.8690 Y19.2459
G01 X24.9737 Y19.1831
G01 X25.0840 Y19.1309
G01 X25.1990 Y19.0898
G01 X25.3174 Y19.0601
G01 X25.4381 Y19.0422
G01 X25.5600 Y19.0363
G01 X25.6819 Y19.0422
G01 X25.8026 Y19.0601
G01 X25.9210 Y19.0898
G01 X26.0360 Y19.1309
G01 X26.1463 Y19.1831
G01 X26.2510 Y19.2459
G01 X26.3490 Y19.3186
G01 X26.4395 Y19.4005
G01 X26.5214 Y19.4910
G01 X26.5941 Y19.5890
G01 X26.6623 Y19.7044
G00 Z2.0000
G00 X31.7423 Y24.7544
G01 F60.00
G01 Z-0.0700
G01 F120.00
G01 X31.7891 Y24.8540
G01 X31.8302 Y24.9690
G01 X31.8599 Y25.0874
G01 X31.8778 Y25.2081
G01 X31.8837 Y25.3300
G01 X31.8778 Y25.4519
G01 X31.8599 Y25.5726
G01 X31.8302 Y25.6910
G01 X31.7891 Y25.8060
G01 X31.7369 Y25.9163
G01 X31.6741 Y26.0210
G01 X31.6014 Y26.1190
G01 X31.5195 Y26.2095
G01 X31.4290 Y26.2914
G01 X31.3310 Y26.3641
G01 X31.2263 Y26.4269
G01 X31.1160 Y26.4791
G01 X31.0010 Y26.5202
G01 X30.8826 Y26.5499
G01 X30.7619 Y26.5678
G01 X30.6400 Y26.5737
G01 X30.5181 Y26.5678
G01 X30.3974 Y26.5499
G01 X30.2790 Y26.5202
G01 X30.1640 Y26.4791
G01 X30.0537 Y26.4269
G01 X29.9490 Y26.3641
G01 X29.8510 Y26.2914
G01 X29.7605 Y26.2095
G01 X29.6786 Y26.1190
G01 X29.6059 Y26.0210
G01 X29.5431 Y25.9163
G01 X29.4909 Y25.8060
G01 X29.4498 Y25.6910
G01 X29.4201 Y25.5726
G01 X29.4022 Y25.4519
G01 X29.3963 Y25.3300
G01 X29.4022 Y25.2081
G01 X29.4201 Y25.0874
G01 X29.4498 Y24.9690
G01 X29.4909 Y24.8540
G01 X29.5431 Y24.7437
G01 X29.6059 Y24.6390
G01 X29.6786 Y24.5410
G01 X29.7605 Y24.4505
G01 X29.8510 Y24.3686
G01 X29.9490 Y24.2959
G01 X30.0537 Y24.2331
G01 X30.1640 Y24.1809
G01 X30.2790 Y24.1398
G01 X30.3974 Y24.1101
G01 X30.5181 Y24.0922
G01 X30.6400 Y24.0863
G01 X30.7619 Y24.0922
G01 X30.8826 Y24.1101
G01 X31.0010 Y24.1398
G01 X31.1160 Y24.1809
G01 X31.2263 Y24.2331
G01 X31.3310 Y24.2959
G01 X31.4290 Y24.3686
G01 X31.5195 Y24.4505
G01 X31.6014 Y24.5410
G01 X31.6741 Y24.6390
G01 X31.7423 Y24.7544
G00 Z2.0000
G00 X31.7423 Y27.2944
G01 F60.00
G01 Z-0.0700
G01 F120.00
G01 X31.7891 Y27.3940
G01 X31.8302 Y27.5090
G01 X31.8599 Y27.6274
G01 X31.8778 Y27.7481
G01 X31.8837 Y27.8700
G01 X31.8778 Y27.9919
G01 X31.8599 Y28.1126
G01 X31.8302 Y28.2310
G01 X31.7891 Y28.3460
G01 X31.7369 Y28.4563
G01 X31.6741 Y28.5610
G01 X31.6014 Y28.6590
G01 X31.5195 Y28.7495
G01 X31.4290 Y28.8314
G01 X31.3310 Y28.9041
G01 X31.2263 Y28.9669
G01 X31.1160 Y29.0191
G01 X31.0010 Y29.0602
G01 X30.8826 Y29.0899
G01 X30.7619 Y29.1078
G01 X30.6400 Y29.1137
G01 X30.5181 Y29.1078
G01 X30.3974 Y29.0899
G01 X30.2790 Y29.0602
G01 X30.1640 Y29.0191
G01 X30.0537 Y28.9669
G01 X29.9490 Y28.9041
G01 X29.8510 Y28.8314
G01 X29.7605 Y28.7495
G01 X29.6786 Y28.6590
G01 X29.6059 Y28.5610
G01 X29.5431 Y28.4563
G01 X29.4909 Y28.3460
G01 X29.4498 Y28.2310
G01 X29.4201 Y28.1126
G01 X29.4022 Y27.9919
G01 X29.3963 Y27.8700
G01 X29.4022 Y27.7481
G01 X29.4201 Y27.6274
G01 X29.4498 Y27.5090
G01 X29.4909 Y27.3940
G01 X29.5431 Y27.2837
G01 X29.6059 Y27.1790
G01 X29.6786 Y27.0810
G01 X29.7605 Y26.9905
G01 X29.8510 Y26.9086
G01 X29.9490 Y26.8359
G01 X30.0537 Y26.7731
G01 X30.1640 Y26.7209
G01 X30.2790 Y26.6798
G01 X30.3974 Y26.6501
G01 X30.5181 Y26.6322
G01 X30.6400 Y26.6263
G01 X30.7619 Y26.6322
G01 X30.8826 Y26.6501
G01 X31.0010 Y26.6798
G01 X31.1160 Y26.7209
G01 X31.2263 Y26.7731
G01 X31.3310 Y26.8359
G01 X31.4290 Y26.9086
G01 X31.5195 Y26.9905
G01 X31.6014 Y27.0810
G01 X31.6741 Y27.1790
G01 X31.7423 Y27.2944
G00 Z2.0000
G00 X28.5303 Y37.3147
G01 F60.00
G01 Z-0.0700
G01 F120.00
G01 X28.2543 Y37.1904
G01 X28.2175 Y37.1604
G01 X28.1455 Y37.0681
G01 X28.1233 Y37.0275
G01 X28.1053 Y36.9604
G01 X28.0987 Y36.8676
G01 X28.1069 Y36.7987
G01 X28.1231 Y36.7553
G01 X28.1955 Y36.6365
G01 X28.7637 Y36.0680
G01 X28.8736 Y35.9109
G01 X28.9477 Y35.8429
G01 X29.0121 Y35.8103
G01 X29.1251 Y35.7812
G01 X29.1944 Y35.7823
G01 X29.3060 Y35.8145
G01 X29.3852 Y35.8619
G01 X29.4748 Y35.9685
G01 X29.5309 Y36.0902
G01 X29.6448 Y36.2646
G01 X29.7859 Y36.4178
G01 X29.9012 Y36.5160
G01 X29.9742 Y36.6419
G01 X29.9903 Y36.7094
G01 X29.9863 Y36.8255
G01 X29.9697 Y36.8929
G01 X29.9482 Y36.9340
G01 X29.8786 Y37.0269
G01 X29.7859 Y37.1022
G01 X29.6448 Y37.2554
G01 X29.5309 Y37.4298
G01 X29.4690 Y37.5701
G01 X29.4078 Y37.6583
G01 X29.3529 Y37.7077
G01 X29.2462 Y37.7592
G01 X29.1788 Y37.7756
G01 X29.1324 Y37.7756
G01 X29.0178 Y37.7569
G01 X28.9547 Y37.7280
G01 X28.8494 Y37.6369
G01 X28.7765 Y37.5280
G01 X28.6636 Y37.4096
G01 X28.5303 Y37.3147
G00 Z2.0000
G00 X2.4934 Y53.3336
G01 F60.00
G01 Z-0.0700
G01 F120.00
G01 X2.4631 Y53.2335
