(G-code generated by FlatCAM Evo vUnstable - Version Date: 2023/6/31)

(Name: chessbot-PTH.drl_cnc)
(Type: G-code from Excellon)
(Units: MM)

(Created on Monday, 30 October 2023 at 13:58)

(This preprocessor is the default preprocessor.)
(It is made to work with MACH3 compatible motion controllers.)


(TOOLS DIAMETER: )
(Tool: 1 -> Dia: 0.6)

(FEEDRATE Z: )
(Tool: 1 -> Feedrate: 300)

(FEEDRATE RAPIDS: )
(Tool: 1 -> Feedrate Rapids: 1500)

(Z_CUT: )
(Tool: 1 -> Z_Cut: -2.0)

(Tools Offset: )
(Tool: 1 -> Offset Z: 0.0)

(Z_MOVE: )
(Tool: 1 -> Z_Move: 2)

(Z Start: None mm)
(Z End: 15 mm)
(X,Y End: None mm)
(Steps per circle: 16)
(Preprocessor Excellon: default)

(X range:    7.2800 ...   31.1400  mm)
(Y range:    7.0800 ...   51.0600  mm)

(Spindle Speed: 12000 RPM)
G21
G90
G94

G01 F150.00
G00 Z2.0000

M03 S12000
G00 X10.3200 Y12.6600
G01 Z-2.0000
G01 Z0
G00 Z2.0000
G00 X17.9400 Y10.1200
G01 Z-2.0000
G01 Z0
G00 Z2.0000
G00 X25.5600 Y10.1200
G01 Z-2.0000
G01 Z0
G00 Z2.0000
G00 X25.5600 Y22.8200
G01 Z-2.0000
G01 Z0
G00 Z2.0000
G00 X30.6400 Y22.8200
G01 Z-2.0000
G01 Z0
G00 Z2.0000
G00 X28.1000 Y25.3600
G01 Z-2.0000
G01 Z0
G00 Z2.0000
G00 X28.1000 Y27.9000
G01 Z-2.0000
G01 Z0
G00 Z2.0000
G00 X28.1000 Y30.4400
G01 Z-2.0000
G01 Z0
G00 Z2.0000
G00 X28.1000 Y35.5200
G01 Z-2.0000
G01 Z0
G00 Z2.0000
G00 X28.1000 Y38.0600
G01 Z-2.0000
G01 Z0
G00 Z2.0000
G00 X12.8600 Y50.7600
G01 Z-2.0000
G01 Z0
G00 Z2.0000
G00 X15.4000 Y43.1400
G01 Z-2.0000
G01 Z0
G00 Z2.0000
G00 X17.9400 Y22.8200
G01 Z-2.0000
G01 Z0
G00 Z2.0000
M05
G00 Z15.00


