(G-code generated by FlatCAM Evo vUnstable - Version Date: 2023/6/31)

(Name: chessbot-PTH.drl_cnc)
(Type: G-code from Excellon)
(Units: MM)

(Created on Monday, 30 October 2023 at 13:59)

(This preprocessor is the default preprocessor.)
(It is made to work with MACH3 compatible motion controllers.)


(TOOLS DIAMETER: )
(Tool: 2 -> Dia: 0.8)

(FEEDRATE Z: )
(Tool: 2 -> Feedrate: 150.0)

(FEEDRATE RAPIDS: )
(Tool: 2 -> Feedrate Rapids: 1500)

(Z_CUT: )
(Tool: 2 -> Z_Cut: -2.0)

(Tools Offset: )
(Tool: 2 -> Offset Z: 0.0)

(Z_MOVE: )
(Tool: 2 -> Z_Move: 2)

(Z Start: None mm)
(Z End: 15 mm)
(X,Y End: None mm)
(Steps per circle: 16)
(Preprocessor Excellon: default)

(X range:    7.2800 ...   31.1400  mm)
(Y range:    7.0800 ...   51.0600  mm)

(Spindle Speed: 12000 RPM)
G21
G90
G94

G01 F150.00
G00 Z2.0000

M03 S12000
G00 X12.8600 Y20.2800
G01 Z-2.0000
G01 Z0
G00 Z2.0000
G00 X15.4000 Y20.2800
G01 Z-2.0000
G01 Z0
G00 Z2.0000
G00 X17.9400 Y20.2800
G01 Z-2.0000
G01 Z0
G00 Z2.0000
G00 X20.4800 Y20.2800
G01 Z-2.0000
G01 Z0
G00 Z2.0000
G00 X23.0200 Y20.2800
G01 Z-2.0000
G01 Z0
G00 Z2.0000
G00 X20.4800 Y25.3600
G01 Z-2.0000
G01 Z0
G00 Z2.0000
G00 X17.9400 Y25.3600
G01 Z-2.0000
G01 Z0
G00 Z2.0000
G00 X7.7800 Y25.3600
G01 Z-2.0000
G01 Z0
G00 Z2.0000
G00 X7.7800 Y27.9000
G01 Z-2.0000
G01 Z0
G00 Z2.0000
G00 X7.7800 Y30.4400
G01 Z-2.0000
G01 Z0
G00 Z2.0000
G00 X7.7800 Y32.9800
G01 Z-2.0000
G01 Z0
G00 Z2.0000
G00 X7.7800 Y35.5200
G01 Z-2.0000
G01 Z0
G00 Z2.0000
G00 X7.7800 Y38.0600
G01 Z-2.0000
G01 Z0
G00 Z2.0000
G00 X7.7800 Y40.6000
G01 Z-2.0000
G01 Z0
G00 Z2.0000
G00 X7.7800 Y43.1400
G01 Z-2.0000
G01 Z0
G00 Z2.0000
G00 X10.3200 Y45.6800
G01 Z-2.0000
G01 Z0
G00 Z2.0000
G00 X12.8600 Y45.6800
G01 Z-2.0000
G01 Z0
G00 Z2.0000
G00 X15.4000 Y45.6800
G01 Z-2.0000
G01 Z0
G00 Z2.0000
G00 X17.9400 Y45.6800
G01 Z-2.0000
G01 Z0
G00 Z2.0000
G00 X20.4800 Y45.6800
G01 Z-2.0000
G01 Z0
G00 Z2.0000
G00 X23.0200 Y45.6800
G01 Z-2.0000
G01 Z0
G00 Z2.0000
G00 X25.5600 Y45.6800
G01 Z-2.0000
G01 Z0
G00 Z2.0000
G00 X28.1000 Y45.6800
G01 Z-2.0000
G01 Z0
G00 Z2.0000
G00 X30.6400 Y43.1100
G01 Z-2.0000
G01 Z0
G00 Z2.0000
G00 X30.6400 Y40.5700
G01 Z-2.0000
G01 Z0
G00 Z2.0000
G00 X30.6400 Y38.0300
G01 Z-2.0000
G01 Z0
G00 Z2.0000
G00 X30.6400 Y35.4900
G01 Z-2.0000
G01 Z0
G00 Z2.0000
G00 X30.6400 Y32.9500
G01 Z-2.0000
G01 Z0
G00 Z2.0000
G00 X30.6400 Y30.4100
G01 Z-2.0000
G01 Z0
G00 Z2.0000
G00 X30.6400 Y27.8700
G01 Z-2.0000
G01 Z0
G00 Z2.0000
G00 X30.6400 Y25.3300
G01 Z-2.0000
G01 Z0
G00 Z2.0000
G00 X30.6400 Y20.2800
G01 Z-2.0000
G01 Z0
G00 Z2.0000
G00 X28.1000 Y20.2800
G01 Z-2.0000
G01 Z0
G00 Z2.0000
G00 X25.5600 Y20.2800
G01 Z-2.0000
G01 Z0
G00 Z2.0000
G00 X30.6400 Y12.6600
G01 Z-2.0000
G01 Z0
G00 Z2.0000
G00 X28.1000 Y12.6600
G01 Z-2.0000
G01 Z0
G00 Z2.0000
G00 X25.5600 Y12.6600
G01 Z-2.0000
G01 Z0
G00 Z2.0000
G00 X23.0200 Y12.6600
G01 Z-2.0000
G01 Z0
G00 Z2.0000
G00 X20.4800 Y7.5800
G01 Z-2.0000
G01 Z0
G00 Z2.0000
G00 X17.9400 Y7.5800
G01 Z-2.0000
G01 Z0
G00 Z2.0000
G00 X20.4800 Y12.6600
G01 Z-2.0000
G01 Z0
G00 Z2.0000
G00 X17.9400 Y12.6600
G01 Z-2.0000
G01 Z0
G00 Z2.0000
G00 X15.4000 Y12.6600
G01 Z-2.0000
G01 Z0
G00 Z2.0000
G00 X12.8600 Y12.6600
G01 Z-2.0000
G01 Z0
G00 Z2.0000
M05
G00 Z15.00


