(G-code generated by FlatCAM Evo vUnstable - Version Date: 2023/6/31)

(Name: chessbot-F_Cu_cutout_cnc)
(Type: G-code from Geometry)
(Units: MM)

(Created on Monday, 30 October 2023 at 14:05)

(This preprocessor is the default preprocessor.)
(It is made to work with MACH3 compatible motion controllers.)

(TOOL DIAMETER: 3.175 mm)
(Feedrate_XY: 120.0 mm/min)
(Feedrate_Z: 60.0 mm/min)
(Feedrate rapids 1500.0 mm/min)

(Z_Cut: -2.0 mm)
(DepthPerCut: 0.20000000000000004 mm <=>10 passes)
(Z_Move: 2.0 mm)
(Z Start: None mm)
(Z End: 15.0 mm)
(X,Y End: None mm)
(Steps per circle: 16)
(Preprocessor Geometry: default)

(X range:    1.0125 ...   34.8675  mm)
(Y range:    0.8125 ...   54.9875  mm)

(Spindle Speed: 12000.0 RPM)
G21
G90
G94

G01 F120.00
G00 Z2.0000

M03 S12000.0
G01 F120.00
G00 X33.1800 Y0.8125
G01 F60.00
G01 Z-0.2000
G01 F120.00
G01 X2.7000 Y0.8125
G01 X2.5346 Y0.8206
G01 X2.3708 Y0.8449
G01 X2.2101 Y0.8852
G01 X2.0542 Y0.9410
G01 X1.9045 Y1.0118
G01 X1.7625 Y1.0969
G01 X1.6295 Y1.1955
G01 X1.5068 Y1.3068
G01 X1.3955 Y1.4295
G01 X1.2969 Y1.5625
G01 X1.2118 Y1.7045
G01 X1.1410 Y1.8542
G01 X1.0852 Y2.0101
G01 X1.0449 Y2.1708
G01 X1.0206 Y2.3346
G01 X1.0125 Y2.5000
G01 X1.0125 Y53.3000
G01 X1.0206 Y53.4654
G01 X1.0449 Y53.6292
G01 X1.0852 Y53.7899
G01 X1.1410 Y53.9458
G01 X1.2118 Y54.0955
G01 X1.2969 Y54.2375
G01 X1.3955 Y54.3705
G01 X1.5068 Y54.4932
G01 X1.6295 Y54.6045
G01 X1.7625 Y54.7031
G01 X1.9045 Y54.7882
G01 X2.0542 Y54.8590
G01 X2.2101 Y54.9148
G01 X2.3708 Y54.9551
G01 X2.5346 Y54.9794
G01 X2.7000 Y54.9875
G01 X33.1800 Y54.9875
G01 X33.3454 Y54.9794
G01 X33.5092 Y54.9551
G01 X33.6699 Y54.9148
G01 X33.8258 Y54.8590
G01 X33.9755 Y54.7882
G01 X34.1175 Y54.7031
G01 X34.2505 Y54.6045
G01 X34.3732 Y54.4932
G01 X34.4845 Y54.3705
G01 X34.5831 Y54.2375
G01 X34.6682 Y54.0955
G01 X34.7390 Y53.9458
G01 X34.7948 Y53.7899
G01 X34.8351 Y53.6292
G01 X34.8594 Y53.4654
G01 X34.8675 Y53.3000
G01 X34.8675 Y2.5000
G01 X34.8594 Y2.3346
G01 X34.8351 Y2.1708
G01 X34.7948 Y2.0101
G01 X34.7390 Y1.8542
G01 X34.6682 Y1.7045
G01 X34.5831 Y1.5625
G01 X34.4845 Y1.4295
G01 X34.3732 Y1.3068
G01 X34.2505 Y1.1955
G01 X34.1175 Y1.0969
G01 X33.9755 Y1.0118
G01 X33.8258 Y0.9410
G01 X33.6699 Y0.8852
G01 X33.5092 Y0.8449
G01 X33.3454 Y0.8206
G01 X33.1800 Y0.8125
G00 X33.1800 Y0.8125
G01 F60.00
G01 Z-0.4000
G01 F120.00
G01 X33.3454 Y0.8206
G01 X33.5092 Y0.8449
G01 X33.6699 Y0.8852
G01 X33.8258 Y0.9410
G01 X33.9755 Y1.0118
G01 X34.1175 Y1.0969
G01 X34.2505 Y1.1955
G01 X34.3732 Y1.3068
G01 X34.4845 Y1.4295
G01 X34.5831 Y1.5625
G01 X34.6682 Y1.7045
G01 X34.7390 Y1.8542
G01 X34.7948 Y2.0101
G01 X34.8351 Y2.1708
G01 X34.8594 Y2.3346
G01 X34.8675 Y2.5000
G01 X34.8675 Y53.3000
G01 X34.8594 Y53.4654
G01 X34.8351 Y53.6292
G01 X34.7948 Y53.7899
G01 X34.7390 Y53.9458
G01 X34.6682 Y54.0955
G01 X34.5831 Y54.2375
G01 X34.4845 Y54.3705
G01 X34.3732 Y54.4932
G01 X34.2505 Y54.6045
G01 X34.1175 Y54.7031
G01 X33.9755 Y54.7882
G01 X33.8258 Y54.8590
G01 X33.6699 Y54.9148
G01 X33.5092 Y54.9551
G01 X33.3454 Y54.9794
G01 X33.1800 Y54.9875
G01 X2.7000 Y54.9875
G01 X2.5346 Y54.9794
G01 X2.3708 Y54.9551
G01 X2.2101 Y54.9148
G01 X2.0542 Y54.8590
G01 X1.9045 Y54.7882
G01 X1.7625 Y54.7031
G01 X1.6295 Y54.6045
G01 X1.5068 Y54.4932
G01 X1.3955 Y54.3705
G01 X1.2969 Y54.2375
G01 X1.2118 Y54.0955
G01 X1.1410 Y53.9458
G01 X1.0852 Y53.7899
G01 X1.0449 Y53.6292
G01 X1.0206 Y53.4654
G01 X1.0125 Y53.3000
G01 X1.0125 Y2.5000
G01 X1.0206 Y2.3346
G01 X1.0449 Y2.1708
G01 X1.0852 Y2.0101
G01 X1.1410 Y1.8542
G01 X1.2118 Y1.7045
G01 X1.2969 Y1.5625
G01 X1.3955 Y1.4295
G01 X1.5068 Y1.3068
G01 X1.6295 Y1.1955
G01 X1.7625 Y1.0969
G01 X1.9045 Y1.0118
G01 X2.0542 Y0.9410
G01 X2.2101 Y0.8852
G01 X2.3708 Y0.8449
G01 X2.5346 Y0.8206
G01 X2.7000 Y0.8125
G01 X33.1800 Y0.8125
G00 X33.1800 Y0.8125
G01 F60.00
G01 Z-0.6000
G01 F120.00
G01 X2.7000 Y0.8125
G01 X2.5346 Y0.8206
G01 X2.3708 Y0.8449
G01 X2.2101 Y0.8852
G01 X2.0542 Y0.9410
G01 X1.9045 Y1.0118
G01 X1.7625 Y1.0969
G01 X1.6295 Y1.1955
G01 X1.5068 Y1.3068
G01 X1.3955 Y1.4295
G01 X1.2969 Y1.5625
G01 X1.2118 Y1.7045
G01 X1.1410 Y1.8542
G01 X1.0852 Y2.0101
G01 X1.0449 Y2.1708
G01 X1.0206 Y2.3346
G01 X1.0125 Y2.5000
G01 X1.0125 Y53.3000
G01 X1.0206 Y53.4654
G01 X1.0449 Y53.6292
G01 X1.0852 Y53.7899
G01 X1.1410 Y53.9458
G01 X1.2118 Y54.0955
G01 X1.2969 Y54.2375
G01 X1.3955 Y54.3705
G01 X1.5068 Y54.4932
G01 X1.6295 Y54.6045
G01 X1.7625 Y54.7031
G01 X1.9045 Y54.7882
G01 X2.0542 Y54.8590
G01 X2.2101 Y54.9148
G01 X2.3708 Y54.9551
G01 X2.5346 Y54.9794
G01 X2.7000 Y54.9875
G01 X33.1800 Y54.9875
G01 X33.3454 Y54.9794
G01 X33.5092 Y54.9551
G01 X33.6699 Y54.9148
G01 X33.8258 Y54.8590
G01 X33.9755 Y54.7882
G01 X34.1175 Y54.7031
G01 X34.2505 Y54.6045
G01 X34.3732 Y54.4932
G01 X34.4845 Y54.3705
G01 X34.5831 Y54.2375
G01 X34.6682 Y54.0955
G01 X34.7390 Y53.9458
G01 X34.7948 Y53.7899
G01 X34.8351 Y53.6292
G01 X34.8594 Y53.4654
G01 X34.8675 Y53.3000
G01 X34.8675 Y2.5000
G01 X34.8594 Y2.3346
G01 X34.8351 Y2.1708
G01 X34.7948 Y2.0101
G01 X34.7390 Y1.8542
G01 X34.6682 Y1.7045
G01 X34.5831 Y1.5625
G01 X34.4845 Y1.4295
G01 X34.3732 Y1.3068
G01 X34.2505 Y1.1955
G01 X34.1175 Y1.0969
G01 X33.9755 Y1.0118
G01 X33.8258 Y0.9410
G01 X33.6699 Y0.8852
G01 X33.5092 Y0.8449
G01 X33.3454 Y0.8206
G01 X33.1800 Y0.8125
G00 X33.1800 Y0.8125
G01 F60.00
G01 Z-0.8000
G01 F120.00
G01 X33.3454 Y0.8206
G01 X33.5092 Y0.8449
G01 X33.6699 Y0.8852
G01 X33.8258 Y0.9410
G01 X33.9755 Y1.0118
G01 X34.1175 Y1.0969
G01 X34.2505 Y1.1955
G01 X34.3732 Y1.3068
G01 X34.4845 Y1.4295
G01 X34.5831 Y1.5625
G01 X34.6682 Y1.7045
G01 X34.7390 Y1.8542
G01 X34.7948 Y2.0101
G01 X34.8351 Y2.1708
G01 X34.8594 Y2.3346
G01 X34.8675 Y2.5000
G01 X34.8675 Y53.3000
G01 X34.8594 Y53.4654
G01 X34.8351 Y53.6292
G01 X34.7948 Y53.7899
G01 X34.7390 Y53.9458
G01 X34.6682 Y54.0955
G01 X34.5831 Y54.2375
G01 X34.4845 Y54.3705
G01 X34.3732 Y54.4932
G01 X34.2505 Y54.6045
G01 X34.1175 Y54.7031
G01 X33.9755 Y54.7882
G01 X33.8258 Y54.8590
G01 X33.6699 Y54.9148
G01 X33.5092 Y54.9551
G01 X33.3454 Y54.9794
G01 X33.1800 Y54.9875
G01 X2.7000 Y54.9875
G01 X2.5346 Y54.9794
G01 X2.3708 Y54.9551
G01 X2.2101 Y54.9148
G01 X2.0542 Y54.8590
G01 X1.9045 Y54.7882
G01 X1.7625 Y54.7031
G01 X1.6295 Y54.6045
G01 X1.5068 Y54.4932
G01 X1.3955 Y54.3705
G01 X1.2969 Y54.2375
G01 X1.2118 Y54.0955
G01 X1.1410 Y53.9458
G01 X1.0852 Y53.7899
G01 X1.0449 Y53.6292
G01 X1.0206 Y53.4654
G01 X1.0125 Y53.3000
G01 X1.0125 Y2.5000
G01 X1.0206 Y2.3346
G01 X1.0449 Y2.1708
G01 X1.0852 Y2.0101
G01 X1.1410 Y1.8542
G01 X1.2118 Y1.7045
G01 X1.2969 Y1.5625
G01 X1.3955 Y1.4295
G01 X1.5068 Y1.3068
G01 X1.6295 Y1.1955
G01 X1.7625 Y1.0969
G01 X1.9045 Y1.0118
G01 X2.0542 Y0.9410
G01 X2.2101 Y0.8852
G01 X2.3708 Y0.8449
G01 X2.5346 Y0.8206
G01 X2.7000 Y0.8125
G01 X33.1800 Y0.8125
G00 X33.1800 Y0.8125
G01 F60.00
G01 Z-1.0000
G01 F120.00
G01 X2.7000 Y0.8125
G01 X2.5346 Y0.8206
G01 X2.3708 Y0.8449
G01 X2.2101 Y0.8852
G01 X2.0542 Y0.9410
G01 X1.9045 Y1.0118
G01 X1.7625 Y1.0969
G01 X1.6295 Y1.1955
G01 X1.5068 Y1.3068
G01 X1.3955 Y1.4295
G01 X1.2969 Y1.5625
G01 X1.2118 Y1.7045
G01 X1.1410 Y1.8542
G01 X1.0852 Y2.0101
G01 X1.0449 Y2.1708
G01 X1.0206 Y2.3346
G01 X1.0125 Y2.5000
G01 X1.0125 Y53.3000
G01 X1.0206 Y53.4654
G01 X1.0449 Y53.6292
G01 X1.0852 Y53.7899
G01 X1.1410 Y53.9458
G01 X1.2118 Y54.0955
G01 X1.2969 Y54.2375
G01 X1.3955 Y54.3705
G01 X1.5068 Y54.4932
G01 X1.6295 Y54.6045
G01 X1.7625 Y54.7031
G01 X1.9045 Y54.7882
G01 X2.0542 Y54.8590
G01 X2.2101 Y54.9148
G01 X2.3708 Y54.9551
G01 X2.5346 Y54.9794
G01 X2.7000 Y54.9875
G01 X33.1800 Y54.9875
G01 X33.3454 Y54.9794
G01 X33.5092 Y54.9551
G01 X33.6699 Y54.9148
G01 X33.8258 Y54.8590
G01 X33.9755 Y54.7882
G01 X34.1175 Y54.7031
G01 X34.2505 Y54.6045
G01 X34.3732 Y54.4932
G01 X34.4845 Y54.3705
G01 X34.5831 Y54.2375
G01 X34.6682 Y54.0955
G01 X34.7390 Y53.9458
G01 X34.7948 Y53.7899
G01 X34.8351 Y53.6292
G01 X34.8594 Y53.4654
G01 X34.8675 Y53.3000
G01 X34.8675 Y2.5000
G01 X34.8594 Y2.3346
G01 X34.8351 Y2.1708
G01 X34.7948 Y2.0101
G01 X34.7390 Y1.8542
G01 X34.6682 Y1.7045
G01 X34.5831 Y1.5625
G01 X34.4845 Y1.4295
G01 X34.3732 Y1.3068
G01 X34.2505 Y1.1955
G01 X34.1175 Y1.0969
G01 X33.9755 Y1.0118
G01 X33.8258 Y0.9410
G01 X33.6699 Y0.8852
G01 X33.5092 Y0.8449
G01 X33.3454 Y0.8206
G01 X33.1800 Y0.8125
G00 X33.1800 Y0.8125
G01 F60.00
G01 Z-1.2000
G01 F120.00
G01 X33.3454 Y0.8206
G01 X33.5092 Y0.8449
G01 X33.6699 Y0.8852
G01 X33.8258 Y0.9410
G01 X33.9755 Y1.0118
G01 X34.1175 Y1.0969
G01 X34.2505 Y1.1955
G01 X34.3732 Y1.3068
G01 X34.4845 Y1.4295
G01 X34.5831 Y1.5625
G01 X34.6682 Y1.7045
G01 X34.7390 Y1.8542
G01 X34.7948 Y2.0101
G01 X34.8351 Y2.1708
G01 X34.8594 Y2.3346
G01 X34.8675 Y2.5000
G01 X34.8675 Y53.3000
G01 X34.8594 Y53.4654
G01 X34.8351 Y53.6292
G01 X34.7948 Y53.7899
G01 X34.7390 Y53.9458
G01 X34.6682 Y54.0955
G01 X34.5831 Y54.2375
G01 X34.4845 Y54.3705
G01 X34.3732 Y54.4932
G01 X34.2505 Y54.6045
G01 X34.1175 Y54.7031
G01 X33.9755 Y54.7882
G01 X33.8258 Y54.8590
G01 X33.6699 Y54.9148
G01 X33.5092 Y54.9551
G01 X33.3454 Y54.9794
G01 X33.1800 Y54.9875
G01 X2.7000 Y54.9875
G01 X2.5346 Y54.9794
G01 X2.3708 Y54.9551
G01 X2.2101 Y54.9148
G01 X2.0542 Y54.8590
G01 X1.9045 Y54.7882
G01 X1.7625 Y54.7031
G01 X1.6295 Y54.6045
G01 X1.5068 Y54.4932
G01 X1.3955 Y54.3705
G01 X1.2969 Y54.2375
G01 X1.2118 Y54.0955
G01 X1.1410 Y53.9458
G01 X1.0852 Y53.7899
G01 X1.0449 Y53.6292
G01 X1.0206 Y53.4654
G01 X1.0125 Y53.3000
G01 X1.0125 Y2.5000
G01 X1.0206 Y2.3346
G01 X1.0449 Y2.1708
G01 X1.0852 Y2.0101
G01 X1.1410 Y1.8542
G01 X1.2118 Y1.7045
G01 X1.2969 Y1.5625
G01 X1.3955 Y1.4295
G01 X1.5068 Y1.3068
G01 X1.6295 Y1.1955
G01 X1.7625 Y1.0969
G01 X1.9045 Y1.0118
G01 X2.0542 Y0.9410
G01 X2.2101 Y0.8852
G01 X2.3708 Y0.8449
G01 X2.5346 Y0.8206
G01 X2.7000 Y0.8125
G01 X33.1800 Y0.8125
G00 X33.1800 Y0.8125
G01 F60.00
G01 Z-1.4000
G01 F120.00
G01 X2.7000 Y0.8125
G01 X2.5346 Y0.8206
G01 X2.3708 Y0.8449
G01 X2.2101 Y0.8852
G01 X2.0542 Y0.9410
G01 X1.9045 Y1.0118
G01 X1.7625 Y1.0969
G01 X1.6295 Y1.1955
G01 X1.5068 Y1.3068
G01 X1.3955 Y1.4295
G01 X1.2969 Y1.5625
G01 X1.2118 Y1.7045
G01 X1.1410 Y1.8542
G01 X1.0852 Y2.0101
G01 X1.0449 Y2.1708
G01 X1.0206 Y2.3346
G01 X1.0125 Y2.5000
G01 X1.0125 Y53.3000
G01 X1.0206 Y53.4654
G01 X1.0449 Y53.6292
G01 X1.0852 Y53.7899
G01 X1.1410 Y53.9458
G01 X1.2118 Y54.0955
G01 X1.2969 Y54.2375
G01 X1.3955 Y54.3705
G01 X1.5068 Y54.4932
G01 X1.6295 Y54.6045
G01 X1.7625 Y54.7031
G01 X1.9045 Y54.7882
G01 X2.0542 Y54.8590
G01 X2.2101 Y54.9148
G01 X2.3708 Y54.9551
G01 X2.5346 Y54.9794
G01 X2.7000 Y54.9875
G01 X33.1800 Y54.9875
G01 X33.3454 Y54.9794
G01 X33.5092 Y54.9551
G01 X33.6699 Y54.9148
G01 X33.8258 Y54.8590
G01 X33.9755 Y54.7882
G01 X34.1175 Y54.7031
G01 X34.2505 Y54.6045
G01 X34.3732 Y54.4932
G01 X34.4845 Y54.3705
G01 X34.5831 Y54.2375
G01 X34.6682 Y54.0955
G01 X34.7390 Y53.9458
G01 X34.7948 Y53.7899
G01 X34.8351 Y53.6292
G01 X34.8594 Y53.4654
G01 X34.8675 Y53.3000
G01 X34.8675 Y2.5000
G01 X34.8594 Y2.3346
G01 X34.8351 Y2.1708
G01 X34.7948 Y2.0101
G01 X34.7390 Y1.8542
G01 X34.6682 Y1.7045
G01 X34.5831 Y1.5625
G01 X34.4845 Y1.4295
G01 X34.3732 Y1.3068
G01 X34.2505 Y1.1955
G01 X34.1175 Y1.0969
G01 X33.9755 Y1.0118
G01 X33.8258 Y0.9410
G01 X33.6699 Y0.8852
G01 X33.5092 Y0.8449
G01 X33.3454 Y0.8206
G01 X33.1800 Y0.8125
G00 X33.1800 Y0.8125
G01 F60.00
G01 Z-1.6000
G01 F120.00
G01 X33.3454 Y0.8206
G01 X33.5092 Y0.8449
G01 X33.6699 Y0.8852
G01 X33.8258 Y0.9410
G01 X33.9755 Y1.0118
G01 X34.1175 Y1.0969
G01 X34.2505 Y1.1955
G01 X34.3732 Y1.3068
G01 X34.4845 Y1.4295
G01 X34.5831 Y1.5625
G01 X34.6682 Y1.7045
G01 X34.7390 Y1.8542
G01 X34.7948 Y2.0101
G01 X34.8351 Y2.1708
G01 X34.8594 Y2.3346
G01 X34.8675 Y2.5000
G01 X34.8675 Y53.3000
G01 X34.8594 Y53.4654
G01 X34.8351 Y53.6292
G01 X34.7948 Y53.7899
G01 X34.7390 Y53.9458
G01 X34.6682 Y54.0955
G01 X34.5831 Y54.2375
G01 X34.4845 Y54.3705
G01 X34.3732 Y54.4932
G01 X34.2505 Y54.6045
G01 X34.1175 Y54.7031
G01 X33.9755 Y54.7882
G01 X33.8258 Y54.8590
G01 X33.6699 Y54.9148
G01 X33.5092 Y54.9551
G01 X33.3454 Y54.9794
G01 X33.1800 Y54.9875
G01 X2.7000 Y54.9875
G01 X2.5346 Y54.9794
G01 X2.3708 Y54.9551
G01 X2.2101 Y54.9148
G01 X2.0542 Y54.8590
G01 X1.9045 Y54.7882
G01 X1.7625 Y54.7031
G01 X1.6295 Y54.6045
G01 X1.5068 Y54.4932
G01 X1.3955 Y54.3705
G01 X1.2969 Y54.2375
G01 X1.2118 Y54.0955
G01 X1.1410 Y53.9458
G01 X1.0852 Y53.7899
G01 X1.0449 Y53.6292
G01 X1.0206 Y53.4654
G01 X1.0125 Y53.3000
G01 X1.0125 Y2.5000
G01 X1.0206 Y2.3346
G01 X1.0449 Y2.1708
G01 X1.0852 Y2.0101
G01 X1.1410 Y1.8542
G01 X1.2118 Y1.7045
G01 X1.2969 Y1.5625
G01 X1.3955 Y1.4295
G01 X1.5068 Y1.3068
G01 X1.6295 Y1.1955
G01 X1.7625 Y1.0969
G01 X1.9045 Y1.0118
G01 X2.0542 Y0.9410
G01 X2.2101 Y0.8852
G01 X2.3708 Y0.8449
G01 X2.5346 Y0.8206
G01 X2.7000 Y0.8125
G01 X33.1800 Y0.8125
G00 X33.1800 Y0.8125
G01 F60.00
G01 Z-1.8000
G01 F120.00
G01 X2.7000 Y0.8125
G01 X2.5346 Y0.8206
G01 X2.3708 Y0.8449
G01 X2.2101 Y0.8852
G01 X2.0542 Y0.9410
G01 X1.9045 Y1.0118
G01 X1.7625 Y1.0969
G01 X1.6295 Y1.1955
G01 X1.5068 Y1.3068
G01 X1.3955 Y1.4295
G01 X1.2969 Y1.5625
G01 X1.2118 Y1.7045
G01 X1.1410 Y1.8542
G01 X1.0852 Y2.0101
G01 X1.0449 Y2.1708
G01 X1.0206 Y2.3346
G01 X1.0125 Y2.5000
G01 X1.0125 Y53.3000
G01 X1.0206 Y53.4654
G01 X1.0449 Y53.6292
G01 X1.0852 Y53.7899
G01 X1.1410 Y53.9458
G01 X1.2118 Y54.0955
G01 X1.2969 Y54.2375
G01 X1.3955 Y54.3705
G01 X1.5068 Y54.4932
G01 X1.6295 Y54.6045
G01 X1.7625 Y54.7031
G01 X1.9045 Y54.7882
G01 X2.0542 Y54.8590
G01 X2.2101 Y54.9148
G01 X2.3708 Y54.9551
G01 X2.5346 Y54.9794
G01 X2.7000 Y54.9875
G01 X33.1800 Y54.9875
G01 X33.3454 Y54.9794
G01 X33.5092 Y54.9551
G01 X33.6699 Y54.9148
G01 X33.8258 Y54.8590
G01 X33.9755 Y54.7882
G01 X34.1175 Y54.7031
G01 X34.2505 Y54.6045
G01 X34.3732 Y54.4932
G01 X34.4845 Y54.3705
G01 X34.5831 Y54.2375
G01 X34.6682 Y54.0955
G01 X34.7390 Y53.9458
G01 X34.7948 Y53.7899
G01 X34.8351 Y53.6292
G01 X34.8594 Y53.4654
G01 X34.8675 Y53.3000
G01 X34.8675 Y2.5000
G01 X34.8594 Y2.3346
G01 X34.8351 Y2.1708
G01 X34.7948 Y2.0101
G01 X34.7390 Y1.8542
G01 X34.6682 Y1.7045
G01 X34.5831 Y1.5625
G01 X34.4845 Y1.4295
G01 X34.3732 Y1.3068
G01 X34.2505 Y1.1955
G01 X34.1175 Y1.0969
G01 X33.9755 Y1.0118
G01 X33.8258 Y0.9410
G01 X33.6699 Y0.8852
G01 X33.5092 Y0.8449
G01 X33.3454 Y0.8206
G01 X33.1800 Y0.8125
G00 X33.1800 Y0.8125
G01 F60.00
G01 Z-2.0000
G01 F120.00
G01 X33.3454 Y0.8206
G01 X33.5092 Y0.8449
G01 X33.6699 Y0.8852
G01 X33.8258 Y0.9410
G01 X33.9755 Y1.0118
G01 X34.1175 Y1.0969
G01 X34.2505 Y1.1955
G01 X34.3732 Y1.3068
G01 X34.4845 Y1.4295
G01 X34.5831 Y1.5625
G01 X34.6682 Y1.7045
G01 X34.7390 Y1.8542
G01 X34.7948 Y2.0101
G01 X34.8351 Y2.1708
G01 X34.8594 Y2.3346
G01 X34.8675 Y2.5000
G01 X34.8675 Y53.3000
G01 X34.8594 Y53.4654
G01 X34.8351 Y53.6292
G01 X34.7948 Y53.7899
G01 X34.7390 Y53.9458
G01 X34.6682 Y54.0955
G01 X34.5831 Y54.2375
G01 X34.4845 Y54.3705
G01 X34.3732 Y54.4932
G01 X34.2505 Y54.6045
G01 X34.1175 Y54.7031
G01 X33.9755 Y54.7882
G01 X33.8258 Y54.8590
G01 X33.6699 Y54.9148
G01 X33.5092 Y54.9551
G01 X33.3454 Y54.9794
G01 X33.1800 Y54.9875
G01 X2.7000 Y54.9875
G01 X2.5346 Y54.9794
G01 X2.3708 Y54.9551
G01 X2.2101 Y54.9148
G01 X2.0542 Y54.8590
G01 X1.9045 Y54.7882
G01 X1.7625 Y54.7031
G01 X1.6295 Y54.6045
G01 X1.5068 Y54.4932
G01 X1.3955 Y54.3705
G01 X1.2969 Y54.2375
G01 X1.2118 Y54.0955
G01 X1.1410 Y53.9458
G01 X1.0852 Y53.7899
G01 X1.0449 Y53.6292
G01 X1.0206 Y53.4654
G01 X1.0125 Y53.3000
G01 X1.0125 Y2.5000
G01 X1.0206 Y2.3346
G01 X1.0449 Y2.1708
G01 X1.0852 Y2.0101
G01 X1.1410 Y1.8542
G01 X1.2118 Y1.7045
G01 X1.2969 Y1.5625
G01 X1.3955 Y1.4295
G01 X1.5068 Y1.3068
G01 X1.6295 Y1.1955
G01 X1.7625 Y1.0969
G01 X1.9045 Y1.0118
G01 X2.0542 Y0.9410
G01 X2.2101 Y0.8852
G01 X2.3708 Y0.8449
G01 X2.5346 Y0.8206
G01 X2.7000 Y0.8125
G01 X33.1800 Y0.8125
G00 Z2.0000
M05
G00 Z2.0000
G00 Z15.00


