; generated by PrusaSlicer 2.4.2 on 2022-06-27 at 16:47:04 UTC

; 

; external perimeters extrusion width = 0.45mm
; perimeters extrusion width = 0.45mm
; infill extrusion width = 0.45mm
; solid infill extrusion width = 0.45mm
; top infill extrusion width = 0.45mm
; first layer extrusion width = 0.42mm

M107
;TYPE:Custom
G90 ; use absolute coordinates
M83 ; extruder relative mode
M140 S60 ; set final bed temp
M104 S150 ; set temporary nozzle temp to prevent oozing during homing
G4 S10 ; allow partial nozzle warmup
G28 ; home all axis
G1 Z50 F240
G1 X2 Y10 F3000
M104 S205 ; set final nozzle temp
M190 S60 ; wait for bed temp to stabilize
M109 S205 ; wait for nozzle temp to stabilize
G1 Z0.28 F240
G92 E0
G1 Y140 E10 F1500 ; prime the nozzle
G1 X2.3 F5000
G92 E0
G1 Y10 E10 F1200 ; prime the nozzle
G92 E0
G21 ; set units to millimeters
G90 ; use absolute coordinates
M83 ; use relative distances for extrusion
; Filament gcode
M107
;LAYER_CHANGE
;Z:0.2
;HEIGHT:0.2
;BEFORE_LAYER_CHANGE
G92 E0
;0.2


G1 E-6 F3600
G1 Z.2 F9000
;AFTER_LAYER_CHANGE
;0.2
G1 X104.737 Y104.737
G1 E6 F2400
M204 S500
;TYPE:Skirt/Brim
;WIDTH:0.42
G1 F1200
G1 X172.162 Y37.312 E2.98974
G1 X173.56 Y36.471 E.05115
G1 X174.55 Y36.323 E.03138
G1 X245.45 Y36.323 E2.22302
G1 X247.033 Y36.717 E.05115
G1 X248.247 Y37.807 E.05115
G1 X248.827 Y39.7 E.06207
G1 X248.827 Y139.7 E3.13543
G1 X248.751 Y140.412 E.02247
G1 X222.851 Y260.412 E3.84915
G1 X222.132 Y261.877 E.05115
G1 X220.81 Y262.833 E.05115
G1 X219.915 Y263.057 E.02893
G1 X122.415 Y273.657 E3.07506
G1 X107.05 Y273.677 E.48176
G1 X105.577 Y273.339 E.04739
G1 X63.077 Y252.739 E1.48084
G1 X61.824 Y251.694 E.05115
G1 X61.173 Y249.7 E.06576
G1 X61.173 Y149.7 E3.13543
G1 X61.567 Y148.117 E.05115
G1 X62.162 Y147.312 E.03138
G1 X104.695 Y104.779 E1.88597
G1 E-4.2 F3600
;WIPE_START
G1 F7200
G1 X107.24 Y102.234 E-1.71
;WIPE_END
G1 E-.09 F3600
G1 X160.237 Y154.013 F9000
G1 E6 F2400
;TYPE:Perimeter
G1 F1200
G1 X160.237 Y245.387 E2.86497
G1 X68.863 Y245.387 E2.86497
G1 X68.863 Y154.013 E2.86497
G1 X160.177 Y154.013 E2.86309
G1 X159.86 Y154.39 F9000
;TYPE:External perimeter
G1 F1200
G1 X159.86 Y245.01 E2.84133
G1 X69.24 Y245.01 E2.84133
G1 X69.24 Y154.39 E2.84133
G1 X159.8 Y154.39 E2.83945
G1 X160.246 Y154.286 F9000
G1 E-4.2 F3600
;WIPE_START
G1 F7200
G1 X159.802 Y157.99 E-1.71
;WIPE_END
G1 E-.09 F3600
G1 X121.363 Y150.387 F9000
G1 E6 F2400
;TYPE:Perimeter
G1 F1200
G1 X163.863 Y150.387 E1.33256
G1 X163.863 Y249.013 E3.09234
G1 X121.363 Y249.013 E1.33256
G1 X121.363 Y269.613 E.6459
G1 X107.737 Y269.613 E.42723
G1 X107.737 Y249.013 E.6459
G1 X65.237 Y249.013 E1.33256
G1 X65.237 Y150.387 E3.09234
G1 X107.737 Y150.387 E1.33256
G1 X107.737 Y129.787 E.6459
G1 X121.363 Y129.787 E.42723
G1 X121.363 Y150.327 E.64402
G1 X121.74 Y150.01 F9000
;TYPE:External perimeter
G1 F1200
G1 X164.24 Y150.01 E1.33256
G1 X164.24 Y249.39 E3.11599
G1 X121.74 Y249.39 E1.33256
G1 X121.74 Y269.99 E.6459
G1 X107.36 Y269.99 E.45087
G1 X107.36 Y249.39 E.6459
G1 X64.86 Y249.39 E1.33256
G1 X64.86 Y150.01 E3.11599
G1 X107.36 Y150.01 E1.33256
G1 X107.36 Y129.41 E.6459
G1 X121.74 Y129.41 E.45087
G1 X121.74 Y149.95 E.64402
G1 X121.821 Y150.402 F9000
G1 E-4.2 F3600
;WIPE_START
G1 F7200
G1 X125.34 Y149.955 E-1.71
;WIPE_END
G1 E-.09 F3600
G1 X162.987 Y150.5 F9000
G1 E6 F2400
;TYPE:Solid infill
;WIDTH:0.420186
G1 F1200
G1 X163.58 Y151.093 E.02631
G1 X163.58 Y151.627 E.01674
G1 X162.623 Y150.67 E.04245
G1 X162.09 Y150.67 E.01674
G1 X163.58 Y152.16 E.06612
G1 X163.58 Y152.694 E.01674
G1 X161.556 Y150.67 E.08979
G1 X161.023 Y150.67 E.01674
G1 X163.58 Y153.227 E.11346
G1 X163.58 Y153.761 E.01674
G1 X160.489 Y150.67 E.13713
G1 X159.956 Y150.67 E.01674
G1 X163.58 Y154.294 E.1608
G1 X163.58 Y154.828 E.01674
G1 X159.422 Y150.67 E.18447
G1 X158.889 Y150.67 E.01674
G1 X163.58 Y155.361 E.20814
G1 X163.58 Y155.895 E.01674
G1 X158.355 Y150.67 E.2318
G1 X157.821 Y150.67 E.01674
G1 X163.58 Y156.429 E.25547
G1 X163.58 Y156.962 E.01674
G1 X157.288 Y150.67 E.27914
G1 X156.754 Y150.67 E.01674
G1 X159.815 Y153.73 E.13576
G1 X159.281 Y153.73 E.01674
G1 X156.221 Y150.67 E.13576
G1 X155.687 Y150.67 E.01674
G1 X158.748 Y153.73 E.13576
G1 X158.214 Y153.73 E.01674
G1 X155.154 Y150.67 E.13576
G1 X154.62 Y150.67 E.01674
G1 X157.681 Y153.73 E.13576
G1 X157.147 Y153.73 E.01674
G1 X154.087 Y150.67 E.13576
G1 X153.553 Y150.67 E.01674
G1 X156.613 Y153.73 E.13576
G1 X156.08 Y153.73 E.01674
G1 X153.02 Y150.67 E.13576
G1 X152.486 Y150.67 E.01674
G1 X155.546 Y153.73 E.13576
G1 X155.013 Y153.73 E.01674
G1 X151.953 Y150.67 E.13576
G1 X151.419 Y150.67 E.01674
G1 X154.479 Y153.73 E.13576
G1 X153.946 Y153.73 E.01674
G1 X150.886 Y150.67 E.13576
G1 X150.352 Y150.67 E.01674
G1 X153.412 Y153.73 E.13576
G1 X152.879 Y153.73 E.01674
G1 X149.818 Y150.67 E.13576
G1 X149.285 Y150.67 E.01674
G1 X152.345 Y153.73 E.13576
G1 X151.812 Y153.73 E.01674
G1 X148.751 Y150.67 E.13576
G1 X148.218 Y150.67 E.01674
G1 X151.278 Y153.73 E.13576
G1 X150.745 Y153.73 E.01674
G1 X147.684 Y150.67 E.13576
G1 X147.151 Y150.67 E.01674
G1 X150.211 Y153.73 E.13576
G1 X149.678 Y153.73 E.01674
G1 X146.617 Y150.67 E.13576
G1 X146.084 Y150.67 E.01674
G1 X149.144 Y153.73 E.13576
G1 X148.61 Y153.73 E.01674
G1 X145.55 Y150.67 E.13576
G1 X145.017 Y150.67 E.01674
G1 X148.077 Y153.73 E.13576
G1 X147.543 Y153.73 E.01674
G1 X144.483 Y150.67 E.13576
G1 X143.95 Y150.67 E.01674
G1 X147.01 Y153.73 E.13576
G1 X146.476 Y153.73 E.01674
G1 X143.416 Y150.67 E.13576
G1 X142.883 Y150.67 E.01674
G1 X145.943 Y153.73 E.13576
G1 X145.409 Y153.73 E.01674
G1 X142.349 Y150.67 E.13576
G1 X141.815 Y150.67 E.01674
G1 X144.876 Y153.73 E.13576
G1 X144.342 Y153.73 E.01674
G1 X141.282 Y150.67 E.13576
G1 X140.748 Y150.67 E.01674
G1 X143.809 Y153.73 E.13576
G1 X143.275 Y153.73 E.01674
G1 X140.215 Y150.67 E.13576
G1 X139.681 Y150.67 E.01674
G1 X142.742 Y153.73 E.13576
G1 X142.208 Y153.73 E.01674
G1 X139.148 Y150.67 E.13576
G1 X138.614 Y150.67 E.01674
G1 X141.675 Y153.73 E.13576
G1 X141.141 Y153.73 E.01674
G1 X138.081 Y150.67 E.13576
G1 X137.547 Y150.67 E.01674
G1 X140.607 Y153.73 E.13576
G1 X140.074 Y153.73 E.01674
G1 X137.014 Y150.67 E.13576
G1 X136.48 Y150.67 E.01674
G1 X139.54 Y153.73 E.13576
G1 X139.007 Y153.73 E.01674
G1 X135.947 Y150.67 E.13576
G1 X135.413 Y150.67 E.01674
G1 X138.473 Y153.73 E.13576
G1 X137.94 Y153.73 E.01674
G1 X134.88 Y150.67 E.13576
G1 X134.346 Y150.67 E.01674
G1 X137.406 Y153.73 E.13576
G1 X136.873 Y153.73 E.01674
G1 X133.812 Y150.67 E.13576
G1 X133.279 Y150.67 E.01674
G1 X136.339 Y153.73 E.13576
G1 X135.806 Y153.73 E.01674
G1 X132.745 Y150.67 E.13576
G1 X132.212 Y150.67 E.01674
G1 X135.272 Y153.73 E.13576
G1 X134.739 Y153.73 E.01674
G1 X131.678 Y150.67 E.13576
G1 X131.145 Y150.67 E.01674
G1 X134.205 Y153.73 E.13576
G1 X133.671 Y153.73 E.01674
G1 X130.611 Y150.67 E.13576
G1 X130.078 Y150.67 E.01674
G1 X133.138 Y153.73 E.13576
G1 X132.604 Y153.73 E.01674
G1 X129.544 Y150.67 E.13576
G1 X129.011 Y150.67 E.01674
G1 X132.071 Y153.73 E.13576
G1 X131.537 Y153.73 E.01674
G1 X128.477 Y150.67 E.13576
G1 X127.944 Y150.67 E.01674
G1 X131.004 Y153.73 E.13576
G1 X130.47 Y153.73 E.01674
G1 X127.41 Y150.67 E.13576
G1 X126.876 Y150.67 E.01674
G1 X129.937 Y153.73 E.13576
G1 X129.403 Y153.73 E.01674
G1 X126.343 Y150.67 E.13576
G1 X125.809 Y150.67 E.01674
G1 X128.87 Y153.73 E.13576
G1 X128.336 Y153.73 E.01674
G1 X125.276 Y150.67 E.13576
G1 X124.742 Y150.67 E.01674
G1 X127.803 Y153.73 E.13576
G1 X127.269 Y153.73 E.01674
G1 X124.209 Y150.67 E.13576
G1 X123.675 Y150.67 E.01674
G1 X126.736 Y153.73 E.13576
G1 X126.202 Y153.73 E.01674
G1 X123.142 Y150.67 E.13576
G1 X122.608 Y150.67 E.01674
G1 X125.668 Y153.73 E.13576
G1 X125.135 Y153.73 E.01674
G1 X121.905 Y150.5 E.14329
G1 E-4.2 F3600
;WIPE_START
G1 F7200
G1 X124.451 Y153.046 E-1.71
;WIPE_END
G1 E-.09 F3600
G1 X121.25 Y130.638 F9000
G1 E6 F2400
G1 F1200
G1 X120.682 Y130.07 E.02519
G1 X120.148 Y130.07 E.01674
G1 X121.08 Y131.002 E.04134
G1 X121.08 Y131.535 E.01674
G1 X119.615 Y130.07 E.06501
G1 X119.081 Y130.07 E.01674
G1 X121.08 Y132.069 E.08867
G1 X121.08 Y132.602 E.01674
G1 X118.548 Y130.07 E.11234
G1 X118.014 Y130.07 E.01674
G1 X121.08 Y133.136 E.13601
G1 X121.08 Y133.669 E.01674
G1 X117.481 Y130.07 E.15968
G1 X116.947 Y130.07 E.01674
G1 X121.08 Y134.203 E.18335
G1 X121.08 Y134.736 E.01674
G1 X116.414 Y130.07 E.20702
G1 X115.88 Y130.07 E.01674
G1 X121.08 Y135.27 E.23069
G1 X121.08 Y135.803 E.01674
G1 X115.347 Y130.07 E.25436
G1 X114.813 Y130.07 E.01674
G1 X121.08 Y136.337 E.27803
G1 X121.08 Y136.87 E.01674
G1 X114.28 Y130.07 E.3017
G1 X113.746 Y130.07 E.01674
G1 X121.08 Y137.404 E.32537
G1 X121.08 Y137.938 E.01674
G1 X113.212 Y130.07 E.34904
G1 X112.679 Y130.07 E.01674
G1 X121.08 Y138.471 E.37271
G1 X121.08 Y139.005 E.01674
G1 X112.145 Y130.07 E.39638
G1 X111.612 Y130.07 E.01674
G1 X121.08 Y139.538 E.42005
G1 X121.08 Y140.072 E.01674
G1 X111.078 Y130.07 E.44372
G1 X110.545 Y130.07 E.01674
G1 X121.08 Y140.605 E.46739
G1 X121.08 Y141.139 E.01674
G1 X110.011 Y130.07 E.49106
G1 X109.478 Y130.07 E.01674
G1 X121.08 Y141.672 E.51473
G1 X121.08 Y142.206 E.01674
G1 X108.944 Y130.07 E.5384
G1 X108.411 Y130.07 E.01674
G1 X121.08 Y142.739 E.56207
G1 X121.08 Y143.273 E.01674
G1 X108.02 Y130.213 E.5794
G1 X108.02 Y130.746 E.01674
G1 X121.08 Y143.806 E.5794
G1 X121.08 Y144.34 E.01674
G1 X108.02 Y131.28 E.5794
G1 X108.02 Y131.813 E.01674
G1 X121.08 Y144.874 E.5794
G1 X121.08 Y145.407 E.01674
G1 X108.02 Y132.347 E.5794
G1 X108.02 Y132.88 E.01674
G1 X121.08 Y145.941 E.5794
G1 X121.08 Y146.474 E.01674
G1 X108.02 Y133.414 E.5794
G1 X108.02 Y133.947 E.01674
G1 X121.08 Y147.008 E.5794
G1 X121.08 Y147.541 E.01674
G1 X108.02 Y134.481 E.5794
G1 X108.02 Y135.014 E.01674
G1 X121.08 Y148.075 E.5794
G1 X121.08 Y148.608 E.01674
G1 X108.02 Y135.548 E.5794
G1 X108.02 Y136.082 E.01674
G1 X121.08 Y149.142 E.5794
G1 X121.08 Y149.675 E.01674
G1 X108.02 Y136.615 E.5794
G1 X108.02 Y137.149 E.01674
G1 X121.08 Y150.209 E.5794
G1 X121.08 Y150.67 E.01446
G1 X121.541 Y150.67 E.01446
G1 X124.601 Y153.73 E.13576
G1 X124.068 Y153.73 E.01674
G1 X108.02 Y137.682 E.71195
G1 X108.02 Y138.216 E.01674
G1 X123.534 Y153.73 E.68828
G1 X123.001 Y153.73 E.01674
G1 X108.02 Y138.749 E.66461
G1 X108.02 Y139.283 E.01674
G1 X122.467 Y153.73 E.64094
G1 X121.934 Y153.73 E.01674
G1 X108.02 Y139.816 E.61727
G1 X108.02 Y140.35 E.01674
G1 X121.4 Y153.73 E.5936
G1 X120.867 Y153.73 E.01674
G1 X108.02 Y140.883 E.56993
G1 X108.02 Y141.417 E.01674
G1 X120.333 Y153.73 E.54626
G1 X119.8 Y153.73 E.01674
G1 X108.02 Y141.95 E.52259
G1 X108.02 Y142.484 E.01674
G1 X119.266 Y153.73 E.49892
G1 X118.733 Y153.73 E.01674
G1 X108.02 Y143.017 E.47525
G1 X108.02 Y143.551 E.01674
G1 X118.199 Y153.73 E.45158
G1 X117.665 Y153.73 E.01674
G1 X108.02 Y144.085 E.42791
G1 X108.02 Y144.618 E.01674
G1 X117.132 Y153.73 E.40424
G1 X116.598 Y153.73 E.01674
G1 X108.02 Y145.152 E.38057
G1 X108.02 Y145.685 E.01674
G1 X116.065 Y153.73 E.3569
G1 X115.531 Y153.73 E.01674
G1 X108.02 Y146.219 E.33323
G1 X108.02 Y146.752 E.01674
G1 X114.998 Y153.73 E.30957
G1 X114.464 Y153.73 E.01674
G1 X108.02 Y147.286 E.2859
G1 X108.02 Y147.819 E.01674
G1 X113.931 Y153.73 E.26223
G1 X113.397 Y153.73 E.01674
G1 X108.02 Y148.353 E.23856
G1 X108.02 Y148.886 E.01674
G1 X112.864 Y153.73 E.21489
G1 X112.33 Y153.73 E.01674
G1 X108.02 Y149.42 E.19122
G1 X108.02 Y149.953 E.01674
G1 X111.797 Y153.73 E.16755
G1 X111.263 Y153.73 E.01674
G1 X108.02 Y150.487 E.14388
G1 X108.02 Y150.67 E.00574
G1 X107.669 Y150.67 E.011
G1 X110.73 Y153.73 E.13576
G1 X110.196 Y153.73 E.01674
G1 X107.136 Y150.67 E.13576
G1 X106.602 Y150.67 E.01674
G1 X109.662 Y153.73 E.13576
G1 X109.129 Y153.73 E.01674
G1 X106.069 Y150.67 E.13576
G1 X105.535 Y150.67 E.01674
G1 X108.595 Y153.73 E.13576
G1 X108.062 Y153.73 E.01674
G1 X105.002 Y150.67 E.13576
G1 X104.468 Y150.67 E.01674
G1 X107.528 Y153.73 E.13576
G1 X106.995 Y153.73 E.01674
G1 X103.934 Y150.67 E.13576
G1 X103.401 Y150.67 E.01674
G1 X106.461 Y153.73 E.13576
G1 X105.928 Y153.73 E.01674
G1 X102.867 Y150.67 E.13576
G1 X102.334 Y150.67 E.01674
G1 X105.394 Y153.73 E.13576
G1 X104.861 Y153.73 E.01674
G1 X101.8 Y150.67 E.13576
G1 X101.267 Y150.67 E.01674
G1 X104.327 Y153.73 E.13576
G1 X103.794 Y153.73 E.01674
G1 X100.733 Y150.67 E.13576
G1 X100.2 Y150.67 E.01674
G1 X103.26 Y153.73 E.13576
G1 X102.726 Y153.73 E.01674
G1 X99.666 Y150.67 E.13576
G1 X99.133 Y150.67 E.01674
G1 X102.193 Y153.73 E.13576
G1 X101.659 Y153.73 E.01674
G1 X98.599 Y150.67 E.13576
G1 X98.066 Y150.67 E.01674
G1 X101.126 Y153.73 E.13576
G1 X100.592 Y153.73 E.01674
G1 X97.532 Y150.67 E.13576
G1 X96.999 Y150.67 E.01674
G1 X100.059 Y153.73 E.13576
G1 X99.525 Y153.73 E.01674
G1 X96.465 Y150.67 E.13576
G1 X95.931 Y150.67 E.01674
G1 X98.992 Y153.73 E.13576
G1 X98.458 Y153.73 E.01674
G1 X95.398 Y150.67 E.13576
G1 X94.864 Y150.67 E.01674
G1 X97.925 Y153.73 E.13576
G1 X97.391 Y153.73 E.01674
G1 X94.331 Y150.67 E.13576
G1 X93.797 Y150.67 E.01674
G1 X96.858 Y153.73 E.13576
G1 X96.324 Y153.73 E.01674
G1 X93.264 Y150.67 E.13576
G1 X92.73 Y150.67 E.01674
G1 X95.791 Y153.73 E.13576
G1 X95.257 Y153.73 E.01674
G1 X92.197 Y150.67 E.13576
G1 X91.663 Y150.67 E.01674
G1 X94.723 Y153.73 E.13576
G1 X94.19 Y153.73 E.01674
G1 X91.13 Y150.67 E.13576
G1 X90.596 Y150.67 E.01674
G1 X93.656 Y153.73 E.13576
G1 X93.123 Y153.73 E.01674
G1 X90.063 Y150.67 E.13576
G1 X89.529 Y150.67 E.01674
G1 X92.589 Y153.73 E.13576
G1 X92.056 Y153.73 E.01674
G1 X88.996 Y150.67 E.13576
G1 X88.462 Y150.67 E.01674
G1 X91.522 Y153.73 E.13576
G1 X90.989 Y153.73 E.01674
G1 X87.928 Y150.67 E.13576
G1 X87.395 Y150.67 E.01674
G1 X90.455 Y153.73 E.13576
G1 X89.922 Y153.73 E.01674
G1 X86.861 Y150.67 E.13576
G1 X86.328 Y150.67 E.01674
G1 X89.388 Y153.73 E.13576
G1 X88.855 Y153.73 E.01674
G1 X85.794 Y150.67 E.13576
G1 X85.261 Y150.67 E.01674
G1 X88.321 Y153.73 E.13576
G1 X87.788 Y153.73 E.01674
G1 X84.727 Y150.67 E.13576
G1 X84.194 Y150.67 E.01674
G1 X87.254 Y153.73 E.13576
G1 X86.72 Y153.73 E.01674
G1 X83.66 Y150.67 E.13576
G1 X83.127 Y150.67 E.01674
G1 X86.187 Y153.73 E.13576
G1 X85.653 Y153.73 E.01674
G1 X82.593 Y150.67 E.13576
G1 X82.06 Y150.67 E.01674
G1 X85.12 Y153.73 E.13576
G1 X84.586 Y153.73 E.01674
G1 X81.526 Y150.67 E.13576
G1 X80.993 Y150.67 E.01674
G1 X84.053 Y153.73 E.13576
G1 X83.519 Y153.73 E.01674
G1 X80.459 Y150.67 E.13576
G1 X79.925 Y150.67 E.01674
G1 X82.986 Y153.73 E.13576
G1 X82.452 Y153.73 E.01674
G1 X79.392 Y150.67 E.13576
G1 X78.858 Y150.67 E.01674
G1 X81.919 Y153.73 E.13576
G1 X81.385 Y153.73 E.01674
G1 X78.325 Y150.67 E.13576
G1 X77.791 Y150.67 E.01674
G1 X80.852 Y153.73 E.13576
G1 X80.318 Y153.73 E.01674
G1 X77.258 Y150.67 E.13576
G1 X76.724 Y150.67 E.01674
G1 X79.784 Y153.73 E.13576
G1 X79.251 Y153.73 E.01674
G1 X76.191 Y150.67 E.13576
G1 X75.657 Y150.67 E.01674
G1 X78.717 Y153.73 E.13576
G1 X78.184 Y153.73 E.01674
G1 X75.124 Y150.67 E.13576
G1 X74.59 Y150.67 E.01674
G1 X77.65 Y153.73 E.13576
G1 X77.117 Y153.73 E.01674
G1 X74.057 Y150.67 E.13576
G1 X73.523 Y150.67 E.01674
G1 X76.583 Y153.73 E.13576
G1 X76.05 Y153.73 E.01674
G1 X72.989 Y150.67 E.13576
G1 X72.456 Y150.67 E.01674
G1 X75.516 Y153.73 E.13576
G1 X74.983 Y153.73 E.01674
G1 X71.922 Y150.67 E.13576
G1 X71.389 Y150.67 E.01674
G1 X74.449 Y153.73 E.13576
G1 X73.916 Y153.73 E.01674
G1 X70.855 Y150.67 E.13576
G1 X70.322 Y150.67 E.01674
G1 X73.382 Y153.73 E.13576
G1 X72.849 Y153.73 E.01674
G1 X69.788 Y150.67 E.13576
G1 X69.255 Y150.67 E.01674
G1 X72.315 Y153.73 E.13576
G1 X71.781 Y153.73 E.01674
G1 X68.721 Y150.67 E.13576
G1 X68.188 Y150.67 E.01674
G1 X71.248 Y153.73 E.13576
G1 X70.714 Y153.73 E.01674
G1 X67.654 Y150.67 E.13576
G1 X67.121 Y150.67 E.01674
G1 X70.181 Y153.73 E.13576
G1 X69.647 Y153.73 E.01674
G1 X66.587 Y150.67 E.13576
G1 X66.054 Y150.67 E.01674
G1 X69.114 Y153.73 E.13576
G1 X68.58 Y153.73 E.01674
G1 X65.52 Y150.67 E.13577
G1 X65.52 Y151.203 E.01673
G1 X68.58 Y154.264 E.13576
G1 X68.58 Y154.797 E.01674
G1 X65.52 Y151.737 E.13576
G1 X65.52 Y152.27 E.01674
G1 X68.58 Y155.331 E.13576
G1 X68.58 Y155.864 E.01674
G1 X65.52 Y152.804 E.13576
G1 X65.52 Y153.337 E.01674
G1 X68.58 Y156.398 E.13576
G1 X68.58 Y156.931 E.01674
