; generated by PrusaSlicer 2.4.2 on 2022-06-26 at 23:19:39 UTC

; 

; external perimeters extrusion width = 0.45mm
; perimeters extrusion width = 0.45mm
; infill extrusion width = 0.45mm
; solid infill extrusion width = 0.45mm
; top infill extrusion width = 0.40mm
; first layer extrusion width = 0.42mm

M107
;TYPE:Custom
G90 ; use absolute coordinates
M83 ; extruder relative mode
M140 S60 ; set final bed temp
M104 S150 ; set temporary nozzle temp to prevent oozing during homing
G4 S10 ; allow partial nozzle warmup
G28 ; home all axis
G1 Z50 F240
G1 X2 Y10 F3000
M104 S205 ; set final nozzle temp
M190 S60 ; wait for bed temp to stabilize
M109 S205 ; wait for nozzle temp to stabilize
G1 Z0.28 F240
G92 E0
G1 Y140 E10 F1500 ; prime the nozzle
G1 X2.3 F5000
G92 E0
G1 Y10 E10 F1200 ; prime the nozzle
G92 E0
G21 ; set units to millimeters
G90 ; use absolute coordinates
M83 ; use relative distances for extrusion
; Filament gcode
M107
;LAYER_CHANGE
;Z:0.2
;HEIGHT:0.2
;BEFORE_LAYER_CHANGE
G92 E0
;0.2


G1 E-6 F3600
G1 Z.2 F9000
;AFTER_LAYER_CHANGE
;0.2
G1 X107.387 Y107.387
G1 E6 F2400
M204 S500
;TYPE:Skirt/Brim
;WIDTH:0.42
G1 F1200
G1 X172.162 Y42.612 E2.87223
G1 X173.56 Y41.771 E.05115
G1 X174.55 Y41.623 E.03138
G1 X245.45 Y41.623 E2.22302
G1 X247.033 Y42.017 E.05115
G1 X248.247 Y43.107 E.05115
G1 X248.827 Y45 E.06207
G1 X248.827 Y145 E3.13543
G1 X248.751 Y145.712 E.02247
G1 X222.851 Y265.712 E3.84915
G1 X222.132 Y267.177 E.05115
G1 X220.81 Y268.133 E.05115
G1 X219.55 Y268.377 E.04024
G1 X174.244 Y268.363 E1.42053
G1 X64.244 Y258.363 E3.4632
G1 X62.703 Y257.827 E.05115
G1 X61.593 Y256.632 E.05115
G1 X61.173 Y255 E.05283
G1 X61.173 Y155 E3.13543
G1 X61.567 Y153.417 E.05115
G1 X62.162 Y152.612 E.03138
G1 X107.345 Y107.429 E2.00347
G1 E-4.2 F3600
;WIPE_START
G1 F7200
G1 X109.89 Y104.884 E-1.71
;WIPE_END
G1 E-.09 F3600
G1 X181.414 Y260.765 F9000
G1 E6 F2400
;TYPE:External perimeter
G1 F1200
G1 X181.726 Y260.67 E.01021
G1 X182.03 Y260.64 E.00959
G1 X182.373 Y260.67 E.01079
G1 X182.686 Y260.765 E.01025
G1 X182.973 Y260.919 E.01021
G1 X183.225 Y261.125 E.01021
G1 X183.431 Y261.377 E.01021
G1 X183.585 Y261.664 E.01021
G1 X183.68 Y261.976 E.01021
G1 X183.712 Y262.3 E.01021
G1 X183.68 Y262.624 E.01021
G1 X183.585 Y262.936 E.01021
G1 X183.431 Y263.223 E.01021
G1 X183.225 Y263.475 E.01021
G1 X182.973 Y263.681 E.01021
G1 X182.686 Y263.835 E.01021
G1 X182.374 Y263.93 E.01021
G1 X182.05 Y263.961 E.01021
G1 X181.726 Y263.93 E.01021
G1 X181.414 Y263.835 E.01021
G1 X181.127 Y263.681 E.01021
G1 X180.875 Y263.475 E.01021
G1 X180.669 Y263.223 E.01021
G1 X180.515 Y262.936 E.01021
G1 X180.42 Y262.624 E.01021
G1 X180.389 Y262.3 E.01021
G1 X180.42 Y261.976 E.01021
G1 X180.515 Y261.664 E.01021
G1 X180.669 Y261.377 E.01021
G1 X180.875 Y261.125 E.01021
G1 X181.127 Y260.919 E.01021
G1 X181.361 Y260.793 E.00833
G1 X181.457 Y260.442 F9000
G1 E-4.2 F3600
;WIPE_START
G1 F7200
G1 X181.726 Y260.67 E-.18276
G1 X182.03 Y260.64 E-.14524
G1 X182.373 Y260.67 E-.16342
G1 X182.686 Y260.765 E-.15532
G1 X182.973 Y260.919 E-.15471
G1 X183.225 Y261.125 E-.15471
G1 X183.431 Y261.377 E-.1547
G1 X183.585 Y261.664 E-.15471
G1 X183.68 Y261.976 E-.15472
G1 X183.712 Y262.3 E-.15471
G1 X183.684 Y262.583 E-.13499
;WIPE_END
G1 E-.09 F3600
G1 X184.087 Y169.713 F9000
G1 E6 F2400
;TYPE:Perimeter
G1 F1200
G1 X184.087 Y242.687 E2.28805
G1 X183.153 Y242.687 E.02929
G1 X183.493 Y242.957 E.01361
G1 X183.747 Y243.266 E.01254
G1 X183.935 Y243.619 E.01254
G1 X184.051 Y244.002 E.01254
G1 X184.09 Y244.4 E.01254
G1 X184.051 Y244.798 E.01254
G1 X183.935 Y245.181 E.01254
G1 X183.747 Y245.534 E.01254
G1 X183.493 Y245.843 E.01254
G1 X183.184 Y246.097 E.01254
G1 X182.831 Y246.285 E.01254
G1 X182.448 Y246.401 E.01254
G1 X182.05 Y246.44 E.01254
G1 X181.652 Y246.401 E.01254
G1 X181.269 Y246.285 E.01254
G1 X180.916 Y246.097 E.01254
G1 X180.607 Y245.843 E.01254
G1 X180.353 Y245.534 E.01254
G1 X180.165 Y245.181 E.01254
G1 X180.049 Y244.798 E.01254
G1 X180.01 Y244.4 E.01254
G1 X180.049 Y244.002 E.01254
G1 X180.165 Y243.619 E.01254
G1 X180.353 Y243.266 E.01254
G1 X180.607 Y242.957 E.01254
G1 X180.947 Y242.687 E.01361
G1 X180.013 Y242.687 E.02929
G1 X180.013 Y169.713 E2.28805
G1 X184.027 Y169.713 E.12586
G1 X183.71 Y170.09 F9000
;TYPE:External perimeter
G1 F1200
G1 X183.71 Y242.31 E2.26441
G1 X180.39 Y242.31 E.1041
G1 X180.39 Y170.09 E2.26441
G1 X183.65 Y170.09 E.10221
G1 X184.059 Y169.895 F9000
G1 E-4.2 F3600
;WIPE_START
G1 F7200
G1 X183.653 Y173.69 E-1.71
;WIPE_END
G1 E-.09 F3600
G1 X182.03 Y242.74 F9000
G1 E6 F2400
G1 F1200
G1 X182.373 Y242.77 E.01079
G1 X182.686 Y242.865 E.01025
G1 X182.973 Y243.019 E.01021
G1 X183.225 Y243.225 E.01021
G1 X183.431 Y243.477 E.01021
G1 X183.585 Y243.764 E.01021
G1 X183.68 Y244.076 E.01021
G1 X183.712 Y244.4 E.01021
G1 X183.68 Y244.724 E.01021
G1 X183.585 Y245.036 E.01021
G1 X183.431 Y245.323 E.01021
G1 X183.225 Y245.575 E.01021
G1 X182.973 Y245.781 E.01021
G1 X182.686 Y245.935 E.01021
G1 X182.374 Y246.03 E.01021
G1 X182.05 Y246.061 E.01021
G1 X181.726 Y246.03 E.01021
G1 X181.414 Y245.935 E.01021
G1 X181.127 Y245.781 E.01021
G1 X180.875 Y245.575 E.01021
G1 X180.669 Y245.323 E.01021
G1 X180.515 Y245.036 E.01021
G1 X180.42 Y244.724 E.01021
G1 X180.389 Y244.4 E.01021
G1 X180.42 Y244.076 E.01021
G1 X180.515 Y243.764 E.01021
G1 X180.669 Y243.477 E.01021
G1 X180.875 Y243.225 E.01021
G1 X181.127 Y243.019 E.01021
G1 X181.414 Y242.865 E.01021
G1 X181.726 Y242.77 E.01021
G1 X181.97 Y242.746 E.00771
G1 X182.199 Y242.441 F9000
G1 E-4.2 F3600
;WIPE_START
G1 F7200
G1 X182.373 Y242.77 E-.19151
G1 X182.686 Y242.865 E-.15532
G1 X182.973 Y243.019 E-.15472
G1 X183.225 Y243.225 E-.15471
G1 X183.431 Y243.477 E-.15471
G1 X183.585 Y243.764 E-.15472
G1 X183.68 Y244.076 E-.15471
G1 X183.712 Y244.4 E-.15471
G1 X183.68 Y244.724 E-.15472
G1 X183.585 Y245.036 E-.15471
G1 X183.461 Y245.269 E-.12547
;WIPE_END
G1 E-.09 F3600
G1 X181.269 Y260.415 F9000
G1 E6 F2400
;TYPE:Perimeter
G1 F1200
G1 X180.916 Y260.603 E.01254
G1 X180.607 Y260.857 E.01254
G1 X180.353 Y261.166 E.01254
G1 X180.165 Y261.519 E.01254
G1 X180.049 Y261.902 E.01254
G1 X180.01 Y262.3 E.01254
G1 X180.049 Y262.698 E.01254
G1 X180.165 Y263.081 E.01254
G1 X180.353 Y263.434 E.01254
G1 X180.607 Y263.743 E.01254
G1 X180.916 Y263.997 E.01254
G1 X181.269 Y264.185 E.01254
G1 X181.652 Y264.301 E.01254
G1 X181.771 Y264.313 E.00375
G1 X175.237 Y264.313 E.20487
G1 X175.237 Y165.687 E3.09234
G1 X188.863 Y165.687 E.42723
G1 X188.863 Y264.313 E3.09234
G1 X182.329 Y264.313 E.20487
G1 X182.448 Y264.301 E.00375
G1 X182.831 Y264.185 E.01254
G1 X183.184 Y263.997 E.01254
G1 X183.493 Y263.743 E.01254
G1 X183.747 Y263.434 E.01254
G1 X183.935 Y263.081 E.01254
G1 X184.051 Y262.698 E.01254
G1 X184.09 Y262.3 E.01254
G1 X184.051 Y261.902 E.01254
G1 X183.935 Y261.519 E.01254
G1 X183.747 Y261.166 E.01254
G1 X183.493 Y260.857 E.01254
G1 X183.184 Y260.603 E.01254
G1 X182.831 Y260.415 E.01254
G1 X182.445 Y260.298 E.01265
G1 X182.028 Y260.262 E.01312
G1 X181.652 Y260.299 E.01184
G1 X181.327 Y260.398 E.01066
G1 E-4.2 F3600
;WIPE_START
G1 F7200
G1 X180.916 Y260.603 E-.21801
G1 X180.607 Y260.857 E-.18999
G1 X180.353 Y261.166 E-.18999
G1 X180.165 Y261.519 E-.18999
G1 X180.049 Y261.902 E-.19
G1 X180.01 Y262.3 E-.18999
G1 X180.049 Y262.698 E-.18999
G1 X180.165 Y263.081 E-.18999
G1 X180.326 Y263.382 E-.16204
;WIPE_END
G1 E-.09 F3600
G1 X174.86 Y264.69 F9000
G1 E6 F2400
;TYPE:External perimeter
G1 F1200
G1 X174.86 Y165.31 E3.11599
G1 X189.24 Y165.31 E.45087
G1 X189.24 Y264.69 E3.11599
G1 X174.92 Y264.69 E.44899
G1 X174.879 Y264.29 F9000
G1 E-4.2 F3600
;WIPE_START
G1 F7200
G1 X174.918 Y261.09 E-1.71
;WIPE_END
G1 E-.09 F3600
G1 X181.128 Y242.633 F9000
G1 E6 F2400
;TYPE:Gap fill
;WIDTH:0.246318
G1 F1200
G1 X181.313 Y242.596 E.0032
;WIDTH:0.238518
G1 X181.434 Y242.578 E.00199
;WIDTH:0.202643
G1 X181.555 Y242.56 E.00162
;WIDTH:0.166768
G1 X181.676 Y242.543 E.00126
;WIDTH:0.130892
G1 X181.685 Y242.542 E.00006
;WIDTH:0.129206
G1 X182.026 Y242.525 E.00245
;WIDTH:0.0956224
G1 X182.031 Y242.525 E.00002
;WIDTH:0.128454
G1 X182.412 Y242.541 E.00271
;WIDTH:0.130172
G1 X182.421 Y242.542 E.00007
;WIDTH:0.166288
G1 X182.543 Y242.56 E.00126
;WIDTH:0.202404
G1 X182.665 Y242.578 E.00163
;WIDTH:0.23852
G1 X182.787 Y242.596 E.002
;WIDTH:0.24632
G1 X182.972 Y242.633 E.0032
G1 E-4.2 F3600
;WIPE_START
G1 F7200
G1 X182.787 Y242.596 E-.08976
;WIPE_END
G1 E-1.71024 F3600
G1 X187.985 Y165.8 F9000
G1 E6 F2400
;TYPE:Solid infill
;WIDTH:0.421424
G1 F1200
G1 X188.58 Y166.396 E.02651
G1 X188.58 Y166.931 E.01685
G1 X187.619 Y165.97 E.04278
G1 X187.084 Y165.97 E.01685
G1 X188.58 Y167.466 E.06661
G1 X188.58 Y168.002 E.01685
G1 X186.548 Y165.97 E.09043
G1 X186.013 Y165.97 E.01685
G1 X188.58 Y168.537 E.11426
G1 X188.58 Y169.072 E.01685
G1 X185.478 Y165.97 E.13808
G1 X184.943 Y165.97 E.01685
G1 X188.58 Y169.608 E.16191
G1 X188.58 Y170.143 E.01685
G1 X184.407 Y165.97 E.18573
G1 X183.872 Y165.97 E.01685
G1 X188.58 Y170.678 E.20956
G1 X188.58 Y171.213 E.01685
G1 X183.337 Y165.97 E.23338
G1 X182.801 Y165.97 E.01685
G1 X188.58 Y171.749 E.25721
G1 X188.58 Y172.284 E.01685
G1 X182.266 Y165.97 E.28103
G1 X181.731 Y165.97 E.01685
G1 X188.58 Y172.819 E.30486
G1 X188.58 Y173.355 E.01685
G1 X181.196 Y165.97 E.32868
G1 X180.66 Y165.97 E.01685
G1 X188.58 Y173.89 E.35251
G1 X188.58 Y174.425 E.01685
G1 X184.37 Y170.215 E.1874
G1 X184.37 Y170.75 E.01685
G1 X188.58 Y174.96 E.1874
G1 X188.58 Y175.496 E.01685
G1 X184.37 Y171.285 E.1874
G1 X184.37 Y171.821 E.01685
G1 X188.58 Y176.031 E.1874
G1 X188.58 Y176.566 E.01685
G1 X184.37 Y172.356 E.1874
G1 X184.37 Y172.891 E.01685
G1 X188.58 Y177.102 E.1874
G1 X188.58 Y177.637 E.01685
G1 X184.37 Y173.427 E.1874
G1 X184.37 Y173.962 E.01685
G1 X188.58 Y178.172 E.1874
G1 X188.58 Y178.707 E.01685
G1 X184.37 Y174.497 E.1874
G1 X184.37 Y175.032 E.01685
G1 X188.58 Y179.243 E.1874
G1 X188.58 Y179.778 E.01685
G1 X184.37 Y175.568 E.1874
G1 X184.37 Y176.103 E.01685
G1 X188.58 Y180.313 E.1874
G1 X188.58 Y180.848 E.01685
G1 X184.37 Y176.638 E.1874
G1 X184.37 Y177.174 E.01685
G1 X188.58 Y181.384 E.1874
G1 X188.58 Y181.919 E.01685
G1 X184.37 Y177.709 E.1874
G1 X184.37 Y178.244 E.01685
G1 X188.58 Y182.454 E.1874
G1 X188.58 Y182.99 E.01685
G1 X184.37 Y178.779 E.1874
G1 X184.37 Y179.315 E.01685
G1 X188.58 Y183.525 E.1874
G1 X188.58 Y184.06 E.01685
G1 X184.37 Y179.85 E.1874
G1 X184.37 Y180.385 E.01685
G1 X188.58 Y184.595 E.1874
G1 X188.58 Y185.131 E.01685
G1 X184.37 Y180.921 E.1874
G1 X184.37 Y181.456 E.01685
G1 X188.58 Y185.666 E.1874
G1 X188.58 Y186.201 E.01685
G1 X184.37 Y181.991 E.1874
G1 X184.37 Y182.526 E.01685
G1 X188.58 Y186.737 E.1874
G1 X188.58 Y187.272 E.01685
G1 X184.37 Y183.062 E.1874
G1 X184.37 Y183.597 E.01685
G1 X188.58 Y187.807 E.1874
G1 X188.58 Y188.342 E.01685
G1 X184.37 Y184.132 E.1874
G1 X184.37 Y184.668 E.01685
G1 X188.58 Y188.878 E.1874
G1 X188.58 Y189.413 E.01685
G1 X184.37 Y185.203 E.1874
G1 X184.37 Y185.738 E.01685
G1 X188.58 Y189.948 E.1874
G1 X188.58 Y190.484 E.01685
G1 X184.37 Y186.273 E.1874
G1 X184.37 Y186.809 E.01685
G1 X188.58 Y191.019 E.1874
G1 X188.58 Y191.554 E.01685
G1 X184.37 Y187.344 E.1874
G1 X184.37 Y187.879 E.01685
G1 X188.58 Y192.089 E.1874
G1 X188.58 Y192.625 E.01685
G1 X184.37 Y188.415 E.1874
G1 X184.37 Y188.95 E.01685
G1 X188.58 Y193.16 E.1874
G1 X188.58 Y193.695 E.01685
G1 X184.37 Y189.485 E.1874
G1 X184.37 Y190.02 E.01685
G1 X188.58 Y194.231 E.1874
G1 X188.58 Y194.766 E.01685
G1 X184.37 Y190.556 E.1874
G1 X184.37 Y191.091 E.01685
G1 X188.58 Y195.301 E.1874
G1 X188.58 Y195.836 E.01685
G1 X184.37 Y191.626 E.1874
G1 X184.37 Y192.162 E.01685
G1 X188.58 Y196.372 E.1874
G1 X188.58 Y196.907 E.01685
G1 X184.37 Y192.697 E.1874
G1 X184.37 Y193.232 E.01685
G1 X188.58 Y197.442 E.1874
G1 X188.58 Y197.978 E.01685
G1 X184.37 Y193.767 E.1874
G1 X184.37 Y194.303 E.01685
G1 X188.58 Y198.513 E.1874
G1 X188.58 Y199.048 E.01685
G1 X184.37 Y194.838 E.1874
G1 X184.37 Y195.373 E.01685
G1 X188.58 Y199.583 E.1874
G1 X188.58 Y200.119 E.01685
G1 X184.37 Y195.909 E.1874
G1 X184.37 Y196.444 E.01685
G1 X188.58 Y200.654 E.1874
G1 X188.58 Y201.189 E.01685
G1 X184.37 Y196.979 E.1874
G1 X184.37 Y197.514 E.01685
G1 X188.58 Y201.725 E.1874
G1 X188.58 Y202.26 E.01685
G1 X184.37 Y198.05 E.1874
G1 X184.37 Y198.585 E.01685
G1 X188.58 Y202.795 E.1874
G1 X188.58 Y203.33 E.01685
G1 X184.37 Y199.12 E.1874
G1 X184.37 Y199.656 E.01685
G1 X188.58 Y203.866 E.1874
G1 X188.58 Y204.401 E.01685
G1 X184.37 Y200.191 E.1874
G1 X184.37 Y200.726 E.01685
G1 X188.58 Y204.936 E.1874
G1 X188.58 Y205.472 E.01685
G1 X184.37 Y201.261 E.1874
G1 X184.37 Y201.797 E.01685
G1 X188.58 Y206.007 E.1874
G1 X188.58 Y206.542 E.01685
G1 X184.37 Y202.332 E.1874
G1 X184.37 Y202.867 E.01685
G1 X188.58 Y207.077 E.1874
G1 X188.58 Y207.613 E.01685
G1 X184.37 Y203.403 E.1874
G1 X184.37 Y203.938 E.01685
G1 X188.58 Y208.148 E.1874
G1 X188.58 Y208.683 E.01685
G1 X184.37 Y204.473 E.1874
G1 X184.37 Y205.008 E.01685
G1 X188.58 Y209.219 E.1874
G1 X188.58 Y209.754 E.01685
G1 X184.37 Y205.544 E.1874
G1 X184.37 Y206.079 E.01685
G1 X188.58 Y210.289 E.1874
G1 X188.58 Y210.824 E.01685
G1 X184.37 Y206.614 E.1874
G1 X184.37 Y207.15 E.01685
G1 X188.58 Y211.36 E.1874
G1 X188.58 Y211.895 E.01685
G1 X184.37 Y207.685 E.1874
G1 X184.37 Y208.22 E.01685
G1 X188.58 Y212.43 E.1874
G1 X188.58 Y212.966 E.01685
G1 X184.37 Y208.755 E.1874
G1 X184.37 Y209.291 E.01685
G1 X188.58 Y213.501 E.1874
G1 X188.58 Y214.036 E.01685
G1 X184.37 Y209.826 E.1874
G1 X184.37 Y210.361 E.01685
G1 X188.58 Y214.571 E.1874
G1 X188.58 Y215.107 E.01685
G1 X184.37 Y210.897 E.1874
G1 X184.37 Y211.432 E.01685
G1 X188.58 Y215.642 E.1874
G1 X188.58 Y216.177 E.01685
G1 X184.37 Y211.967 E.1874
G1 X184.37 Y212.502 E.01685
G1 X188.58 Y216.713 E.1874
G1 X188.58 Y217.248 E.01685
G1 X184.37 Y213.038 E.1874
G1 X184.37 Y213.573 E.01685
G1 X188.58 Y217.783 E.1874
G1 X188.58 Y218.318 E.01685
G1 X184.37 Y214.108 E.1874
G1 X184.37 Y214.644 E.01685
G1 X188.58 Y218.854 E.1874
G1 X188.58 Y219.389 E.01685
G1 X184.37 Y215.179 E.1874
G1 X184.37 Y215.714 E.01685
G1 X188.58 Y219.924 E.1874
G1 X188.58 Y220.46 E.01685
G1 X184.37 Y216.249 E.1874
G1 X184.37 Y216.785 E.01685
G1 X188.58 Y220.995 E.1874
G1 X188.58 Y221.53 E.01685
G1 X184.37 Y217.32 E.1874
G1 X184.37 Y217.855 E.01685
G1 X188.58 Y222.065 E.1874
G1 X188.58 Y222.601 E.01685
G1 X184.37 Y218.391 E.1874
G1 X184.37 Y218.926 E.01685
G1 X188.58 Y223.136 E.1874
G1 X188.58 Y223.671 E.01685
G1 X184.37 Y219.461 E.1874
G1 X184.37 Y219.996 E.01685
G1 X188.58 Y224.207 E.1874
G1 X188.58 Y224.742 E.01685
G1 X184.37 Y220.532 E.1874
G1 X184.37 Y221.067 E.01685
G1 X188.58 Y225.277 E.1874
G1 X188.58 Y225.812 E.01685
G1 X184.37 Y221.602 E.1874
G1 X184.37 Y222.137 E.01685
G1 X188.58 Y226.348 E.1874
G1 X188.58 Y226.883 E.01685
G1 X184.37 Y222.673 E.1874
G1 X184.37 Y223.208 E.01685
G1 X188.58 Y227.418 E.1874
G1 X188.58 Y227.954 E.01685
G1 X184.37 Y223.743 E.1874
G1 X184.37 Y224.279 E.01685
G1 X188.58 Y228.489 E.1874
G1 X188.58 Y229.024 E.01685
G1 X184.37 Y224.814 E.1874
G1 X184.37 Y225.349 E.01685
G1 X188.58 Y229.559 E.1874
G1 X188.58 Y230.095 E.01685
G1 X184.37 Y225.884 E.1874
G1 X184.37 Y226.42 E.01685
G1 X188.58 Y230.63 E.1874
G1 X188.58 Y231.165 E.01685
G1 X184.37 Y226.955 E.1874
G1 X184.37 Y227.49 E.01685
G1 X188.58 Y231.701 E.1874
G1 X188.58 Y232.236 E.01685
G1 X184.37 Y228.026 E.1874
G1 X184.37 Y228.561 E.01685
G1 X188.58 Y232.771 E.1874
G1 X188.58 Y233.306 E.01685
G1 X184.37 Y229.096 E.1874
G1 X184.37 Y229.631 E.01685
G1 X188.58 Y233.842 E.1874
G1 X188.58 Y234.377 E.01685
G1 X184.37 Y230.167 E.1874
G1 X184.37 Y230.702 E.01685
G1 X188.58 Y234.912 E.1874
G1 X188.58 Y235.448 E.01685
G1 X184.37 Y231.237 E.1874
G1 X184.37 Y231.773 E.01685
G1 X188.58 Y235.983 E.1874
G1 X188.58 Y236.518 E.01685
G1 X184.37 Y232.308 E.1874
G1 X184.37 Y232.843 E.01685
G1 X188.58 Y237.053 E.1874
G1 X188.58 Y237.589 E.01685
G1 X184.37 Y233.378 E.1874
G1 X184.37 Y233.914 E.01685
G1 X188.58 Y238.124 E.1874
G1 X188.58 Y238.659 E.01685
G1 X184.37 Y234.449 E.1874
G1 X184.37 Y234.984 E.01685
G1 X188.58 Y239.195 E.1874
G1 X188.58 Y239.73 E.01685
G1 X184.37 Y235.52 E.1874
G1 X184.37 Y236.055 E.01685
