; generated by PrusaSlicer 2.4.2 on 2022-06-26 at 23:23:29 UTC

; 

; external perimeters extrusion width = 0.45mm
; perimeters extrusion width = 0.45mm
; infill extrusion width = 0.45mm
; solid infill extrusion width = 0.45mm
; top infill extrusion width = 0.40mm
; first layer extrusion width = 0.42mm

; external perimeters extrusion width = 0.45mm
; perimeters extrusion width = 0.45mm
; infill extrusion width = 0.45mm
; solid infill extrusion width = 0.45mm
; top infill extrusion width = 0.40mm
; first layer extrusion width = 0.42mm

M107
;TYPE:Custom
G90 ; use absolute coordinates
M83 ; extruder relative mode
M140 S60 ; set final bed temp
M104 S150 ; set temporary nozzle temp to prevent oozing during homing
G4 S10 ; allow partial nozzle warmup
G28 ; home all axis
G1 Z50 F240
G1 X2 Y10 F3000
M104 S205 ; set final nozzle temp
M190 S60 ; wait for bed temp to stabilize
M109 S205 ; wait for nozzle temp to stabilize
G1 Z0.28 F240
G92 E0
G1 Y140 E10 F1500 ; prime the nozzle
G1 X2.3 F5000
G92 E0
G1 Y10 E10 F1200 ; prime the nozzle
G92 E0
G21 ; set units to millimeters
G90 ; use absolute coordinates
M83 ; use relative distances for extrusion
; Filament gcode
M107
;LAYER_CHANGE
;Z:0.2
;HEIGHT:0.2
;BEFORE_LAYER_CHANGE
G92 E0
;0.2


G1 E-6 F3600
G1 Z.2 F9000
;AFTER_LAYER_CHANGE
;0.2
G1 X149.242 Y140.501
G1 E6 F2400
M204 S500
;TYPE:Skirt/Brim
;WIDTH:0.42
G1 F1200
G1 X151.5 Y139.746 E.07467
G1 X158.642 Y139.749 E.22392
G1 X171.025 Y140.216 E.38854
G1 X172.684 Y140.673 E.05397
G1 X173.965 Y141.823 E.05397
G1 X174.637 Y143.967 E.07044
G1 X174.637 Y166.967 E.72115
G1 X174.243 Y168.643 E.05397
G1 X173.142 Y169.966 E.05397
G1 X170.883 Y170.721 E.07467
G1 X167.776 Y170.72 E.09742
G1 X151.393 Y170.253 E.51389
G1 X149.729 Y169.81 E.05397
G1 X148.438 Y168.672 E.05397
G1 X147.746 Y166.5 E.07148
G1 X147.746 Y143.5 E.72115
G1 X148.141 Y141.824 E.05397
G1 X149.203 Y140.547 E.05209
G1 X149.504 Y140.818 F9000
G1 F1200
G1 X149.607 Y140.703 E.00483
G1 X151.5 Y140.123 E.06207
G1 X158.627 Y140.125 E.22347
G1 X171.011 Y140.593 E.38854
G1 X172.578 Y141.046 E.05115
G1 X173.749 Y142.181 E.05115
G1 X174.26 Y143.967 E.05824
G1 X174.26 Y166.967 E.72115
G1 X173.866 Y168.55 E.05115
G1 X172.776 Y169.764 E.05115
G1 X170.883 Y170.344 E.06207
G1 X167.787 Y170.343 E.09708
G1 X151.404 Y169.876 E.51389
G1 X149.832 Y169.437 E.05115
G1 X148.65 Y168.312 E.05115
G1 X148.123 Y166.5 E.05918
G1 X148.123 Y143.5 E.72115
G1 X148.517 Y141.917 E.05115
G1 X149.464 Y140.862 E.04444
G1 E-4.2 F3600
;WIPE_START
G1 F7200
G1 X149.607 Y140.703 E-.10168
G1 X151.5 Y140.123 E-.94035
G1 X152.906 Y140.123 E-.66797
;WIPE_END
G1 E-.09 F3600
G1 X154.696 Y162.168 F9000
G1 E6 F2400
;TYPE:External perimeter
G1 F1200
G1 X155 Y162.139 E.00959
G1 X155.324 Y162.17 E.01021
G1 X155.636 Y162.265 E.01021
G1 X155.923 Y162.419 E.01021
G1 X156.175 Y162.625 E.01021
G1 X156.381 Y162.877 E.01021
G1 X156.535 Y163.164 E.01021
G1 X156.63 Y163.476 E.01021
G1 X156.661 Y163.8 E.01021
G1 X156.63 Y164.124 E.01021
G1 X156.535 Y164.436 E.01021
G1 X156.381 Y164.723 E.01021
G1 X156.175 Y164.975 E.01021
G1 X155.923 Y165.181 E.01021
G1 X155.636 Y165.335 E.01021
G1 X155.324 Y165.43 E.01021
G1 X155 Y165.462 E.01021
G1 X154.676 Y165.43 E.01021
G1 X154.364 Y165.335 E.01021
G1 X154.077 Y165.181 E.01021
G1 X153.825 Y164.975 E.01021
G1 X153.619 Y164.723 E.01021
G1 X153.465 Y164.436 E.01021
G1 X153.37 Y164.124 E.01021
G1 X153.339 Y163.8 E.01021
G1 X153.37 Y163.476 E.01021
G1 X153.465 Y163.164 E.01021
G1 X153.619 Y162.877 E.01021
G1 X153.825 Y162.625 E.01021
G1 X154.077 Y162.419 E.01021
G1 X154.365 Y162.264 E.01025
G1 X154.638 Y162.185 E.00891
G1 X154.795 Y161.879 F9000
G1 E-4.2 F3600
;WIPE_START
G1 F7200
G1 X155 Y162.139 E-.17333
G1 X155.324 Y162.17 E-.15471
G1 X155.636 Y162.265 E-.15471
G1 X155.923 Y162.419 E-.15471
G1 X156.175 Y162.625 E-.15471
G1 X156.381 Y162.877 E-.15471
G1 X156.535 Y163.164 E-.15471
G1 X156.63 Y163.476 E-.15472
G1 X156.661 Y163.8 E-.15471
G1 X156.63 Y164.124 E-.15471
G1 X156.541 Y164.415 E-.14425
;WIPE_END
G1 E-.09 F3600
G1 X155 Y147.562 F9000
G1 E6 F2400
G1 F1200
G1 X154.676 Y147.53 E.01021
G1 X154.364 Y147.435 E.01021
G1 X154.077 Y147.281 E.01021
G1 X153.825 Y147.075 E.01021
G1 X153.619 Y146.823 E.01021
G1 X153.465 Y146.536 E.01021
G1 X153.37 Y146.224 E.01021
G1 X153.339 Y145.9 E.01021
G1 X153.37 Y145.576 E.01021
G1 X153.465 Y145.264 E.01021
G1 X153.619 Y144.977 E.01021
G1 X153.825 Y144.725 E.01021
G1 X154.077 Y144.519 E.01021
G1 X154.365 Y144.364 E.01025
G1 X154.696 Y144.268 E.01079
G1 X155 Y144.238 E.00959
G1 X155.324 Y144.27 E.01021
G1 X155.636 Y144.365 E.01021
G1 X155.923 Y144.519 E.01021
G1 X156.175 Y144.725 E.01021
G1 X156.381 Y144.977 E.01021
G1 X156.535 Y145.264 E.01021
G1 X156.63 Y145.576 E.01021
G1 X156.661 Y145.9 E.01021
G1 X156.63 Y146.224 E.01021
G1 X156.535 Y146.536 E.01021
G1 X156.381 Y146.823 E.01021
G1 X156.175 Y147.075 E.01021
G1 X155.923 Y147.281 E.01021
G1 X155.636 Y147.435 E.01021
G1 X155.324 Y147.53 E.01021
G1 X155.06 Y147.556 E.00833
G1 X154.837 Y147.844 F9000
G1 E-4.2 F3600
;WIPE_START
G1 F7200
G1 X154.676 Y147.53 E-.18275
G1 X154.364 Y147.435 E-.15471
G1 X154.077 Y147.281 E-.15471
G1 X153.825 Y147.075 E-.15471
G1 X153.619 Y146.823 E-.15471
G1 X153.465 Y146.536 E-.15471
G1 X153.37 Y146.224 E-.15471
G1 X153.339 Y145.9 E-.15471
G1 X153.37 Y145.576 E-.15471
G1 X153.465 Y145.264 E-.15471
G1 X153.599 Y145.014 E-.13484
;WIPE_END
G1 E-.09 F3600
G1 X154.222 Y161.913 F9000
G1 E6 F2400
;TYPE:Perimeter
G1 F1200
G1 X153.866 Y162.103 E.01265
G1 X153.557 Y162.357 E.01254
G1 X153.303 Y162.666 E.01254
G1 X153.115 Y163.019 E.01254
G1 X152.999 Y163.402 E.01254
G1 X152.96 Y163.8 E.01254
G1 X152.999 Y164.198 E.01254
G1 X153.115 Y164.581 E.01254
G1 X153.303 Y164.934 E.01254
G1 X153.557 Y165.243 E.01254
G1 X153.866 Y165.497 E.01254
G1 X154.219 Y165.685 E.01254
G1 X154.602 Y165.801 E.01254
G1 X154.721 Y165.813 E.00375
G1 X152.187 Y165.813 E.07945
G1 X152.187 Y144.187 E.67806
G1 X153.897 Y144.187 E.05362
G1 X153.557 Y144.457 E.01361
G1 X153.303 Y144.766 E.01254
G1 X153.115 Y145.119 E.01254
G1 X152.999 Y145.502 E.01254
G1 X152.96 Y145.9 E.01254
G1 X152.999 Y146.298 E.01254
G1 X153.115 Y146.681 E.01254
G1 X153.303 Y147.034 E.01254
G1 X153.557 Y147.343 E.01254
G1 X153.866 Y147.597 E.01254
G1 X154.219 Y147.785 E.01254
G1 X154.602 Y147.901 E.01254
G1 X155 Y147.94 E.01254
G1 X155.398 Y147.901 E.01254
G1 X155.781 Y147.785 E.01254
G1 X156.134 Y147.597 E.01254
G1 X156.443 Y147.343 E.01254
G1 X156.697 Y147.034 E.01254
G1 X156.885 Y146.681 E.01254
G1 X157.001 Y146.298 E.01254
G1 X157.04 Y145.9 E.01254
G1 X157.001 Y145.502 E.01254
G1 X156.885 Y145.119 E.01254
G1 X156.697 Y144.766 E.01254
G1 X156.443 Y144.457 E.01254
G1 X156.103 Y144.187 E.01361
G1 X157.813 Y144.187 E.05362
G1 X157.813 Y165.813 E.67806
G1 X155.279 Y165.813 E.07945
G1 X155.398 Y165.801 E.00375
G1 X155.781 Y165.685 E.01254
G1 X156.134 Y165.497 E.01254
G1 X156.443 Y165.243 E.01254
G1 X156.697 Y164.934 E.01254
G1 X156.885 Y164.581 E.01254
G1 X157.001 Y164.198 E.01254
G1 X157.04 Y163.8 E.01254
G1 X157.001 Y163.402 E.01254
G1 X156.885 Y163.019 E.01254
G1 X156.697 Y162.666 E.01254
G1 X156.443 Y162.357 E.01254
G1 X156.134 Y162.103 E.01254
G1 X155.781 Y161.915 E.01254
G1 X155.398 Y161.799 E.01254
G1 X155 Y161.76 E.01254
G1 X154.624 Y161.797 E.01184
G1 X154.28 Y161.897 E.01124
G1 E-4.2 F3600
;WIPE_START
G1 F7200
G1 X153.866 Y162.103 E-.21965
G1 X153.557 Y162.357 E-.18999
G1 X153.303 Y162.666 E-.18999
G1 X153.115 Y163.019 E-.19
G1 X152.999 Y163.402 E-.19
G1 X152.96 Y163.8 E-.19
G1 X152.999 Y164.198 E-.19
G1 X153.115 Y164.581 E-.19
G1 X153.274 Y164.879 E-.16038
;WIPE_END
G1 E-.09 F3600
G1 X151.81 Y166.19 F9000
G1 E6 F2400
;TYPE:External perimeter
G1 F1200
G1 X151.81 Y143.81 E.70171
G1 X158.19 Y143.81 E.20004
G1 X158.19 Y166.19 E.70171
G1 X151.87 Y166.19 E.19816
G1 X151.847 Y165.792 F9000
G1 E-4.2 F3600
;WIPE_START
G1 F7200
G1 X151.86 Y162.59 E-1.71
;WIPE_END
G1 E-.09 F3600
G1 X154.078 Y144.133 F9000
G1 E6 F2400
;TYPE:Gap fill
;WIDTH:0.245126
G1 F1200
G1 X154.267 Y144.096 E.00324
;WIDTH:0.237034
G1 X154.394 Y144.078 E.00207
;WIDTH:0.200899
G1 X154.521 Y144.059 E.00169
;WIDTH:0.164763
G1 X154.648 Y144.041 E.0013
;WIDTH:0.128628
G1 X154.656 Y144.041 E.00006
;WIDTH:0.127132
G1 X154.998 Y144.024 E.0024
;WIDTH:0.0935523
G1 X155.002 Y144.024 E.00002
;WIDTH:0.129206
G1 X155.365 Y144.042 E.00261
;WIDTH:0.130892
G1 X155.374 Y144.043 E.00006
;WIDTH:0.166774
G1 X155.495 Y144.06 E.00126
;WIDTH:0.202657
G1 X155.616 Y144.078 E.00162
;WIDTH:0.23854
G1 X155.737 Y144.096 E.00199
;WIDTH:0.246338
G1 X155.922 Y144.133 E.0032
G1 X156.931 Y144.3 F9000
;TYPE:Solid infill
;WIDTH:0.422984
G1 F1200
G1 X157.53 Y144.899 E.02677
G1 X157.53 Y145.437 E.01699
G1 X157.167 Y145.073 E.01625
G1 X157.28 Y145.447 E.01233
G1 X157.31 Y145.754 E.00977
G1 X157.53 Y145.974 E.00983
G1 X157.53 Y146.512 E.01699
G1 X157.288 Y146.27 E.01081
G1 X157.28 Y146.353 E.00266
G1 X157.176 Y146.695 E.01128
G1 X157.53 Y147.049 E.01582
G1 X157.53 Y147.587 E.01699
G1 X157.003 Y147.06 E.02355
G1 X156.933 Y147.191 E.00472
G1 X156.782 Y147.376 E.00753
G1 X157.53 Y148.124 E.03345
G1 X157.53 Y148.662 E.01699
G1 X156.517 Y147.648 E.0453
G1 X156.291 Y147.833 E.0092
G1 X156.208 Y147.877 E.00298
G1 X157.53 Y149.199 E.05907
G1 X157.53 Y149.737 E.01699
G1 X155.852 Y148.059 E.07498
G1 X155.438 Y148.181 E.01367
G1 X157.53 Y150.274 E.09352
G1 X157.53 Y150.812 E.01699
G1 X154.748 Y148.029 E.12435
G1 E-4.2 F3600
;WIPE_START
G1 F7200
G1 X157.293 Y150.575 E-1.71
;WIPE_END
G1 E-.09 F3600
G1 X153.148 Y144.817 F9000
G1 E6 F2400
G1 F1200
G1 X152.801 Y144.47 E.01552
G1 X152.47 Y144.47 E.01046
G1 X152.47 Y144.676 E.00652
G1 X152.841 Y145.048 E.01659
G1 X152.719 Y145.462 E.01367
G1 X152.47 Y145.214 E.01111
G1 X152.47 Y145.751 E.01699
G1 X152.871 Y146.152 E.01792
G1 X152.3 Y146.119 F9000
G1 F1200
G1 X152.801 Y146.62 E.02238
G1 X152.852 Y146.79 E.00561
G1 X153.067 Y147.191 E.0144
G1 X153.356 Y147.544 E.0144
G1 X153.709 Y147.833 E.0144
G1 X154.11 Y148.048 E.0144
G1 X154.28 Y148.099 E.00561
G1 X157.53 Y151.349 E.14525
G1 X157.53 Y151.886 E.01699
G1 X152.47 Y146.826 E.22616
G1 X152.47 Y147.364 E.01699
G1 X157.53 Y152.424 E.22616
G1 X157.53 Y152.961 E.01699
G1 X152.47 Y147.901 E.22616
G1 X152.47 Y148.439 E.01699
G1 X157.53 Y153.499 E.22616
G1 X157.53 Y154.036 E.01699
G1 X152.47 Y148.976 E.22616
G1 X152.47 Y149.514 E.01699
G1 X157.53 Y154.574 E.22616
G1 X157.53 Y155.111 E.01699
G1 X152.47 Y150.051 E.22616
G1 X152.47 Y150.589 E.01699
G1 X157.53 Y155.649 E.22616
G1 X157.53 Y156.186 E.01699
G1 X152.47 Y151.126 E.22616
G1 X152.47 Y151.664 E.01699
G1 X157.53 Y156.724 E.22616
G1 X157.53 Y157.261 E.01699
G1 X152.47 Y152.201 E.22616
G1 X152.47 Y152.739 E.01699
G1 X157.53 Y157.799 E.22616
G1 X157.53 Y158.336 E.01699
G1 X152.47 Y153.276 E.22616
G1 X152.47 Y153.814 E.01699
G1 X157.53 Y158.874 E.22616
G1 X157.53 Y159.411 E.01699
G1 X152.47 Y154.351 E.22616
G1 X152.47 Y154.889 E.01699
G1 X157.53 Y159.949 E.22616
G1 X157.53 Y160.486 E.01699
G1 X152.47 Y155.426 E.22616
G1 X152.47 Y155.964 E.01699
G1 X157.53 Y161.024 E.22616
G1 X157.53 Y161.561 E.01699
G1 X152.47 Y156.501 E.22616
G1 X152.47 Y157.039 E.01699
G1 X157.53 Y162.099 E.22616
G1 X157.53 Y162.636 E.01699
G1 X152.47 Y157.576 E.22616
G1 X152.47 Y158.114 E.01699
G1 X157.7 Y163.344 E.23374
G1 X157.075 Y163.256 F9000
G1 F1200
G1 X157.53 Y163.711 E.02033
G1 X157.53 Y164.249 E.01699
G1 X157.303 Y164.021 E.01016
G1 X157.28 Y164.254 E.00737
G1 X157.214 Y164.47 E.00716
G1 X157.53 Y164.786 E.01412
G1 X157.53 Y165.324 E.01699
G1 X157.06 Y164.854 E.02101
G1 X156.933 Y165.091 E.00852
G1 X156.855 Y165.186 E.00387
G1 X157.199 Y165.53 E.01537
G1 X156.661 Y165.53 E.01699
G1 X156.485 Y165.354 E.00787
G1 E-4.2 F3600
;WIPE_START
G1 F7200
G1 X156.661 Y165.53 E-.11825
G1 X157.199 Y165.53 E-.25531
G1 X156.855 Y165.186 E-.23103
G1 X156.933 Y165.091 E-.05822
G1 X157.06 Y164.854 E-.12811
G1 X157.53 Y165.324 E-.31585
G1 X157.53 Y164.786 E-.25531
G1 X157.214 Y164.47 E-.21227
G1 X157.28 Y164.254 E-.10762
G1 X157.286 Y164.195 E-.02806
;WIPE_END
G1 E-.09 F3600
G1 X155.544 Y161.725 F9000
G1 E6 F2400
G1 F1200
G1 X152.47 Y158.651 E.13737
G1 X152.47 Y159.189 E.01699
G1 X154.779 Y161.497 E.10318
G1 X154.57 Y161.518 E.00661
G1 X154.331 Y161.587 E.00787
G1 X152.47 Y159.726 E.08318
G1 X152.47 Y160.264 E.01699
G1 X153.946 Y161.74 E.06599
G1 X153.709 Y161.867 E.00852
G1 X153.614 Y161.945 E.00387
G1 X152.47 Y160.801 E.05112
G1 X152.47 Y161.339 E.01699
G1 X153.325 Y162.194 E.03823
G1 X153.083 Y162.489 E.01207
G1 X152.47 Y161.876 E.0274
G1 X152.47 Y162.414 E.01699
G1 X152.892 Y162.836 E.01888
G1 X152.852 Y162.91 E.00267
G1 X152.754 Y163.235 E.01072
G1 X152.47 Y162.951 E.01269
G1 X152.47 Y163.488 E.01699
G1 X152.685 Y163.704 E.00961
G1 X152.675 Y163.8 E.00306
G1 X152.73 Y164.286 E.01546
G1 X152.47 Y164.026 E.01162
G1 X152.47 Y164.563 E.01699
G1 X153.437 Y165.53 E.0432
G1 X152.899 Y165.53 E.01699
G1 X152.3 Y164.931 E.02676
G1 E-4.2 F3600
;WIPE_START
G1 F7200
G1 X152.899 Y165.53 E-.40227
G1 X153.437 Y165.53 E-.25531
G1 X152.47 Y164.563 E-.64935
G1 X152.47 Y164.026 E-.25531
G1 X152.69 Y164.246 E-.14776
;WIPE_END
G1 E-.09 F3600
G1 X168.57 Y166.28 F9000
G1 E6 F2400
;TYPE:Perimeter
;WIDTH:0.42
G1 F1200
G1 X168.57 Y144.654 E.67806
G1 X170.196 Y144.654 E.05098
G1 X170.196 Y166.28 E.67806
G1 X168.63 Y166.28 E.0491
G1 X168.193 Y166.657 F9000
;TYPE:External perimeter
G1 F1200
G1 X168.193 Y144.277 E.70171
G1 X170.573 Y144.277 E.07462
G1 X170.573 Y166.657 E.70171
G1 X168.253 Y166.657 E.07274
G1 X168.207 Y166.257 F9000
G1 E-4.2 F3600
;WIPE_START
G1 F7200
G1 X168.244 Y163.057 E-1.71
;WIPE_END
G1 E-.09 F3600
G1 X170.083 Y145.547 F9000
G1 E6 F2400
;TYPE:Solid infill
;WIDTH:0.428034
G1 F1200
G1 X169.473 Y144.937 E.02761
G1 X168.929 Y144.937 E.01744
G1 X169.913 Y145.922 E.04459
G1 X169.913 Y146.466 E.01744
G1 X168.853 Y145.406 E.04801
G1 X168.853 Y145.951 E.01744
G1 X169.913 Y147.011 E.04801
G1 X169.913 Y147.556 E.01744
G1 X168.853 Y146.495 E.04801
G1 X168.853 Y147.04 E.01744
G1 X169.913 Y148.1 E.04801
G1 X169.913 Y148.645 E.01744
G1 X168.853 Y147.585 E.04801
G1 X168.853 Y148.129 E.01744
G1 X169.913 Y149.189 E.04801
G1 X169.913 Y149.734 E.01744
G1 X168.853 Y148.674 E.04801
G1 X168.853 Y149.219 E.01744
G1 X169.913 Y150.279 E.04801
G1 X169.913 Y150.823 E.01744
G1 X168.853 Y149.763 E.04801
G1 X168.853 Y150.308 E.01744
G1 X169.913 Y151.368 E.04801
G1 X169.913 Y151.913 E.01744
G1 X168.853 Y150.852 E.04801
G1 X168.853 Y151.397 E.01744
G1 X169.913 Y152.457 E.04801
G1 X169.913 Y153.002 E.01744
G1 X168.853 Y151.942 E.04801
G1 X168.853 Y152.486 E.01744
G1 X169.913 Y153.547 E.04801
G1 X169.913 Y154.091 E.01744
G1 X168.853 Y153.031 E.04801
G1 X168.853 Y153.576 E.01744
G1 X169.913 Y154.636 E.04801
G1 X169.913 Y155.18 E.01744
G1 X168.853 Y154.12 E.04801
G1 X168.853 Y154.665 E.01744
G1 X169.913 Y155.725 E.04801
G1 X169.913 Y156.27 E.01744
G1 X168.853 Y155.209 E.04801
G1 X168.853 Y155.754 E.01744
G1 X169.913 Y156.814 E.04801
G1 X169.913 Y157.359 E.01744
G1 X168.853 Y156.299 E.04801
G1 X168.853 Y156.843 E.01744
G1 X169.913 Y157.904 E.04801
G1 X169.913 Y158.448 E.01744
G1 X168.853 Y157.388 E.04801
G1 X168.853 Y157.933 E.01744
G1 X169.913 Y158.993 E.04801
G1 X169.913 Y159.538 E.01744
G1 X168.853 Y158.477 E.04801
G1 X168.853 Y159.022 E.01744
G1 X169.913 Y160.082 E.04801
G1 X169.913 Y160.627 E.01744
G1 X168.853 Y159.567 E.04801
G1 X168.853 Y160.111 E.01744
G1 X169.913 Y161.171 E.04801
G1 X169.913 Y161.716 E.01744
G1 X168.853 Y160.656 E.04801
G1 X168.853 Y161.2 E.01744
G1 X169.913 Y162.261 E.04801
G1 X169.913 Y162.805 E.01744
G1 X168.853 Y161.745 E.04801
G1 X168.853 Y162.29 E.01744
G1 X169.913 Y163.35 E.04801
G1 X169.913 Y163.895 E.01744
G1 X168.853 Y162.834 E.04801
G1 X168.853 Y163.379 E.01744
G1 X169.913 Y164.439 E.04801
G1 X169.913 Y164.984 E.01744
G1 X168.853 Y163.924 E.04801
G1 X168.853 Y164.468 E.01744
G1 X169.913 Y165.529 E.04801
G1 X169.913 Y165.997 E.01501
G1 X169.838 Y165.997 E.00243
G1 X168.853 Y165.013 E.04458
G1 X168.853 Y165.558 E.01744
G1 X169.463 Y166.167 E.0276
M106 S255
;LAYER_CHANGE
;Z:0.36
;HEIGHT:0.16
;BEFORE_LAYER_CHANGE
G92 E0
;0.36


