; generated by PrusaSlicer 2.4.2 on 2022-06-27 at 14:46:58 UTC

; 

; external perimeters extrusion width = 0.45mm
; perimeters extrusion width = 0.45mm
; infill extrusion width = 0.45mm
; solid infill extrusion width = 0.45mm
; top infill extrusion width = 0.45mm
; first layer extrusion width = 0.42mm

M107
;TYPE:Custom
G90 ; use absolute coordinates
M83 ; extruder relative mode
M140 S60 ; set final bed temp
M104 S150 ; set temporary nozzle temp to prevent oozing during homing
G4 S10 ; allow partial nozzle warmup
G28 ; home all axis
G1 Z50 F240
G1 X2 Y10 F3000
M104 S205 ; set final nozzle temp
M190 S60 ; wait for bed temp to stabilize
M109 S205 ; wait for nozzle temp to stabilize
G1 Z0.28 F240
G92 E0
G1 Y140 E10 F1500 ; prime the nozzle
G1 X2.3 F5000
G92 E0
G1 Y10 E10 F1200 ; prime the nozzle
G92 E0
G21 ; set units to millimeters
G90 ; use absolute coordinates
M83 ; use relative distances for extrusion
; Filament gcode
M107
;LAYER_CHANGE
;Z:0.2
;HEIGHT:0.2
;BEFORE_LAYER_CHANGE
G92 E0
;0.2


G1 E-6 F3600
G1 Z.2 F9000
;AFTER_LAYER_CHANGE
;0.2
G1 X117.657 Y126.753
G1 E6 F2400
M204 S500
;TYPE:Skirt/Brim
;WIDTH:0.42
G1 F1200
G1 X119.55 Y126.173 E.06207
G1 X190.45 Y126.173 E2.22302
G1 X192.033 Y126.567 E.05115
G1 X193.247 Y127.657 E.05115
G1 X193.827 Y129.55 E.06207
G1 X193.827 Y180.45 E1.59593
G1 X193.433 Y182.033 E.05115
G1 X192.343 Y183.247 E.05115
G1 X190.45 Y183.827 E.06207
G1 X119.55 Y183.827 E2.22302
G1 X117.967 Y183.433 E.05115
G1 X116.753 Y182.343 E.05115
G1 X116.173 Y180.45 E.06207
G1 X116.173 Y129.55 E1.59593
G1 X116.567 Y127.967 E.05115
G1 X117.617 Y126.798 E.04927
G1 E-4.2 F3600
;WIPE_START
G1 F7200
G1 X119.55 Y126.173 E-.96489
G1 X121.119 Y126.173 E-.74511
;WIPE_END
G1 E-.09 F3600
G1 X186.369 Y176.827 F9000
G1 E6 F2400
;TYPE:External perimeter
G1 F1200
G1 X186.575 Y176.575 E.01021
G1 X186.827 Y176.369 E.01021
G1 X187.114 Y176.215 E.01021
G1 X187.426 Y176.12 E.01021
G1 X187.73 Y176.09 E.00959
G1 X188.073 Y176.12 E.01079
G1 X188.386 Y176.215 E.01025
G1 X188.673 Y176.369 E.01021
G1 X188.925 Y176.575 E.01021
G1 X189.131 Y176.827 E.01021
G1 X189.285 Y177.114 E.01021
G1 X189.38 Y177.426 E.01021
G1 X189.412 Y177.75 E.01021
G1 X189.38 Y178.074 E.01021
G1 X189.285 Y178.386 E.01021
G1 X189.131 Y178.673 E.01021
G1 X188.925 Y178.925 E.01021
G1 X188.673 Y179.131 E.01021
G1 X188.386 Y179.285 E.01021
G1 X188.074 Y179.38 E.01021
G1 X187.75 Y179.411 E.01021
G1 X187.426 Y179.38 E.01021
G1 X187.114 Y179.285 E.01021
G1 X186.827 Y179.131 E.01021
G1 X186.575 Y178.925 E.01021
G1 X186.369 Y178.673 E.01021
G1 X186.215 Y178.386 E.01021
G1 X186.12 Y178.074 E.01021
G1 X186.088 Y177.75 E.01021
G1 X186.12 Y177.426 E.01021
G1 X186.215 Y177.114 E.01021
G1 X186.34 Y176.88 E.00833
G1 X186.224 Y176.535 F9000
G1 E-4.2 F3600
;WIPE_START
G1 F7200
G1 X186.575 Y176.575 E-.18275
G1 X186.827 Y176.369 E-.15471
G1 X187.114 Y176.215 E-.15471
G1 X187.426 Y176.12 E-.15471
G1 X187.73 Y176.09 E-.14523
G1 X188.073 Y176.12 E-.16342
G1 X188.386 Y176.215 E-.15532
G1 X188.673 Y176.369 E-.15471
G1 X188.925 Y176.575 E-.15471
G1 X189.131 Y176.827 E-.15471
G1 X189.265 Y177.078 E-.13499
;WIPE_END
G1 E-.09 F3600
G1 X188.029 Y179.763 F9000
G1 E6 F2400
;TYPE:Perimeter
G1 F1200
G1 X188.148 Y179.751 E.00375
G1 X188.531 Y179.635 E.01254
G1 X188.884 Y179.447 E.01254
G1 X189.193 Y179.193 E.01254
G1 X189.447 Y178.884 E.01254
G1 X189.635 Y178.531 E.01254
G1 X189.751 Y178.148 E.01254
G1 X189.763 Y178.029 E.00375
G1 X189.763 Y179.763 E.05436
G1 X188.089 Y179.763 E.05248
G1 E-4.2 F3600
;WIPE_START
G1 F7200
G1 X188.148 Y179.751 E-.0286
G1 X188.531 Y179.635 E-.18999
G1 X188.884 Y179.447 E-.19
G1 X189.193 Y179.193 E-.18999
G1 X189.447 Y178.884 E-.19
G1 X189.635 Y178.531 E-.18999
G1 X189.751 Y178.148 E-.19
G1 X189.763 Y178.029 E-.0568
G1 X189.763 Y179.049 E-.48463
;WIPE_END
G1 E-.09 F3600
G1 X189.763 Y131.971 F9000
G1 E6 F2400
G1 F1200
G1 X189.751 Y131.852 E.00375
G1 X189.635 Y131.469 E.01254
G1 X189.447 Y131.116 E.01254
G1 X189.193 Y130.807 E.01254
G1 X188.884 Y130.553 E.01254
G1 X188.531 Y130.365 E.01254
G1 X188.145 Y130.248 E.01265
G1 X188.021 Y130.237 E.0039
G1 X189.763 Y130.237 E.05462
G1 X189.763 Y131.911 E.05248
G1 X189.382 Y131.948 F9000
;TYPE:External perimeter
G1 F1200
G1 X189.412 Y132.25 E.0095
G1 X189.38 Y132.574 E.01021
G1 X189.285 Y132.886 E.01021
G1 X189.131 Y133.173 E.01021
G1 X188.925 Y133.425 E.01021
G1 X188.673 Y133.631 E.01021
G1 X188.386 Y133.785 E.01021
G1 X188.074 Y133.88 E.01021
G1 X187.75 Y133.911 E.01021
G1 X187.426 Y133.88 E.01021
G1 X187.114 Y133.785 E.01021
G1 X186.827 Y133.631 E.01021
G1 X186.575 Y133.425 E.01021
G1 X186.369 Y133.173 E.01021
G1 X186.215 Y132.886 E.01021
G1 X186.12 Y132.574 E.01021
G1 X186.088 Y132.25 E.01021
G1 X186.12 Y131.926 E.01021
G1 X186.215 Y131.614 E.01021
G1 X186.369 Y131.327 E.01021
G1 X186.575 Y131.075 E.01021
G1 X186.827 Y130.869 E.01021
G1 X187.114 Y130.715 E.01021
G1 X187.426 Y130.62 E.01021
G1 X187.73 Y130.59 E.00959
G1 X188.073 Y130.62 E.01079
G1 X188.386 Y130.715 E.01025
G1 X188.673 Y130.869 E.01021
G1 X188.925 Y131.075 E.01021
G1 X189.131 Y131.327 E.01021
G1 X189.285 Y131.614 E.01021
G1 X189.369 Y131.89 E.00904
G1 X189.668 Y132.047 F9000
G1 E-4.2 F3600
;WIPE_START
G1 F7200
G1 X189.412 Y132.25 E-.17211
G1 X189.38 Y132.574 E-.15471
G1 X189.285 Y132.886 E-.15472
G1 X189.131 Y133.173 E-.15471
G1 X188.925 Y133.425 E-.15471
G1 X188.673 Y133.631 E-.15471
G1 X188.386 Y133.785 E-.15471
G1 X188.074 Y133.88 E-.15471
G1 X187.75 Y133.911 E-.15471
G1 X187.426 Y133.88 E-.15471
G1 X187.133 Y133.791 E-.14548
;WIPE_END
G1 E-.09 F3600
G1 X185.737 Y134.263 F9000
G1 E6 F2400
;TYPE:Perimeter
G1 F1200
G1 X185.737 Y175.737 E1.30039
G1 X124.263 Y175.737 E1.92748
G1 X124.263 Y134.263 E1.30039
G1 X185.677 Y134.263 E1.9256
G1 X185.36 Y134.64 F9000
;TYPE:External perimeter
G1 F1200
G1 X185.36 Y175.36 E1.27675
G1 X124.64 Y175.36 E1.90383
G1 X124.64 Y134.64 E1.27675
G1 X185.3 Y134.64 E1.90195
G1 X185.752 Y134.562 F9000
G1 E-4.2 F3600
;WIPE_START
G1 F7200
G1 X185.305 Y138.24 E-1.71
;WIPE_END
G1 E-.09 F3600
G1 X186.053 Y176.616 F9000
G1 E6 F2400
;TYPE:Perimeter
G1 F1200
G1 X185.865 Y176.969 E.01254
G1 X185.749 Y177.352 E.01254
G1 X185.71 Y177.75 E.01254
G1 X185.749 Y178.148 E.01254
G1 X185.865 Y178.531 E.01254
G1 X186.053 Y178.884 E.01254
G1 X186.307 Y179.193 E.01254
G1 X186.616 Y179.447 E.01254
G1 X186.969 Y179.635 E.01254
G1 X187.352 Y179.751 E.01254
G1 X187.471 Y179.763 E.00375
G1 X122.529 Y179.763 E2.03621
G1 X122.648 Y179.751 E.00375
G1 X123.031 Y179.635 E.01254
G1 X123.384 Y179.447 E.01254
G1 X123.693 Y179.193 E.01254
G1 X123.947 Y178.884 E.01254
G1 X124.135 Y178.531 E.01254
G1 X124.251 Y178.148 E.01254
G1 X124.29 Y177.75 E.01254
G1 X124.251 Y177.352 E.01254
G1 X124.135 Y176.969 E.01254
G1 X123.947 Y176.616 E.01254
G1 X123.693 Y176.307 E.01254
G1 X123.384 Y176.053 E.01254
G1 X123.031 Y175.865 E.01254
G1 X122.645 Y175.748 E.01265
G1 X122.228 Y175.712 E.01312
G1 X121.852 Y175.749 E.01184
G1 X121.469 Y175.865 E.01254
G1 X121.116 Y176.053 E.01254
G1 X120.807 Y176.307 E.01254
G1 X120.553 Y176.616 E.01254
G1 X120.365 Y176.969 E.01254
G1 X120.249 Y177.352 E.01254
G1 X120.237 Y177.471 E.00375
G1 X120.237 Y132.529 E1.40912
G1 X120.249 Y132.648 E.00375
G1 X120.365 Y133.031 E.01254
G1 X120.553 Y133.384 E.01254
G1 X120.807 Y133.693 E.01254
G1 X121.116 Y133.947 E.01254
G1 X121.469 Y134.135 E.01254
G1 X121.852 Y134.251 E.01254
G1 X122.25 Y134.29 E.01254
G1 X122.648 Y134.251 E.01254
G1 X123.031 Y134.135 E.01254
G1 X123.384 Y133.947 E.01254
G1 X123.693 Y133.693 E.01254
G1 X123.947 Y133.384 E.01254
G1 X124.135 Y133.031 E.01254
G1 X124.251 Y132.648 E.01254
G1 X124.29 Y132.25 E.01254
G1 X124.251 Y131.852 E.01254
G1 X124.135 Y131.469 E.01254
G1 X123.947 Y131.116 E.01254
G1 X123.693 Y130.807 E.01254
G1 X123.384 Y130.553 E.01254
G1 X123.031 Y130.365 E.01254
G1 X122.645 Y130.248 E.01265
G1 X122.521 Y130.237 E.0039
G1 X187.471 Y130.237 E2.03647
G1 X187.352 Y130.249 E.00375
G1 X186.969 Y130.365 E.01254
G1 X186.616 Y130.553 E.01254
G1 X186.307 Y130.807 E.01254
G1 X186.053 Y131.116 E.01254
G1 X185.865 Y131.469 E.01254
G1 X185.749 Y131.852 E.01254
G1 X185.71 Y132.25 E.01254
G1 X185.749 Y132.648 E.01254
G1 X185.865 Y133.031 E.01254
G1 X186.053 Y133.384 E.01254
G1 X186.307 Y133.693 E.01254
G1 X186.616 Y133.947 E.01254
G1 X186.969 Y134.135 E.01254
G1 X187.352 Y134.251 E.01254
G1 X187.75 Y134.29 E.01254
G1 X188.148 Y134.251 E.01254
G1 X188.531 Y134.135 E.01254
G1 X188.884 Y133.947 E.01254
G1 X189.193 Y133.693 E.01254
G1 X189.447 Y133.384 E.01254
G1 X189.635 Y133.031 E.01254
G1 X189.751 Y132.648 E.01254
G1 X189.763 Y132.529 E.00375
G1 X189.763 Y177.471 E1.40912
G1 X189.751 Y177.352 E.00375
G1 X189.635 Y176.969 E.01254
G1 X189.447 Y176.616 E.01254
G1 X189.193 Y176.307 E.01254
G1 X188.884 Y176.053 E.01254
G1 X188.531 Y175.865 E.01254
G1 X188.145 Y175.748 E.01265
G1 X187.728 Y175.712 E.01312
G1 X187.352 Y175.749 E.01184
G1 X186.969 Y175.865 E.01254
G1 X186.616 Y176.053 E.01254
G1 X186.307 Y176.307 E.01254
G1 X186.092 Y176.57 E.01066
G1 E-4.2 F3600
;WIPE_START
G1 F7200
G1 X185.865 Y176.969 E-.21802
G1 X185.749 Y177.352 E-.19
G1 X185.71 Y177.75 E-.18999
G1 X185.749 Y178.148 E-.19
G1 X185.865 Y178.531 E-.19
G1 X186.053 Y178.884 E-.19
G1 X186.307 Y179.193 E-.18999
G1 X186.616 Y179.447 E-.18999
G1 X186.917 Y179.607 E-.16202
;WIPE_END
G1 E-.09 F3600
G1 X121.971 Y130.237 F9000
G1 E6 F2400
G1 F1200
G1 X121.852 Y130.249 E.00375
G1 X121.469 Y130.365 E.01254
G1 X121.116 Y130.553 E.01254
G1 X120.807 Y130.807 E.01254
G1 X120.553 Y131.116 E.01254
G1 X120.365 Y131.469 E.01254
G1 X120.249 Y131.852 E.01254
G1 X120.237 Y131.971 E.00375
G1 X120.237 Y130.237 E.05437
G1 X121.911 Y130.237 E.05248
G1 X121.949 Y130.618 F9000
;TYPE:External perimeter
G1 F1200
G1 X122.23 Y130.59 E.00887
G1 X122.573 Y130.62 E.01079
G1 X122.886 Y130.715 E.01025
G1 X123.173 Y130.869 E.01021
G1 X123.425 Y131.075 E.01021
G1 X123.631 Y131.327 E.01021
G1 X123.785 Y131.614 E.01021
G1 X123.88 Y131.926 E.01021
G1 X123.911 Y132.25 E.01021
G1 X123.88 Y132.574 E.01021
G1 X123.785 Y132.886 E.01021
G1 X123.631 Y133.173 E.01021
G1 X123.425 Y133.425 E.01021
G1 X123.173 Y133.631 E.01021
G1 X122.886 Y133.785 E.01021
G1 X122.574 Y133.88 E.01021
G1 X122.25 Y133.911 E.01021
G1 X121.926 Y133.88 E.01021
G1 X121.614 Y133.785 E.01021
G1 X121.327 Y133.631 E.01021
G1 X121.075 Y133.425 E.01021
G1 X120.869 Y133.173 E.01021
G1 X120.715 Y132.886 E.01021
G1 X120.62 Y132.574 E.01021
G1 X120.589 Y132.25 E.01021
G1 X120.62 Y131.926 E.01021
G1 X120.715 Y131.614 E.01021
G1 X120.869 Y131.327 E.01021
G1 X121.075 Y131.075 E.01021
G1 X121.327 Y130.869 E.01021
G1 X121.614 Y130.715 E.01021
G1 X121.89 Y130.631 E.00905
G1 X122.04 Y130.351 F9000
G1 E-4.2 F3600
;WIPE_START
G1 F7200
G1 X122.23 Y130.59 E-.16261
G1 X122.573 Y130.62 E-.16342
G1 X122.886 Y130.715 E-.15532
G1 X123.173 Y130.869 E-.15472
G1 X123.425 Y131.075 E-.15471
G1 X123.631 Y131.327 E-.15472
G1 X123.785 Y131.614 E-.15471
G1 X123.88 Y131.926 E-.15471
G1 X123.911 Y132.25 E-.15471
G1 X123.88 Y132.574 E-.15471
G1 X123.791 Y132.868 E-.14566
;WIPE_END
G1 E-.09 F3600
G1 X122.23 Y176.09 F9000
G1 E6 F2400
G1 F1200
G1 X122.573 Y176.12 E.01079
G1 X122.886 Y176.215 E.01025
G1 X123.173 Y176.369 E.01021
G1 X123.425 Y176.575 E.01021
G1 X123.631 Y176.827 E.01021
G1 X123.785 Y177.114 E.01021
G1 X123.88 Y177.426 E.01021
G1 X123.911 Y177.75 E.01021
G1 X123.88 Y178.074 E.01021
G1 X123.785 Y178.386 E.01021
G1 X123.631 Y178.673 E.01021
G1 X123.425 Y178.925 E.01021
G1 X123.173 Y179.131 E.01021
G1 X122.886 Y179.285 E.01021
G1 X122.574 Y179.38 E.01021
G1 X122.25 Y179.411 E.01021
G1 X121.926 Y179.38 E.01021
G1 X121.614 Y179.285 E.01021
G1 X121.327 Y179.131 E.01021
G1 X121.075 Y178.925 E.01021
G1 X120.869 Y178.673 E.01021
G1 X120.715 Y178.386 E.01021
G1 X120.62 Y178.074 E.01021
G1 X120.589 Y177.75 E.01021
G1 X120.62 Y177.426 E.01021
G1 X120.715 Y177.114 E.01021
G1 X120.869 Y176.827 E.01021
G1 X121.075 Y176.575 E.01021
G1 X121.327 Y176.369 E.01021
G1 X121.614 Y176.215 E.01021
G1 X121.926 Y176.12 E.01021
G1 X122.17 Y176.096 E.00771
G1 X122.399 Y175.791 F9000
G1 E-4.2 F3600
;WIPE_START
G1 F7200
G1 X122.573 Y176.12 E-.19151
G1 X122.886 Y176.215 E-.15532
G1 X123.173 Y176.369 E-.15471
G1 X123.425 Y176.575 E-.15472
G1 X123.631 Y176.827 E-.15471
G1 X123.785 Y177.114 E-.15471
G1 X123.88 Y177.426 E-.15471
G1 X123.911 Y177.75 E-.15471
G1 X123.88 Y178.074 E-.15471
G1 X123.785 Y178.386 E-.15471
G1 X123.661 Y178.619 E-.12547
;WIPE_END
G1 E-.09 F3600
G1 X120.237 Y179.763 F9000
G1 E6 F2400
;TYPE:Perimeter
G1 F1200
G1 X120.237 Y178.029 E.05437
G1 X120.249 Y178.148 E.00375
G1 X120.365 Y178.531 E.01254
G1 X120.553 Y178.884 E.01254
G1 X120.807 Y179.193 E.01254
G1 X121.116 Y179.447 E.01254
G1 X121.469 Y179.635 E.01254
G1 X121.852 Y179.751 E.01254
G1 X121.971 Y179.763 E.00375
G1 X120.297 Y179.763 E.05248
G1 X119.86 Y180.14 F9000
;TYPE:External perimeter
G1 F1200
G1 X119.86 Y129.86 E1.57649
G1 X190.14 Y129.86 E2.20358
G1 X190.14 Y180.14 E1.57649
G1 X119.92 Y180.14 E2.2017
G1 X119.985 Y179.76 F9000
G1 X120.571 Y179.429
;TYPE:Gap fill
;WIDTH:0.333048
G1 F1200
G1 X120.426 Y179.053 E.00972
G1 X120.571 Y179.429 F9000
;WIDTH:0.333049
G1 F1200
G1 X120.946 Y179.574 E.00972
G1 E-4.2 F3600
;WIPE_START
G1 F7200
G1 X120.571 Y179.429 E-.19134
;WIPE_END
G1 E-1.60866 F3600
G1 X120.426 Y130.947 F9000
G1 E6 F2400
;WIDTH:0.333048
G1 F1200
G1 X120.571 Y130.571 E.00972
;WIDTH:0.333048
G1 X120.946 Y130.426 E.00972
G1 X122.168 Y130.401 F9000
;WIDTH:0.184184
G1 F1200
G1 X122.235 Y130.331 E.00115
;WIDTH:0.207478
G1 X122.246 Y130.32 E.00021
;WIDTH:0.224139
G1 X122.245 Y130.049 E.00409
G1 E-4.2 F3600
;WIPE_START
G1 F7200
G1 X122.246 Y130.32 E-.12895
;WIPE_END
G1 E-1.67105 F3600
G1 X187.668 Y130.401 F9000
G1 E6 F2400
;WIDTH:0.184186
G1 F1200
G1 X187.735 Y130.331 E.00115
;WIDTH:0.207482
G1 X187.746 Y130.32 E.00021
;WIDTH:0.224143
G1 X187.745 Y130.049 E.00409
G1 X189.054 Y130.426 F9000
;WIDTH:0.333051
G1 F1200
G1 X189.429 Y130.571 E.00972
;WIDTH:0.33305
G1 X189.574 Y130.946 E.00972
G1 E-4.2 F3600
;WIPE_START
G1 F7200
G1 X189.429 Y130.571 E-.19135
;WIPE_END
G1 E-1.60865 F3600
G1 X189.321 Y133.715 F9000
G1 E6 F2400
;TYPE:Solid infill
;WIDTH:0.420985
G1 F1200
G1 X189.48 Y133.875 E.0071
G1 X189.48 Y134.41 E.01681
G1 X189.158 Y134.087 E.01433
G1 X189.041 Y134.183 E.00473
G1 X188.831 Y134.295 E.0075
G1 X189.48 Y134.944 E.02886
G1 X189.48 Y135.479 E.01681
G1 X188.455 Y134.454 E.04558
G1 X188.203 Y134.53 E.00826
G1 X188.015 Y134.548 E.00596
G1 X189.48 Y136.014 E.06514
G1 X189.48 Y136.548 E.01681
G1 X187.279 Y134.347 E.09785
G1 E-4.2 F3600
;WIPE_START
G1 F7200
G1 X189.48 Y136.548 E-1.47855
G1 X189.48 Y136.061 E-.23145
;WIPE_END
G1 E-.09 F3600
G1 X185.955 Y130.35 F9000
G1 E6 F2400
G1 F1200
G1 X186.164 Y130.559 E.00928
G1 X185.913 Y130.842 E.01191
G1 X185.59 Y130.52 E.01433
G1 X185.056 Y130.52 E.01681
G1 X185.705 Y131.169 E.02886
G1 X185.602 Y131.36 E.00683
G1 X185.546 Y131.545 E.00607
G1 X184.521 Y130.52 E.04558
G1 X183.986 Y130.52 E.01681
G1 X185.452 Y131.985 E.06514
G1 X185.425 Y132.25 E.00837
G1 X185.452 Y132.52 E.00854
G1 X183.452 Y130.52 E.08893
G1 X182.917 Y130.52 E.01681
G1 X189.48 Y137.083 E.29178
G1 X189.48 Y137.618 E.01681
G1 X182.382 Y130.52 E.31555
G1 X181.848 Y130.52 E.01681
G1 X185.308 Y133.98 E.15383
G1 X184.773 Y133.98 E.01681
G1 X181.313 Y130.52 E.15383
G1 X180.778 Y130.52 E.01681
G1 X184.239 Y133.98 E.15383
G1 X183.704 Y133.98 E.01681
G1 X180.244 Y130.52 E.15383
G1 X179.709 Y130.52 E.01681
G1 X183.169 Y133.98 E.15383
G1 X182.635 Y133.98 E.01681
G1 X179.174 Y130.52 E.15383
G1 X178.64 Y130.52 E.01681
G1 X182.1 Y133.98 E.15383
G1 X181.565 Y133.98 E.01681
G1 X178.105 Y130.52 E.15383
G1 X177.57 Y130.52 E.01681
G1 X181.031 Y133.98 E.15383
G1 X180.496 Y133.98 E.01681
G1 X177.036 Y130.52 E.15383
G1 X176.501 Y130.52 E.01681
G1 X179.961 Y133.98 E.15383
G1 X179.427 Y133.98 E.01681
G1 X175.966 Y130.52 E.15383
G1 X175.432 Y130.52 E.01681
G1 X178.892 Y133.98 E.15383
G1 X178.357 Y133.98 E.01681
G1 X174.897 Y130.52 E.15383
G1 X174.362 Y130.52 E.01681
G1 X177.823 Y133.98 E.15383
G1 X177.288 Y133.98 E.01681
G1 X173.828 Y130.52 E.15383
G1 X173.293 Y130.52 E.01681
