; generated by PrusaSlicer 2.5.2 on 2023-05-13 at 11:16:04 UTC

; 

; external perimeters extrusion width = 0.42mm
; perimeters extrusion width = 0.44mm
; infill extrusion width = 0.44mm
; solid infill extrusion width = 0.44mm
; top infill extrusion width = 0.40mm
; first layer extrusion width = 0.42mm

M107
;TYPE:Custom
G90 ; use absolute coordinates
M83 ; extruder relative mode
M140 S60 ; set final bed temp
M104 S150 ; set temporary nozzle temp to prevent oozing during homing
G4 S10 ; allow partial nozzle warmup
G28 ; home all axis
G1 Z50 F240
G1 X2 Y10 F3000
M104 S210 ; set final nozzle temp
M190 S60 ; wait for bed temp to stabilize
M109 S210 ; wait for nozzle temp to stabilize
G1 Z0.28 F240
G92 E0
G1 Y140 E10 F1500 ; prime the nozzle
G1 X2.3 F5000
G92 E0
G1 Y10 E10 F1200 ; prime the nozzle
G92 E0
G21 ; set units to millimeters
G90 ; use absolute coordinates
M83 ; use relative distances for extrusion
; Filament gcode
M107
;LAYER_CHANGE
;Z:0.2
;HEIGHT:0.2
;BEFORE_LAYER_CHANGE
G92 E0
;0.2


G1 E-6 F3600
G1 Z.2 F9000
;AFTER_LAYER_CHANGE
;0.2
G1 X100.804 Y77.205
G1 E6 F2400
M204 S500
;TYPE:Skirt/Brim
;WIDTH:0.42
G1 F1200
G1 X101.894 Y75.991 E.05115
G1 X103.787 Y75.411 E.06207
G1 X203.787 Y75.411 E3.13543
G1 X205.37 Y75.805 E.05115
G1 X206.584 Y76.895 E.05115
G1 X207.164 Y78.788 E.06207
G1 X207.164 Y228.788 E4.70314
G1 X206.77 Y230.371 E.05115
G1 X205.68 Y231.585 E.05115
G1 X203.787 Y232.165 E.06207
G1 X103.787 Y232.165 E3.13543
G1 X102.204 Y231.771 E.05115
G1 X100.99 Y230.681 E.05115
G1 X100.41 Y228.788 E.06207
G1 X100.41 Y78.788 E4.70314
G1 X100.79 Y77.263 E.04927
G1 E-4.2 F3600
;WIPE_START
G1 F7200
G1 X101.894 Y75.991 E-.80023
G1 X103.725 Y75.43 E-.90977
;WIPE_END
G1 E-.09 F3600
G1 X139.223 Y84.326 F9000
G1 E6 F2400
;TYPE:Perimeter
;WIDTH:0.419999
G1 F1200
G1 X139.223 Y83.667 E.02067
G1 X139.295 Y83.304 E.01159
G1 X139.411 Y83.101 E.00733
G1 X139.6 Y82.913 E.00836
G1 X140.003 Y82.738 E.01376
G1 X140.166 Y82.724 E.00513
G1 X167.408 Y82.724 E.85418
G1 X167.714 Y82.775 E.00972
G1 X167.974 Y82.913 E.00922
G1 X168.163 Y83.101 E.00836
G1 X168.336 Y83.497 E.01354
G1 X168.351 Y83.788 E.00915
G1 X168.351 Y123.91 E1.25798
G1 X168.279 Y124.272 E.01159
G1 X168.091 Y124.56 E.01076
G1 X167.798 Y124.768 E.01128
G1 X167.408 Y124.852 E.01249
G1 X140.166 Y124.852 E.85418
G1 X139.803 Y124.78 E.01159
G1 X139.508 Y124.585 E.01108
G1 X139.312 Y124.309 E.01063
G1 X139.223 Y123.91 E.01282
G1 X139.223 Y84.386 E1.23924
G1 X139.6 Y83.996 F9000
G1 F1200
G1 X139.6 Y83.667 E.01033
G1 X139.643 Y83.449 E.00696
G1 X139.826 Y83.214 E.00933
G1 X140.068 Y83.11 E.00826
G1 X140.166 Y83.101 E.00308
G1 X167.408 Y83.101 E.85418
G1 X167.592 Y83.132 E.00583
G1 X167.861 Y83.327 E.01043
G1 X167.965 Y83.565 E.00812
G1 X167.974 Y83.788 E.00701
G1 X167.974 Y123.91 E1.25798
G1 X167.91 Y124.171 E.00842
G1 X167.724 Y124.379 E.00878
G1 X167.461 Y124.473 E.00874
G1 X167.408 Y124.475 E.00165
G1 X140.166 Y124.475 E.85418
G1 X139.899 Y124.409 E.0086
G1 X139.7 Y124.23 E.00839
G1 X139.602 Y123.96 E.00902
G1 X139.6 Y123.91 E.00157
G1 X139.6 Y84.056 E1.24957
G1 X139.977 Y83.667 F9000
;TYPE:External perimeter
G1 F1200
G1 X140.052 Y83.516 E.00529
G1 X140.166 Y83.478 E.00374
G1 X167.408 Y83.478 E.85418
G1 X167.559 Y83.554 E.00529
G1 X167.597 Y83.667 E.00374
G1 X167.597 Y123.91 E1.26179
G1 X167.53 Y124.054 E.005
G1 X167.408 Y124.098 E.00404
G1 X140.166 Y124.098 E.85418
G1 X140.019 Y124.029 E.00508
G1 X139.977 Y123.91 E.00396
G1 X139.977 Y83.727 E1.25991
G1 X139.864 Y83.542 F9000
G1 E-4.2 F3600
;WIPE_START
G1 F7200
G1 X140.052 Y83.516 E-.10636
G1 X140.166 Y83.478 E-.05664
G1 X143.422 Y83.478 E-1.547
;WIPE_END
G1 E-.09 F3600
G1 X109.722 Y92.359 F9000
G1 E6 F2400
;TYPE:Perimeter
G1 F1200
G1 X109.751 Y92.21 E.00478
G1 X109.751 Y80.667 E.36192
G1 X109.563 Y80.101 E.01869
G1 X109.065 Y79.852 E.01744
G1 X127.017 Y79.852 E.56286
G1 X126.611 Y80.101 E.01491
G1 X126.423 Y80.667 E.01869
G1 X126.423 Y92.21 E.36192
G1 X126.494 Y92.569 E.01149
G1 X126.696 Y92.873 E.01143
G1 X127.005 Y93.081 E.01168
G1 X127.366 Y93.152 E.01153
G1 X130.408 Y93.152 E.09541
G1 X130.578 Y93.137 E.00535
G1 X130.873 Y93.03 E.00981
G1 X131.163 Y92.775 E.01211
G1 X131.3 Y92.515 E.00922
G1 X131.351 Y92.21 E.00972
G1 X131.351 Y80.667 E.36192
G1 X131.163 Y80.101 E.01869
G1 X130.665 Y79.852 E.01744
G1 X176.817 Y79.852 E1.44705
G1 X176.411 Y80.101 E.01491
G1 X176.223 Y80.667 E.01869
G1 X176.223 Y92.21 E.36192
G1 X176.236 Y92.366 E.00491
G1 X176.334 Y92.653 E.00953
G1 X176.502 Y92.879 E.00882
G1 X176.803 Y93.08 E.01135
G1 X177.166 Y93.152 E.01159
G1 X180.208 Y93.152 E.09541
G1 X180.569 Y93.081 E.01153
G1 X180.878 Y92.873 E.01168
G1 X181.08 Y92.569 E.01143
G1 X181.151 Y92.21 E.01149
G1 X181.151 Y80.667 E.36192
G1 X180.963 Y80.101 E.01869
G1 X180.465 Y79.852 E.01744
G1 X198.417 Y79.852 E.56286
G1 X198.011 Y80.101 E.01491
G1 X197.823 Y80.667 E.01869
G1 X197.823 Y92.21 E.36192
G1 X197.894 Y92.569 E.01149
G1 X198.096 Y92.873 E.01143
G1 X198.398 Y93.078 E.01145
G1 X198.766 Y93.152 E.01176
G1 X201.908 Y93.152 E.09854
G1 X202.474 Y92.964 E.01869
G1 X202.723 Y92.558 E.01491
G1 X202.723 Y227.724 E4.23801
G1 X154.781 Y227.724 E1.50317
;WIDTH:0.423542
G1 X154.044 Y227.722 E.02334
;WIDTH:0.434549
G1 X152.793 Y227.724 E.04075
;WIDTH:0.419999
G1 X104.851 Y227.724 E1.50317
G1 X104.851 Y92.558 E4.23801
G1 X105.1 Y92.964 E.01491
G1 X105.666 Y93.152 E.01869
G1 X108.808 Y93.152 E.09854
G1 X109.176 Y93.078 E.01176
G1 X109.478 Y92.873 E.01145
G1 X109.68 Y92.569 E.01143
G1 X109.71 Y92.418 E.00484
G1 X109.355 Y92.291 F9000
G1 F1200
G1 X109.315 Y92.461 E.00546
G1 X109.151 Y92.66 E.00809
G1 X108.896 Y92.768 E.00868
G1 X105.666 Y92.775 E.1013
G1 X105.326 Y92.662 E.01122
;WIDTH:0.463679
G1 X105.232 Y92.548 E.00518
;WIDTH:0.507359
G1 X105.138 Y92.433 E.00572
;WIDTH:0.551038
G1 X105.044 Y92.319 E.00626
G1 X105.038 Y92.21 E.00461
;WIDTH:0.544381
G1 X105.038 Y80.667 E.4813
G1 X105.114 Y80.533 E.0064
;WIDTH:0.502921
G1 X105.19 Y80.4 E.00587
;WIDTH:0.46146
G1 X105.266 Y80.267 E.00534
;WIDTH:0.463679
G1 X105.363 Y80.193 E.00427
;WIDTH:0.507359
G1 X105.46 Y80.119 E.00471
;WIDTH:0.551038
G1 X105.557 Y80.045 E.00515
G1 X105.666 Y80.039 E.00461
;WIDTH:0.544381
G1 X108.808 Y80.039 E.13105
G1 X108.959 Y80.135 E.00746
;WIDTH:0.502921
G1 X109.11 Y80.231 E.00684
;WIDTH:0.46146
G1 X109.261 Y80.327 E.00622
;WIDTH:0.419999
G1 X109.374 Y80.667 E.01122
G1 X109.369 Y92.233 E.36264
G1 X108.997 Y92.21 F9000
;TYPE:External perimeter
G1 F1200
G1 X108.932 Y92.352 E.00491
G1 X108.808 Y92.398 E.00413
G1 X105.666 Y92.398 E.09854
G1 X105.552 Y92.36 E.00374
G1 X105.477 Y92.21 E.00529
G1 X105.477 Y80.667 E.36192
G1 X105.532 Y80.533 E.00452
G1 X105.666 Y80.478 E.00452
G1 X108.808 Y80.478 E.09854
G1 X108.959 Y80.554 E.00529
G1 X108.997 Y80.667 E.00374
G1 X108.997 Y92.15 E.36004
G1 X109.105 Y92.323 F9000
G1 E-4.2 F3600
;WIPE_START
G1 F7200
G1 X108.932 Y92.352 E-.10107
G1 X108.808 Y92.398 E-.06254
G1 X105.666 Y92.398 E-1.49289
G1 X105.559 Y92.363 E-.0535
;WIPE_END
G1 E-.09 F3600
G1 X104.474 Y79.475 F9000
G1 E6 F2400
;TYPE:Perimeter
G1 F1200
G1 X104.938 Y79.475 E.01454
;WIDTH:0.46146
G1 X105.18 Y79.496 E.00847
;WIDTH:0.502921
G1 X105.423 Y79.517 E.00931
;WIDTH:0.544381
G1 X105.666 Y79.537 E.01015
G1 X108.808 Y79.537 E.13105
G1 X109.101 Y79.517 E.01224
;WIDTH:0.502921
G1 X109.394 Y79.496 E.01123
;WIDTH:0.46146
G1 X109.687 Y79.475 E.01022
;WIDTH:0.419999
G1 X126.487 Y79.475 E.52675
;WIDTH:0.46146
G1 X126.78 Y79.496 E.01022
;WIDTH:0.502921
G1 X127.073 Y79.517 E.01123
;WIDTH:0.544381
G1 X127.366 Y79.537 E.01224
G1 X130.408 Y79.537 E.12688
G1 X130.701 Y79.517 E.01224
;WIDTH:0.502921
G1 X130.994 Y79.496 E.01123
;WIDTH:0.46146
G1 X131.287 Y79.475 E.01022
;WIDTH:0.419999
G1 X176.287 Y79.475 E1.41094
;WIDTH:0.46146
G1 X176.58 Y79.496 E.01022
;WIDTH:0.502921
G1 X176.873 Y79.517 E.01123
;WIDTH:0.544381
G1 X177.166 Y79.537 E.01224
G1 X180.208 Y79.537 E.12688
G1 X180.501 Y79.517 E.01224
;WIDTH:0.502921
G1 X180.794 Y79.496 E.01123
;WIDTH:0.46146
G1 X181.087 Y79.475 E.01022
;WIDTH:0.419999
G1 X197.887 Y79.475 E.52675
;WIDTH:0.46146
G1 X198.18 Y79.496 E.01022
;WIDTH:0.502921
G1 X198.473 Y79.517 E.01123
;WIDTH:0.544381
G1 X198.766 Y79.537 E.01224
G1 X201.908 Y79.537 E.13105
G1 X202.306 Y79.517 E.01658
;WIDTH:0.502921
G1 X202.703 Y79.496 E.01521
;WIDTH:0.46146
G1 X203.1 Y79.475 E.01384
;WIDTH:0.419999
G1 X203.1 Y79.939 E.01454
;WIDTH:0.46146
G1 X203.079 Y80.181 E.00847
;WIDTH:0.502921
G1 X203.058 Y80.424 E.00931
;WIDTH:0.544381
G1 X203.038 Y80.667 E.01015
G1 X203.038 Y92.21 E.4813
;WIDTH:0.551037
G1 X203.056 Y92.604 E.0167
;WIDTH:0.507358
G1 X203.078 Y92.846 E.00938
;WIDTH:0.463679
G1 X203.1 Y93.088 E.0085
;WIDTH:0.419999
G1 X203.1 Y228.101 E4.23323
G1 X104.474 Y228.101 E3.09234
G1 X104.474 Y93.088 E4.23323
;WIDTH:0.46146
G1 X104.495 Y92.795 E.01022
;WIDTH:0.502921
G1 X104.516 Y92.502 E.01123
;WIDTH:0.544381
G1 X104.536 Y92.21 E.01224
G1 X104.536 Y80.667 E.4813
G1 X104.516 Y80.27 E.01658
;WIDTH:0.502921
G1 X104.495 Y79.872 E.01521
;WIDTH:0.46146
G1 X104.477 Y79.535 E.01175
G1 X104.097 Y79.098 F9000
;TYPE:External perimeter
;WIDTH:0.419999
G1 F1200
G1 X203.477 Y79.098 E3.11598
G1 X203.477 Y228.478 E4.6837
G1 X104.097 Y228.478 E3.11598
G1 X104.097 Y79.158 E4.68182
G1 X104.476 Y79.227 F9000
G1 X104.972 Y79.879
;TYPE:Perimeter
;WIDTH:0.59315
G1 F1200
G1 X104.903 Y79.879 E.00315
G1 X104.869 Y79.939 E.00315
G1 X104.903 Y79.998 E.00315
G1 X104.972 Y79.998 E.00315
G1 X105.007 Y79.939 E.00315
G1 E-4.2 F3600
;WIPE_START
G1 F7200
G1 X104.972 Y79.998 E-.03267
G1 X104.903 Y79.998 E-.03267
G1 X104.869 Y79.939 E-.03267
G1 X104.903 Y79.879 E-.03267
G1 X104.972 Y79.879 E-.03267
;WIPE_END
G1 E-1.63665 F3600
G1 X130.458 Y92.771 F9000
G1 E6 F2400
;WIDTH:0.419999
G1 F1200
G1 X127.366 Y92.775 E.09695
G1 X127.098 Y92.708 E.00866
G1 X126.894 Y92.521 E.00867
G1 X126.802 Y92.256 E.0088
G1 X126.8 Y80.667 E.36338
G1 X126.913 Y80.327 E.01122
;WIDTH:0.463679
G1 X127.028 Y80.233 E.00518
;WIDTH:0.507359
G1 X127.142 Y80.139 E.00572
;WIDTH:0.551038
G1 X127.257 Y80.045 E.00626
G1 X127.366 Y80.039 E.00461
;WIDTH:0.544381
G1 X130.408 Y80.039 E.12688
G1 X130.559 Y80.135 E.00746
;WIDTH:0.502921
G1 X130.71 Y80.231 E.00684
;WIDTH:0.46146
G1 X130.861 Y80.327 E.00622
;WIDTH:0.419999
G1 X130.974 Y80.667 E.01122
G1 X130.974 Y92.21 E.36192
G1 X130.908 Y92.476 E.0086
G1 X130.748 Y92.662 E.00769
G1 X130.517 Y92.763 E.00791
G1 X130.408 Y92.398 F9000
;TYPE:External perimeter
G1 F1200
G1 X127.366 Y92.398 E.09541
G1 X127.22 Y92.33 E.00504
G1 X127.177 Y92.21 E.004
G1 X127.177 Y80.667 E.36192
G1 X127.215 Y80.554 E.00374
G1 X127.366 Y80.478 E.00529
G1 X130.408 Y80.478 E.09541
G1 X130.559 Y80.554 E.00529
G1 X130.597 Y80.667 E.00374
G1 X130.597 Y92.21 E.36192
G1 X130.541 Y92.343 E.00455
G1 X130.464 Y92.375 E.00262
G1 X130.305 Y92.785 F9000
G1 E-4.2 F3600
;WIPE_START
G1 F7200
G1 X127.366 Y92.398 E-1.47178
G1 X127.22 Y92.33 E-.07636
G1 X127.177 Y92.21 E-.06057
G1 X127.177 Y91.996 E-.10129
;WIPE_END
G1 E-.09 F3600
G1 X177.081 Y92.753 F9000
G1 E6 F2400
;TYPE:Perimeter
G1 F1200
G1 X176.887 Y92.702 E.00629
G1 X176.713 Y92.549 E.00727
G1 X176.608 Y92.303 E.00838
G1 X176.6 Y92.21 E.00295
G1 X176.6 Y80.667 E.36192
G1 X176.713 Y80.327 E.01122
;WIDTH:0.463679
G1 X176.828 Y80.233 E.00518
;WIDTH:0.507359
G1 X176.942 Y80.139 E.00572
;WIDTH:0.551038
G1 X177.057 Y80.045 E.00626
G1 X177.166 Y80.039 E.00461
;WIDTH:0.544381
G1 X180.208 Y80.039 E.12688
G1 X180.359 Y80.135 E.00746
;WIDTH:0.502921
G1 X180.51 Y80.231 E.00684
;WIDTH:0.46146
G1 X180.661 Y80.327 E.00622
;WIDTH:0.419999
G1 X180.774 Y80.667 E.01122
G1 X180.774 Y92.21 E.36192
G1 X180.715 Y92.461 E.00808
G1 X180.528 Y92.676 E.00896
G1 X180.271 Y92.772 E.00858
G1 X177.139 Y92.768 E.0982
G1 X177.166 Y92.398 F9000
;TYPE:External perimeter
G1 F1200
G1 X177.033 Y92.343 E.0045
G1 X176.977 Y92.21 E.00455
G1 X176.977 Y80.667 E.36192
G1 X177.015 Y80.554 E.00374
G1 X177.166 Y80.478 E.00529
G1 X180.208 Y80.478 E.09541
G1 X180.359 Y80.554 E.00529
G1 X180.397 Y80.667 E.00374
G1 X180.397 Y92.21 E.36192
G1 X180.332 Y92.352 E.00491
G1 X180.208 Y92.398 E.00413
G1 X177.226 Y92.398 E.09353
G1 X177.065 Y92.5 F9000
G1 E-4.2 F3600
;WIPE_START
G1 F7200
G1 X177.033 Y92.343 E-.09517
G1 X176.977 Y92.21 E-.06889
G1 X176.977 Y88.955 E-1.54594
;WIPE_END
G1 E-.09 F3600
G1 X198.68 Y92.754 F9000
G1 E6 F2400
;TYPE:Perimeter
G1 F1200
G1 X198.496 Y92.707 E.00595
G1 X198.294 Y92.521 E.00862
G1 X198.2 Y92.21 E.0102
G1 X198.2 Y80.667 E.36192
G1 X198.313 Y80.327 E.01122
;WIDTH:0.463679
G1 X198.428 Y80.233 E.00518
;WIDTH:0.507359
G1 X198.542 Y80.139 E.00572
;WIDTH:0.551038
G1 X198.657 Y80.045 E.00626
G1 X198.766 Y80.039 E.00461
;WIDTH:0.544381
G1 X201.908 Y80.039 E.13105
G1 X202.042 Y80.115 E.0064
;WIDTH:0.502921
G1 X202.175 Y80.191 E.00587
;WIDTH:0.46146
G1 X202.308 Y80.267 E.00534
G1 X202.384 Y80.4 E.00534
;WIDTH:0.502921
G1 X202.46 Y80.533 E.00587
;WIDTH:0.544381
G1 X202.536 Y80.667 E.0064
G1 X202.536 Y92.21 E.4813
;WIDTH:0.551037
G1 X202.53 Y92.319 E.00461
G1 X202.436 Y92.433 E.00626
;WIDTH:0.507358
G1 X202.342 Y92.548 E.00572
;WIDTH:0.463679
G1 X202.248 Y92.662 E.00518
;WIDTH:0.419999
G1 X201.908 Y92.775 E.01122
G1 X198.738 Y92.768 E.0994
G1 X198.766 Y92.398 F9000
;TYPE:External perimeter
G1 F1200
G1 X198.62 Y92.33 E.00504
G1 X198.577 Y92.21 E.004
G1 X198.577 Y80.667 E.36192
G1 X198.615 Y80.554 E.00374
G1 X198.766 Y80.478 E.00529
G1 X201.908 Y80.478 E.09854
G1 X202.042 Y80.533 E.00452
G1 X202.097 Y80.667 E.00452
G1 X202.097 Y92.21 E.36192
G1 X202.022 Y92.36 E.00529
G1 X201.908 Y92.398 E.00374
G1 X198.826 Y92.398 E.09666
G1 X198.649 Y92.509 F9000
G1 E-4.2 F3600
;WIPE_START
G1 F7200
G1 X198.62 Y92.33 E-.10286
G1 X198.577 Y92.21 E-.06057
G1 X198.577 Y88.954 E-1.54657
;WIPE_END
G1 E-.09 F3600
G1 X202.671 Y79.879 F9000
G1 E6 F2400
;TYPE:Perimeter
;WIDTH:0.593152
G1 F1200
G1 X202.602 Y79.879 E.00315
G1 X202.568 Y79.939 E.00315
G1 X202.602 Y79.998 E.00315
G1 X202.671 Y79.998 E.00315
G1 X202.705 Y79.939 E.00315
G1 E-4.2 F3600
;WIPE_START
G1 F7200
G1 X202.671 Y79.998 E-.03267
G1 X202.602 Y79.998 E-.03267
G1 X202.568 Y79.939 E-.03267
G1 X202.602 Y79.879 E-.03267
G1 X202.671 Y79.879 E-.03267
;WIPE_END
G1 E-1.63665 F3600
G1 X153.747 Y220.236 F9000
G1 E6 F2400
;WIDTH:0.419999
G1 F1200
G1 X154.137 Y220.241 E.01223
G1 X154.732 Y220.355 E.01899
G1 X155.384 Y220.605 E.02189
G1 X155.974 Y220.978 E.02189
G1 X156.48 Y221.458 E.02189
G1 X156.883 Y222.029 E.02189
G1 X157.167 Y222.666 E.02189
G1 X157.321 Y223.347 E.02189
G1 X157.339 Y224.045 E.02189
G1 X157.22 Y224.733 E.02189
G1 X156.97 Y225.385 E.02189
G1 X156.597 Y225.975 E.02189
G1 X156.117 Y226.481 E.02189
G1 X155.547 Y226.884 E.02189
G1 X154.909 Y227.168 E.02189
;WIDTH:0.431348
G1 X154.229 Y227.327 E.02255
G1 X153.53 Y227.342 E.02258
;WIDTH:0.423542
G1 X152.842 Y227.221 E.0221
;WIDTH:0.419999
G1 X152.19 Y226.971 E.02189
G1 X151.6 Y226.599 E.02189
G1 X151.094 Y226.118 E.02189
G1 X150.691 Y225.548 E.02189
G1 X150.407 Y224.91 E.02189
G1 X150.253 Y224.229 E.02189
G1 X150.235 Y223.531 E.02189
G1 X150.354 Y222.843 E.02189
G1 X150.604 Y222.192 E.02189
G1 X150.977 Y221.601 E.02189
G1 X151.457 Y221.095 E.02189
G1 X152.027 Y220.692 E.02189
G1 X152.665 Y220.408 E.02189
G1 X153.687 Y220.236 E.0325
G1 X153.754 Y220.61 F9000
G1 F1200
G1 X154.154 Y220.624 E.01257
G1 X154.658 Y220.725 E.01612
G1 X155.239 Y220.954 E.01958
G1 X155.764 Y221.291 E.01958
G1 X156.214 Y221.725 E.01958
G1 X156.569 Y222.238 E.01958
G1 X156.818 Y222.811 E.01958
G1 X156.951 Y223.421 E.01958
G1 X156.962 Y224.045 E.01958
G1 X156.85 Y224.659 E.01958
G1 X156.622 Y225.24 E.01958
G1 X156.284 Y225.766 E.01958
G1 X155.85 Y226.215 E.01958
G1 X155.337 Y226.57 E.01958
G1 X154.764 Y226.819 E.01958
G1 X154.154 Y226.952 E.01958
G1 X153.53 Y226.963 E.01958
G1 X152.916 Y226.852 E.01958
G1 X152.335 Y226.623 E.01958
G1 X151.81 Y226.285 E.01958
G1 X151.361 Y225.851 E.01958
G1 X151.005 Y225.338 E.01958
G1 X150.756 Y224.766 E.01958
G1 X150.623 Y224.155 E.01958
G1 X150.612 Y223.531 E.01958
G1 X150.724 Y222.917 E.01958
G1 X150.952 Y222.336 E.01958
G1 X151.29 Y221.811 E.01958
G1 X151.724 Y221.362 E.01958
G1 X152.237 Y221.006 E.01958
G1 X152.81 Y220.757 E.01958
